%
(TeaBox3Top)
(T1  D=0.25 CR=0 - ZMIN=-0.5 - flat end mill)
G90
G17
G20
G28 G91 Z0
G90

(2D Adaptive2)
M9
T1 M6
S1600 M3
G54
M9
G0 X4.7563 Y2.1241
Z0.6
Z0.2
Z0.125
G1 Z0.1 F30
G3 X4.9937 Y2.1259 Z0.087 I0.1187 J0.0009 F13.12
X4.7563 Y2.1241 Z0.0739 I-0.1187 J-0.0009
X4.9937 Y2.1259 Z0.0609 I0.1187 J0.0009
X4.7563 Y2.1241 Z0.0479 I-0.1187 J-0.0009
X4.9937 Y2.1259 Z0.0349 I0.1187 J0.0009
X4.7563 Y2.1241 Z0.0218 I-0.1187 J-0.0009
X4.9937 Y2.1259 Z0.0088 I0.1187 J0.0009
X4.7563 Y2.1241 Z-0.0042 I-0.1187 J-0.0009
X4.9937 Y2.1259 Z-0.0172 I0.1187 J0.0009
X4.7563 Y2.1241 Z-0.0303 I-0.1187 J-0.0009
X4.9937 Y2.1259 Z-0.0433 I0.1187 J0.0009
X4.7563 Y2.1241 Z-0.0563 I-0.1187 J-0.0009
X4.9937 Y2.1259 Z-0.0694 I0.1187 J0.0009
X4.7563 Y2.1241 Z-0.0824 I-0.1187 J-0.0009
X4.9937 Y2.1259 Z-0.0954 I0.1187 J0.0009
X4.7563 Y2.1241 Z-0.1084 I-0.1187 J-0.0009
X4.9937 Y2.1259 Z-0.1215 I0.1187 J0.0009
X4.7563 Y2.1241 Z-0.1345 I-0.1187 J-0.0009
X4.9937 Y2.1259 Z-0.1475 I0.1187 J0.0009
X4.7563 Y2.1241 Z-0.1606 I-0.1187 J-0.0009
X4.9937 Y2.1259 Z-0.1736 I0.1187 J0.0009
X4.7563 Y2.1241 Z-0.1866 I-0.1187 J-0.0009
X4.9937 Y2.125 Z-0.1996 I0.1187 J0.0009
X4.7562 I-0.1188 J0
X4.9895 Y2.0936 I0.1188 J0
X4.9937 Y2.125 I-0.1145 J0.0314
G1 X4.9939 Y2.1347 F39.37
X5.001 Y2.1731
X5.0028 Y2.1788
X5.0039 Y2.1847
X5.0045 Y2.1907
Y2.1967
X5.004 Y2.2032
X5.0029 Y2.2101
X5.0012 Y2.2174
X4.9987 Y2.2249
X4.9955 Y2.2326
X4.9915 Y2.2404
X4.9866 Y2.2483
X4.9808 Y2.256
X4.9742 Y2.2636
X4.9667 Y2.271
X4.9583 Y2.2779
X4.9491 Y2.2844
X4.939 Y2.2903
X4.9283 Y2.2955
X4.9169 Y2.2999
X4.9048 Y2.3035
X4.8923 Y2.3062
X4.8793 Y2.3079
X4.866 Y2.3086
X4.8525 Y2.3082
X4.8388 Y2.3066
X4.8252 Y2.304
X4.8117 Y2.3002
X4.7983 Y2.2953
X4.7853 Y2.2893
X4.7728 Y2.2822
X4.7607 Y2.2741
X4.7493 Y2.265
X4.7386 Y2.2549
X4.7286 Y2.244
X4.7196 Y2.2322
X4.7115 Y2.2198
X4.7044 Y2.2066
X4.6983 Y2.1929
X4.6934 Y2.1787
X4.6896 Y2.1642
X4.687 Y2.1493
X4.6856 Y2.1343
X4.6854 Y2.1192
X4.6864 Y2.1041
X4.6886 Y2.0891
X4.692 Y2.0743
X4.6966 Y2.0598
X4.7024 Y2.0458
X4.7093 Y2.0322
X4.7172 Y2.0192
X4.7262 Y2.0069
X4.7361 Y1.9953
X4.7469 Y1.9846
X4.7586 Y1.9748
X4.771 Y1.9659
X4.784 Y1.9581
X4.7977 Y1.9513
X4.8119 Y1.9457
X4.8265 Y1.9412
X4.8414 Y1.9379
X4.8565 Y1.9358
X4.8717 Y1.9349
X4.887 Y1.9352
X4.9022 Y1.9368
X4.9172 Y1.9396
X4.9319 Y1.9436
X4.9463 Y1.9487
X4.9602 Y1.955
X4.9736 Y1.9624
X4.9863 Y1.9708
X4.9983 Y1.9803
X5.0095 Y1.9906
X5.0199 Y2.0018
X5.0293 Y2.0139
X5.0377 Y2.0266
X5.0523 Y2.053
X5.0647 Y2.0805
X5.0726 Y2.1026
X5.0779 Y2.1225
X5.0813 Y2.141
X5.0832 Y2.159
X5.0835 Y2.1763
X5.0825 Y2.1932
X5.0802 Y2.2097
X5.0767 Y2.2258
X5.0718 Y2.2415
X5.0657 Y2.2568
X5.0583 Y2.2716
X5.0498 Y2.2859
X5.04 Y2.2996
X5.029 Y2.3125
X5.0169 Y2.3247
X5.0038 Y2.336
X4.9895 Y2.3464
X4.9743 Y2.3557
X4.9581 Y2.3638
X4.9411 Y2.3708
X4.9234 Y2.3764
X4.905 Y2.3806
X4.8861 Y2.3834
X4.8669 Y2.3847
X4.8474 Y2.3844
X4.8278 Y2.3826
X4.8082 Y2.3791
X4.7889 Y2.374
X4.7698 Y2.3674
X4.7513 Y2.3592
X4.7333 Y2.3495
X4.716 Y2.3383
X4.6997 Y2.3256
X4.6843 Y2.3117
X4.67 Y2.2964
X4.657 Y2.28
X4.6452 Y2.2626
X4.6349 Y2.2442
X4.626 Y2.2249
X4.6187 Y2.205
X4.613 Y2.1845
X4.609 Y2.1635
X4.6066 Y2.1423
X4.606 Y2.1209
X4.607 Y2.0995
X4.6098 Y2.0782
X4.6143 Y2.0572
X4.6205 Y2.0365
X4.6284 Y2.0165
X4.6378 Y1.9971
X4.6487 Y1.9785
X4.6611 Y1.9608
X4.6749 Y1.9442
X4.69 Y1.9288
X4.7063 Y1.9146
X4.7237 Y1.9017
X4.7421 Y1.8903
X4.7613 Y1.8804
X4.7813 Y1.872
X4.8019 Y1.8653
X4.8229 Y1.8603
X4.8443 Y1.8569
X4.8659 Y1.8553
X4.8876 Y1.8555
X4.9092 Y1.8573
X4.9305 Y1.8609
X4.9515 Y1.8662
X4.972 Y1.8732
X4.9919 Y1.8818
X5.0111 Y1.892
X5.0293 Y1.9036
X5.0466 Y1.9167
X5.0649 Y1.9331
X5.0832 Y1.9523
X5.1004 Y1.9735
X5.1161 Y1.9965
X5.1299 Y2.0205
X5.1414 Y2.0449
X5.1507 Y2.0696
X5.1578 Y2.0944
X5.1627 Y2.1191
X5.1657 Y2.1437
X5.1666 Y2.1681
X5.1656 Y2.1922
X5.1627 Y2.216
X5.1579 Y2.2393
X5.1512 Y2.2621
X5.1428 Y2.2842
X5.1326 Y2.3056
X5.1208 Y2.3262
X5.1072 Y2.3458
X5.0921 Y2.3643
X5.0754 Y2.3817
X5.0573 Y2.3978
X5.0377 Y2.4124
X5.0169 Y2.4256
X4.9949 Y2.4372
X4.9719 Y2.447
X4.9479 Y2.4551
X4.9232 Y2.4612
X4.8979 Y2.4654
X4.8721 Y2.4675
X4.8461
X4.8199 Y2.4655
X4.7939 Y2.4613
X4.768 Y2.455
X4.7427 Y2.4466
X4.7179 Y2.4362
X4.6939 Y2.4237
X4.6709 Y2.4093
X4.649 Y2.393
X4.6285 Y2.3749
X4.6093 Y2.3551
X4.5917 Y2.3338
X4.5759 Y2.3111
X4.5619 Y2.287
X4.5498 Y2.2619
X4.5397 Y2.2358
X4.5318 Y2.209
X4.526 Y2.1815
X4.5225 Y2.1536
X4.5212 Y2.1254
X4.5221 Y2.0972
X4.5253 Y2.0692
X4.5308 Y2.0414
X4.5385 Y2.0142
X4.5484 Y1.9876
X4.5603 Y1.9619
X4.5743 Y1.9373
X4.5903 Y1.9138
X4.608 Y1.8916
X4.6276 Y1.871
X4.6487 Y1.8519
X4.6713 Y1.8347
X4.6952 Y1.8193
X4.7202 Y1.8058
X4.7463 Y1.7944
X4.7732 Y1.7851
X4.8008 Y1.7781
X4.8289 Y1.7732
X4.8572 Y1.7706
X4.8857 Y1.7703
X4.9141 Y1.7723
X4.9423 Y1.7766
X4.97 Y1.7831
X4.9971 Y1.7918
X5.0235 Y1.8027
X5.0495 Y1.816
X5.0752 Y1.8318
X5.1004 Y1.8502
X5.1246 Y1.8712
X5.1475 Y1.8945
X5.1687 Y1.9198
X5.1879 Y1.9468
X5.2048 Y1.9752
X5.2193 Y2.0046
X5.2312 Y2.0349
X5.2406 Y2.0658
X5.2475 Y2.0971
X5.2517 Y2.1286
X5.2535 Y2.1601
X5.2527 Y2.1914
X5.2494 Y2.2223
X5.2436 Y2.2528
X5.2355 Y2.2827
X5.2249 Y2.3117
X5.2121 Y2.3398
X5.1971 Y2.3669
X5.1799 Y2.3926
X5.1607 Y2.417
X5.1394 Y2.4399
X5.1163 Y2.461
X5.0915 Y2.4804
X5.065 Y2.4978
X5.037 Y2.5131
X5.0078 Y2.5261
X4.9774 Y2.5369
X4.946 Y2.5452
X4.9139 Y2.551
X4.8813 Y2.5543
X4.8483 Y2.5549
X4.8151 Y2.5528
X4.7821 Y2.5481
X4.7494 Y2.5407
X4.7173 Y2.5307
X4.6859 Y2.518
X4.6554 Y2.5028
X4.6262 Y2.4852
X4.5984 Y2.4651
X4.5722 Y2.4428
X4.5478 Y2.4184
X4.5253 Y2.3921
X4.505 Y2.3639
X4.487 Y2.3342
X4.4713 Y2.303
X4.4582 Y2.2705
X4.4477 Y2.2371
X4.4399 Y2.2028
X4.4349 Y2.168
X4.4327 Y2.1329
X4.4333 Y2.0976
X4.4368 Y2.0624
X4.443 Y2.0276
X4.4521 Y1.9934
X4.4638 Y1.96
X4.4783 Y1.9276
X4.4953 Y1.8965
X4.5147 Y1.8668
X4.5365 Y1.8388
X4.5605 Y1.8125
X4.5865 Y1.7883
X4.6143 Y1.7663
X4.6439 Y1.7465
X4.675 Y1.7292
X4.7073 Y1.7144
X4.7408 Y1.7022
X4.7751 Y1.6928
X4.8101 Y1.6862
X4.8455 Y1.6824
X4.8811 Y1.6814
X4.9166 Y1.6833
X4.9519 Y1.6881
X4.9869 Y1.6957
X5.0213 Y1.7061
X5.0552 Y1.7195
X5.0884 Y1.7357
X5.1207 Y1.7549
X5.1519 Y1.777
X5.1818 Y1.8019
X5.2096 Y1.8293
X5.2351 Y1.8587
X5.2583 Y1.8901
X5.2789 Y1.9232
X5.2968 Y1.9578
X5.312 Y1.9937
X5.3243 Y2.0307
X5.3336 Y2.0686
X5.3398 Y2.1071
X5.3429 Y2.1457
Y2.1843
X5.3398 Y2.2227
X5.3337 Y2.2605
X5.3246 Y2.2977
X5.3125 Y2.334
X5.2975 Y2.3691
X5.2798 Y2.403
X5.2594 Y2.4354
X5.2364 Y2.4661
X5.211 Y2.4949
X5.1832 Y2.5217
X5.1532 Y2.5463
X5.1213 Y2.5685
X5.0876 Y2.588
X5.0524 Y2.6049
X5.016 Y2.6188
X4.9786 Y2.6299
X4.9405 Y2.6379
X4.9018 Y2.643
X4.8628 Y2.645
X4.8239 Y2.6439
X4.7851 Y2.6399
X4.7467 Y2.6329
X4.709 Y2.6229
X4.6722 Y2.6101
X4.6364 Y2.5946
X4.602 Y2.5764
X4.5689 Y2.5556
X4.5376 Y2.5324
X4.5081 Y2.5069
X4.4806 Y2.4793
X4.4553 Y2.4496
X4.4323 Y2.4181
X4.4117 Y2.385
X4.3936 Y2.3505
X4.3781 Y2.3147
X4.3653 Y2.2779
X4.3552 Y2.2402
X4.348 Y2.2019
X4.3435 Y2.1632
X4.3419 Y2.1242
X4.3432 Y2.0853
X4.3473 Y2.0465
X4.3544 Y2.0081
X4.3642 Y1.9704
X4.3769 Y1.9335
X4.3921 Y1.8976
X4.41 Y1.863
X4.4303 Y1.8297
X4.453 Y1.798
X4.4779 Y1.768
X4.5049 Y1.7399
X4.5339 Y1.7139
X4.5648 Y1.69
X4.5973 Y1.6685
X4.6314 Y1.6495
X4.6667 Y1.633
X4.7031 Y1.6192
X4.7405 Y1.608
X4.7786 Y1.5996
X4.8171 Y1.5939
X4.856 Y1.5911
X4.895 Y1.591
X4.9339 Y1.5938
X4.9725 Y1.5995
X5.0105 Y1.608
X5.0479 Y1.6192
X5.0843 Y1.6331
X5.1197 Y1.6496
X5.1538 Y1.6684
X5.1866 Y1.6895
X5.2178 Y1.7128
X5.2474 Y1.7383
X5.2751 Y1.7657
X5.3009 Y1.7949
X5.3247 Y1.8258
X5.3465 Y1.8581
X5.3661 Y1.8918
X5.3833 Y1.9268
X5.3981 Y1.9629
X5.4105 Y1.9999
X5.4203 Y2.0376
X5.4277 Y2.0759
X5.4324 Y2.1146
X5.4346 Y2.1535
X5.434 Y2.1925
X5.4307 Y2.2314
X5.4248 Y2.2699
X5.4163 Y2.3079
X5.4052 Y2.3453
X5.3917 Y2.3819
X5.3756 Y2.4174
X5.3571 Y2.4517
X5.3362 Y2.4847
X5.3132 Y2.5161
X5.288 Y2.5459
X5.261 Y2.574
X5.2321 Y2.6002
X5.2014 Y2.6243
X5.1692 Y2.6462
X5.1355 Y2.6659
X5.1007 Y2.6833
X5.0647 Y2.6984
X5.0278 Y2.711
X4.9902 Y2.7212
X4.9519 Y2.7288
X4.9132 Y2.7338
X4.8743 Y2.7362
X4.8353 Y2.7361
X4.7964 Y2.7335
X4.7578 Y2.7284
X4.7196 Y2.7207
X4.6819 Y2.7105
X4.645 Y2.6979
X4.609 Y2.6829
X4.574 Y2.6657
X4.5402 Y2.6463
X4.5077 Y2.6248
X4.4767 Y2.6012
X4.4472 Y2.5756
X4.4195 Y2.5482
X4.3936 Y2.5191
X4.3695 Y2.4884
X4.3475 Y2.4563
X4.3275 Y2.4228
X4.3097 Y2.3881
X4.2942 Y2.3523
X4.2809 Y2.3156
X4.27 Y2.2782
X4.2613 Y2.2402
X4.255 Y2.2017
X4.2512 Y2.1629
X4.2499 Y2.1239
X4.2511 Y2.085
X4.2547 Y2.0461
X4.2608 Y2.0076
X4.2691 Y1.9695
X4.2799 Y1.9321
X4.293 Y1.8953
X4.3084 Y1.8595
X4.326 Y1.8248
X4.3458 Y1.7911
X4.3675 Y1.7588
X4.3912 Y1.7278
X4.4168 Y1.6984
X4.4442 Y1.6706
X4.4733 Y1.6447
X4.504 Y1.6206
X4.5361 Y1.5985
X4.5695 Y1.5784
X4.6041 Y1.5604
X4.6397 Y1.5446
X4.6763 Y1.5311
X4.7137 Y1.5199
X4.7516 Y1.5111
X4.7901 Y1.5046
X4.8289 Y1.5004
X4.8678 Y1.4987
X4.9068 Y1.4993
X4.9456 Y1.5025
X4.9842 Y1.5082
X5.0224 Y1.5162
X5.06 Y1.5265
X5.0969 Y1.539
X5.133 Y1.5538
X5.1681 Y1.5707
X5.2022 Y1.5897
X5.235 Y1.6108
X5.2665 Y1.6337
X5.2966 Y1.6585
X5.3253 Y1.685
X5.3523 Y1.713
X5.3777 Y1.7426
X5.4013 Y1.7736
X5.4231 Y1.806
X5.4429 Y1.8396
X5.4608 Y1.8742
X5.4766 Y1.9098
X5.4904 Y1.9463
X5.5021 Y1.9835
X5.5116 Y2.0213
X5.5188 Y2.0596
X5.5238 Y2.0983
X5.5265 Y2.1372
X5.527 Y2.1762
X5.5251 Y2.2151
X5.5211 Y2.2539
X5.5147 Y2.2924
X5.506 Y2.3304
X5.4951 Y2.3678
X5.482 Y2.4046
X5.4668 Y2.4405
X5.4496 Y2.4754
X5.4303 Y2.5093
X5.409 Y2.542
X5.3858 Y2.5733
X5.3608 Y2.6032
X5.3341 Y2.6317
X5.3058 Y2.6585
X5.276 Y2.6836
X5.2447 Y2.707
X5.2122 Y2.7284
X5.1784 Y2.7479
X5.1436 Y2.7654
X5.1078 Y2.7809
X5.0712 Y2.7943
X5.0338 Y2.8056
X4.9959 Y2.8147
X4.9576 Y2.8216
X4.9189 Y2.8263
X4.8799 Y2.8287
X4.841 Y2.8289
X4.802 Y2.827
X4.7632 Y2.8228
X4.7248 Y2.8165
X4.6867 Y2.8081
X4.6492 Y2.7975
X4.6123 Y2.7847
X4.5763 Y2.7699
X4.5411 Y2.7531
X4.5068 Y2.7345
X4.4737 Y2.7139
X4.4418 Y2.6916
X4.4111 Y2.6674
X4.3819 Y2.6416
X4.3542 Y2.6142
X4.328 Y2.5853
X4.3035 Y2.555
X4.2806 Y2.5234
X4.2595 Y2.4906
X4.2403 Y2.4567
X4.2229 Y2.4218
X4.2075 Y2.386
X4.1942 Y2.3493
X4.1828 Y2.312
X4.1735 Y2.2742
X4.1662 Y2.2359
X4.161 Y2.1972
X4.1579 Y2.1584
X4.157 Y2.1194
X4.1583 Y2.0804
X4.1617 Y2.0416
X4.1672 Y2.003
X4.1748 Y1.9647
X4.1844 Y1.9269
X4.196 Y1.8897
X4.2097 Y1.8532
X4.2254 Y1.8175
X4.243 Y1.7827
X4.2625 Y1.749
X4.2837 Y1.7163
X4.3067 Y1.6848
X4.3313 Y1.6545
X4.3576 Y1.6257
X4.3853 Y1.5983
X4.4146 Y1.5726
X4.4452 Y1.5484
X4.4771 Y1.526
X4.5102 Y1.5053
X4.5443 Y1.4864
X4.5793 Y1.4694
X4.6153 Y1.4543
X4.652 Y1.4412
X4.6894 Y1.4301
X4.7273 Y1.4211
X4.7657 Y1.4142
X4.8044 Y1.4092
X4.8433 Y1.4064
X4.8823 Y1.4057
X4.9212 Y1.407
X4.9601 Y1.4106
X4.9986 Y1.4163
X5.0368 Y1.424
X5.0746 Y1.4338
X5.1118 Y1.4455
X5.1483 Y1.4592
X5.1841 Y1.4747
X5.2189 Y1.4921
X5.2528 Y1.5114
X5.2856 Y1.5325
X5.3173 Y1.5552
X5.3478 Y1.5795
X5.377 Y1.6054
X5.4049 Y1.6327
X5.4313 Y1.6613
X5.4562 Y1.6913
X5.4796 Y1.7225
X5.5013 Y1.7549
X5.5213 Y1.7884
X5.5396 Y1.8228
X5.5561 Y1.8581
X5.5709 Y1.8942
X5.5838 Y1.931
X5.5949 Y1.9684
X5.6039 Y2.0063
X5.611 Y2.0446
X5.6161 Y2.0833
X5.6192 Y2.1222
X5.6204 Y2.1611
X5.6195 Y2.2001
X5.6167 Y2.239
X5.6119 Y2.2777
X5.6051 Y2.3161
X5.5963 Y2.3541
X5.5855 Y2.3915
X5.5728 Y2.4284
X5.5582 Y2.4646
X5.5418 Y2.4999
X5.5236 Y2.5344
X5.5037 Y2.5679
X5.4821 Y2.6004
X5.4587 Y2.6316
X5.4338 Y2.6616
X5.4073 Y2.6902
X5.3795 Y2.7175
X5.3503 Y2.7434
X5.3198 Y2.7677
X5.2881 Y2.7904
X5.2553 Y2.8115
X5.2215 Y2.8308
X5.1867 Y2.8484
X5.151 Y2.8641
X5.1146 Y2.8781
X5.0775 Y2.8902
X5.0399 Y2.9005
X5.0018 Y2.9088
X4.9634 Y2.9152
X4.9246 Y2.9196
X4.8857 Y2.9221
X4.8467 Y2.9226
X4.8078 Y2.9211
X4.7689 Y2.9177
X4.7303 Y2.9125
X4.6919 Y2.9053
X4.654 Y2.8963
X4.6166 Y2.8853
X4.5798 Y2.8725
X4.5437 Y2.8578
X4.5083 Y2.8414
X4.4738 Y2.8233
X4.4401 Y2.8035
X4.4075 Y2.7821
X4.376 Y2.7592
X4.3457 Y2.7347
X4.3166 Y2.7087
X4.2888 Y2.6814
X4.2625 Y2.6526
X4.2375 Y2.6227
X4.214 Y2.5915
X4.1921 Y2.5593
X4.1717 Y2.5261
X4.1529 Y2.4919
X4.1359 Y2.4568
X4.1206 Y2.421
X4.1071 Y2.3844
X4.0954 Y2.3472
X4.0854 Y2.3095
X4.0773 Y2.2714
X4.071 Y2.2329
X4.0665 Y2.1942
X4.0639 Y2.1553
X4.0633 Y2.1163
X4.0646 Y2.0773
X4.0677 Y2.0384
X4.0728 Y1.9998
X4.0796 Y1.9614
X4.0883 Y1.9234
X4.0988 Y1.8858
X4.111 Y1.8488
X4.1251 Y1.8124
X4.1409 Y1.7768
X4.1585 Y1.742
X4.1777 Y1.708
X4.1985 Y1.6751
X4.2208 Y1.6431
X4.2446 Y1.6122
X4.2698 Y1.5825
X4.2965 Y1.554
X4.3245 Y1.5269
X4.3538 Y1.5012
X4.3843 Y1.4769
X4.416 Y1.4542
X4.4487 Y1.4329
X4.4823 Y1.4133
X4.5169 Y1.3952
X4.5523 Y1.3788
X4.5884 Y1.3641
X4.6252 Y1.3513
X4.6626 Y1.3402
X4.7005 Y1.331
X4.7387 Y1.3235
X4.7773 Y1.3179
X4.8161 Y1.3141
X4.8551 Y1.3122
X4.8941 Y1.312
X4.933 Y1.3138
X4.9718 Y1.3176
X5.0104 Y1.3231
X5.0487 Y1.3306
X5.0866 Y1.3398
X5.124 Y1.3507
X5.1609 Y1.3634
X5.1971 Y1.3778
X5.2327 Y1.3938
X5.2674 Y1.4115
X5.3012 Y1.4309
X5.3341 Y1.4519
X5.366 Y1.4743
X5.3968 Y1.4982
X5.4266 Y1.5234
X5.4551 Y1.5499
X5.4825 Y1.5777
X5.5085 Y1.6067
X5.5332 Y1.6369
X5.5564 Y1.6682
X5.5782 Y1.7006
X5.5985 Y1.7339
X5.6173 Y1.7681
X5.6345 Y1.803
X5.6501 Y1.8388
X5.6642 Y1.8751
X5.6766 Y1.9121
X5.6872 Y1.9496
X5.6961 Y1.9876
X5.7033 Y2.0259
X5.7086 Y2.0645
X5.7123 Y2.1033
X5.7141 Y2.1423
X5.7143 Y2.1813
X5.7126 Y2.2202
X5.7092 Y2.2591
X5.704 Y2.2977
X5.697 Y2.3361
X5.6882 Y2.3741
X5.6777 Y2.4116
X5.6655 Y2.4486
X5.6516 Y2.485
X5.636 Y2.5208
X5.6189 Y2.5558
X5.6002 Y2.59
X5.5799 Y2.6234
X5.5581 Y2.6557
X5.5348 Y2.6869
X5.5101 Y2.7171
X5.484 Y2.7461
X5.4567 Y2.7739
X5.4281 Y2.8004
X5.3984 Y2.8256
X5.3675 Y2.8495
X5.3356 Y2.8719
X5.3027 Y2.8928
X5.2689 Y2.9121
X5.2342 Y2.9299
X5.1987 Y2.9461
X5.1625 Y2.9607
X5.1258 Y2.9737
X5.0884 Y2.985
X5.0507 Y2.9947
X5.0125 Y3.0026
X4.974 Y3.0088
X4.9353 Y3.0132
X4.8964 Y3.0158
X4.8574 Y3.0168
X4.8184 Y3.0159
X4.7795 Y3.0134
X4.7407 Y3.0092
X4.7022 Y3.0033
X4.6639 Y2.9957
X4.6261 Y2.9863
X4.5887 Y2.9753
X4.5518 Y2.9626
X4.5156 Y2.9483
X4.48 Y2.9324
X4.4451 Y2.9149
X4.411 Y2.896
X4.3778 Y2.8756
X4.3454 Y2.8538
X4.3141 Y2.8306
X4.2839 Y2.806
X4.2548 Y2.78
X4.2269 Y2.7528
X4.2001 Y2.7244
X4.1747 Y2.6949
X4.1505 Y2.6643
X4.1277 Y2.6327
X4.1062 Y2.6001
X4.0862 Y2.5667
X4.0676 Y2.5324
X4.0507 Y2.4973
X4.0352 Y2.4615
X4.0214 Y2.425
X4.0091 Y2.388
X3.9984 Y2.3505
X3.9894 Y2.3126
X3.9819 Y2.2743
X3.9761 Y2.2358
X3.972 Y2.197
X3.9696 Y2.1581
X3.9689 Y2.1191
X3.97 Y2.0801
X3.9727 Y2.0412
X3.9771 Y2.0025
X3.9831 Y1.9639
X3.9908 Y1.9257
X4 Y1.8878
X4.0109 Y1.8504
X4.0234 Y1.8135
X4.0376 Y1.7771
X4.0533 Y1.7415
X4.0705 Y1.7065
X4.0893 Y1.6723
X4.1094 Y1.6389
X4.131 Y1.6064
X4.1539 Y1.5749
X4.1781 Y1.5443
X4.2036 Y1.5148
X4.2304 Y1.4865
X4.2585 Y1.4594
X4.2876 Y1.4336
X4.3179 Y1.409
X4.3492 Y1.3857
X4.3814 Y1.3638
X4.4146 Y1.3433
X4.4486 Y1.3242
X4.4833 Y1.3065
X4.5188 Y1.2904
X4.555 Y1.2758
X4.5918 Y1.2629
X4.6291 Y1.2516
X4.6669 Y1.2419
X4.705 Y1.2337
X4.7435 Y1.2272
X4.7821 Y1.2224
X4.821 Y1.2191
X4.86 Y1.2175
X4.8989 Y1.2177
X4.9379 Y1.2196
X4.9767 Y1.2231
X5.0154 Y1.2283
X5.0537 Y1.2352
X5.0918 Y1.2436
X5.1295 Y1.2537
X5.1667 Y1.2653
X5.2034 Y1.2784
X5.2396 Y1.2931
X5.275 Y1.3093
X5.3097 Y1.327
X5.3437 Y1.3462
X5.3768 Y1.3668
X5.409 Y1.3887
X5.4403 Y1.412
X5.4707 Y1.4365
X5.5 Y1.4622
X5.5282 Y1.4891
X5.5554 Y1.5171
X5.5813 Y1.5462
X5.606 Y1.5764
X5.6294 Y1.6076
X5.6515 Y1.6397
X5.6722 Y1.6727
X5.6916 Y1.7065
X5.7097 Y1.7411
X5.7263 Y1.7763
X5.7416 Y1.8122
X5.7553 Y1.8487
X5.7675 Y1.8857
X5.7782 Y1.9232
X5.7872 Y1.9612
X5.7947 Y1.9994
X5.8007 Y2.038
X5.805 Y2.0767
X5.8078 Y2.1156
X5.809 Y2.1546
X5.8087 Y2.1936
X5.8067 Y2.2325
X5.8031 Y2.2713
X5.7979 Y2.31
X5.791 Y2.3484
X5.7826 Y2.3864
X5.7726 Y2.4241
X5.7611 Y2.4614
X5.7481 Y2.4981
X5.7335 Y2.5343
X5.7176 Y2.5699
X5.7002 Y2.6048
X5.6813 Y2.6389
X5.661 Y2.6722
X5.6393 Y2.7046
X5.6163 Y2.7361
X5.592 Y2.7666
X5.5665 Y2.7961
X5.5399 Y2.8245
X5.5121 Y2.8518
X5.4832 Y2.878
X5.4533 Y2.903
X5.4223 Y2.9267
X5.3904 Y2.9491
X5.3576 Y2.9702
X5.3239 Y2.9898
X5.2894 Y3.0081
X5.2543 Y3.025
X5.2185 Y3.0404
X5.1821 Y3.0544
X5.1452 Y3.0669
X5.1078 Y3.078
X5.07 Y3.0875
X5.0318 Y3.0954
X4.9933 Y3.1017
X4.9546 Y3.1064
X4.9157 Y3.1096
X4.8768 Y3.1112
X4.8378 Y3.1113
X4.7988 Y3.1098
X4.76 Y3.1068
X4.7212 Y3.1023
X4.6827 Y3.0961
X4.6445 Y3.0885
X4.6066 Y3.0792
X4.5691 Y3.0684
X4.5321 Y3.0562
X4.4956 Y3.0424
X4.4597 Y3.0273
X4.4244 Y3.0108
X4.3898 Y2.9928
X4.3559 Y2.9736
X4.3227 Y2.953
X4.2905 Y2.9311
X4.2592 Y2.9079
X4.2288 Y2.8834
X4.1994 Y2.8578
X4.1711 Y2.831
X4.1438 Y2.8031
X4.1177 Y2.7742
X4.0926 Y2.7443
X4.0688 Y2.7135
X4.0462 Y2.6817
X4.0248 Y2.6491
X4.0048 Y2.6156
X3.9862 Y2.5814
X3.9689 Y2.5464
X3.9531 Y2.5108
X3.9386 Y2.4746
X3.9255 Y2.4378
X3.9139 Y2.4006
X3.9037 Y2.363
X3.8949 Y2.325
X3.8877 Y2.2867
X3.882 Y2.2481
X3.8778 Y2.2094
X3.8752 Y2.1705
X3.8741 Y2.1315
X3.8746 Y2.0925
X3.8766 Y2.0535
X3.88 Y2.0147
X3.885 Y1.976
X3.8914 Y1.9376
X3.8993 Y1.8994
X3.9087 Y1.8616
X3.9197 Y1.8241
X3.9321 Y1.7872
X3.9459 Y1.7507
X3.9612 Y1.7148
X3.9778 Y1.6796
X3.9958 Y1.645
X4.0151 Y1.6111
X4.0357 Y1.578
X4.0576 Y1.5457
X4.0806 Y1.5143
X4.1049 Y1.4838
X4.1304 Y1.4543
X4.1571 Y1.4258
X4.1848 Y1.3984
X4.2136 Y1.3722
X4.2434 Y1.347
X4.2742 Y1.323
X4.3058 Y1.3002
X4.3383 Y1.2787
X4.3716 Y1.2584
X4.4056 Y1.2394
X4.4404 Y1.2218
X4.4759 Y1.2056
X4.512 Y1.1908
X4.5486 Y1.1774
X4.5857 Y1.1654
X4.6233 Y1.1549
X4.6612 Y1.1459
X4.6994 Y1.1382
X4.7379 Y1.1321
X4.7766 Y1.1274
X4.8155 Y1.1243
X4.8545 Y1.1227
X4.8934
X4.9324 Y1.1242
X4.9713 Y1.1272
X5.01 Y1.1317
X5.0485 Y1.1377
X5.0868 Y1.1451
X5.1248 Y1.154
X5.1624 Y1.1643
X5.1996 Y1.176
X5.2363 Y1.1892
X5.2724 Y1.2038
X5.308 Y1.2198
X5.3429 Y1.2372
X5.3771 Y1.2558
X5.4106 Y1.2758
X5.4434 Y1.297
X5.4753 Y1.3193
X5.5064 Y1.3429
X5.5365 Y1.3676
X5.5658 Y1.3934
X5.594 Y1.4203
X5.6212 Y1.4482
X5.6473 Y1.4772
X5.6723 Y1.5071
X5.6962 Y1.5379
X5.7189 Y1.5696
X5.7404 Y1.6021
X5.7607 Y1.6354
X5.7798 Y1.6694
X5.7976 Y1.7041
X5.8142 Y1.7394
X5.8294 Y1.7753
X5.8432 Y1.8118
X5.8556 Y1.8487
X5.8666 Y1.8861
X5.8762 Y1.9239
X5.8845 Y1.962
X5.8913 Y2.0004
X5.8966 Y2.039
X5.9006 Y2.0778
X5.9032 Y2.1167
X5.9043 Y2.1557
X5.9039 Y2.1947
X5.902 Y2.2336
X5.8986 Y2.2725
X5.8938 Y2.3112
X5.8875 Y2.3497
X5.8798 Y2.3879
X5.8707 Y2.4258
X5.8602 Y2.4633
X5.8483 Y2.5005
X5.835 Y2.5371
X5.8204 Y2.5733
X5.8044 Y2.6089
X5.7871 Y2.6438
X5.7684 Y2.678
X5.7485 Y2.7115
X5.7273 Y2.7443
X5.7049 Y2.7762
X5.6814 Y2.8073
X5.6567 Y2.8374
X5.6309 Y2.8667
X5.6041 Y2.895
X5.5762 Y2.9222
X5.5473 Y2.9484
X5.5174 Y2.9735
X5.4866 Y2.9974
X5.455 Y3.0201
X5.4225 Y3.0417
X5.3892 Y3.062
X5.3552 Y3.0811
X5.3205 Y3.0989
X5.2852 Y3.1154
X5.2493 Y3.1307
X5.2129 Y3.1446
X5.1759 Y3.1571
X5.1386 Y3.1682
X5.1008 Y3.1779
X5.0627 Y3.1862
X5.0243 Y3.1931
X4.9857 Y3.1986
X4.947 Y3.2027
X4.9081 Y3.2053
X4.8691 Y3.2066
X4.8301 Y3.2064
X4.7911 Y3.2048
X4.7523 Y3.2018
X4.7135 Y3.1973
X4.675 Y3.1914
X4.6367 Y3.1841
X4.5987 Y3.1754
X4.561 Y3.1653
X4.5238 Y3.1538
X4.4869 Y3.1411
X4.4506 Y3.127
X4.4147 Y3.1116
X4.3795 Y3.0949
X4.3449 Y3.077
X4.3109 Y3.0578
X4.2777 Y3.0373
X4.2453 Y3.0157
X4.2137 Y2.9929
X4.1829 Y2.9689
X4.153 Y2.9439
X4.124 Y2.9178
X4.096 Y2.8907
X4.0689 Y2.8626
X4.0429 Y2.8336
X4.0179 Y2.8037
X3.9941 Y2.7728
X3.9714 Y2.7411
X3.9498 Y2.7086
X3.9294 Y2.6754
X3.9103 Y2.6414
X3.8924 Y2.6068
X3.8757 Y2.5716
X3.8603 Y2.5357
X3.8461 Y2.4994
X3.8332 Y2.4626
X3.8217 Y2.4254
X3.8115 Y2.3877
X3.8027 Y2.3497
X3.7953 Y2.3115
X3.7892 Y2.273
X3.7845 Y2.2342
X3.7813 Y2.1954
X3.7794 Y2.1564
X3.7789 Y2.1175
X3.7797 Y2.0785
X3.782 Y2.0396
X3.7856 Y2.0007
X3.7906 Y1.9621
X3.797 Y1.9236
X3.8048 Y1.8854
X3.8139 Y1.8475
X3.8244 Y1.8099
X3.8362 Y1.7728
X3.8494 Y1.7361
X3.8638 Y1.6999
X3.8795 Y1.6642
X3.8965 Y1.6291
X3.9147 Y1.5946
X3.9341 Y1.5607
X3.9546 Y1.5276
X3.9764 Y1.4953
X3.9993 Y1.4637
X4.0233 Y1.433
X4.0485 Y1.4032
X4.0746 Y1.3743
X4.1018 Y1.3463
X4.1299 Y1.3193
X4.159 Y1.2934
X4.189 Y1.2684
X4.2198 Y1.2445
X4.2515 Y1.2218
X4.2839 Y1.2002
X4.3171 Y1.1797
X4.3511 Y1.1605
X4.3857 Y1.1425
X4.4209 Y1.1258
X4.4566 Y1.1103
X4.493 Y1.0961
X4.5297 Y1.0832
X4.567 Y1.0715
X4.6046 Y1.0612
X4.6425 Y1.0522
X4.6807 Y1.0446
X4.7192 Y1.0384
X4.7579 Y1.0335
X4.7967 Y1.03
X4.8357 Y1.028
X4.8747 Y1.0273
X4.9137 Y1.0279
X4.9526 Y1.03
X4.9914 Y1.0334
X5.0301 Y1.0382
X5.0686 Y1.0443
X5.1069 Y1.0518
X5.1449 Y1.0606
X5.1825 Y1.0707
X5.2198 Y1.0822
X5.2566 Y1.095
X5.293 Y1.1091
X5.3288 Y1.1245
X5.3641 Y1.141
X5.3988 Y1.1588
X5.4329 Y1.1778
X5.4663 Y1.1979
X5.4989 Y1.2192
X5.5309 Y1.2416
X5.562 Y1.2651
X5.5923 Y1.2896
X5.6217 Y1.3152
X5.6502 Y1.3418
X5.6778 Y1.3693
X5.7045 Y1.3978
X5.7301 Y1.4272
X5.7547 Y1.4574
X5.7783 Y1.4884
X5.8009 Y1.5203
X5.8223 Y1.5528
X5.8426 Y1.5861
X5.8618 Y1.6201
X5.8798 Y1.6547
X5.8966 Y1.6898
X5.9122 Y1.7256
X5.9265 Y1.7618
X5.9396 Y1.7986
X5.9514 Y1.8357
X5.962 Y1.8732
X5.9713 Y1.9111
X5.9793 Y1.9493
X5.986 Y1.9877
X5.9914 Y2.0263
X5.9955 Y2.0651
X5.9982 Y2.104
X5.9996 Y2.1429
Y2.1819
X5.9983 Y2.2209
X5.9957 Y2.2598
X5.9917 Y2.2986
X5.9864 Y2.3372
X5.9798 Y2.3756
X5.9719 Y2.4138
X5.9627 Y2.4517
X5.9522 Y2.4893
X5.9404 Y2.5264
X5.9273 Y2.5632
X5.913 Y2.5994
X5.8974 Y2.6352
X5.8806 Y2.6704
X5.8626 Y2.7049
X5.8434 Y2.7389
X5.8231 Y2.7722
X5.8017 Y2.8047
X5.7791 Y2.8366
X5.7555 Y2.8676
X5.7309 Y2.8978
X5.7052 Y2.9271
X5.6785 Y2.9555
X5.6508 Y2.983
X5.6222 Y3.0095
X5.5928 Y3.0351
X5.5624 Y3.0596
X5.5313 Y3.083
X5.4994 Y3.1054
X5.4667 Y3.1267
X5.4333 Y3.1469
X5.3993 Y3.1659
X5.3646 Y3.1837
X5.3294 Y3.2004
X5.2936 Y3.2158
X5.2573 Y3.23
X5.2205 Y3.243
X5.1833 Y3.2547
X5.1457 Y3.2651
X5.1078 Y3.2743
X5.0696 Y3.2822
X5.0312 Y3.2888
X4.9926 Y3.2941
X4.9538 Y3.2981
X4.9149 Y3.3007
X4.8759 Y3.3021
X4.8369 Y3.3022
X4.798 Y3.3009
X4.7591 Y3.2983
X4.7203 Y3.2944
X4.6816 Y3.2892
X4.6432 Y3.2828
X4.605 Y3.275
X4.567 Y3.266
X4.5294 Y3.2557
X4.4922 Y3.2442
X4.4553 Y3.2314
X4.4189 Y3.2174
X4.383 Y3.2022
X4.3477 Y3.1858
X4.3129 Y3.1682
X4.2787 Y3.1495
X4.2451 Y3.1296
X4.2122 Y3.1087
X4.1801 Y3.0867
X4.1486 Y3.0636
X4.118 Y3.0394
X4.0882 Y3.0143
X4.0592 Y2.9882
X4.0311 Y2.9612
X4.0039 Y2.9332
X3.9777 Y2.9044
X3.9525 Y2.8747
X3.9282 Y2.8442
X3.9049 Y2.8128
X3.8828 Y2.7808
X3.8616 Y2.748
X3.8416 Y2.7146
X3.8227 Y2.6805
X3.8049 Y2.6458
X3.7882 Y2.6105
X3.7728 Y2.5747
X3.7585 Y2.5385
X3.7454 Y2.5017
X3.7335 Y2.4646
X3.7229 Y2.4271
X3.7135 Y2.3892
X3.7054 Y2.3511
X3.6985 Y2.3127
X3.6929 Y2.2741
X3.6885 Y2.2354
X3.6854 Y2.1965
X3.6836 Y2.1576
X3.6831 Y2.1186
X3.6839 Y2.0796
X3.6859 Y2.0407
X3.6892 Y2.0018
X3.6938 Y1.9631
X3.6997 Y1.9245
X3.7068 Y1.8862
X3.7152 Y1.8481
X3.7248 Y1.8103
X3.7357 Y1.7729
X3.7477 Y1.7358
X3.761 Y1.6991
X3.7755 Y1.6629
X3.7911 Y1.6272
X3.8079 Y1.5921
X3.8259 Y1.5574
X3.845 Y1.5234
X3.8652 Y1.4901
X3.8864 Y1.4574
X3.9087 Y1.4254
X3.9321 Y1.3942
X3.9564 Y1.3638
X3.9818 Y1.3341
X4.0081 Y1.3053
X4.0353 Y1.2774
X4.0634 Y1.2504
X4.0924 Y1.2243
X4.1223 Y1.1992
X4.1529 Y1.1751
X4.1843 Y1.152
X4.2165 Y1.13
X4.2493 Y1.109
X4.2828 Y1.0891
X4.317 Y1.0703
X4.3518 Y1.0526
X4.3871 Y1.036
X4.4229 Y1.0206
X4.4592 Y1.0065
X4.496 Y0.9935
X4.5331 Y0.9817
X4.5707 Y0.9711
X4.6085 Y0.9618
X4.6467 Y0.9537
X4.685 Y0.9468
X4.7236 Y0.9412
X4.7624 Y0.9369
X4.8013 Y0.9339
X4.8402 Y0.9321
X4.8792 Y0.9315
X4.9182 Y0.9323
X4.9571 Y0.9343
X4.996 Y0.9376
X5.0347 Y0.9421
X5.0732 Y0.9479
X5.1116 Y0.955
X5.1497 Y0.9633
X5.1875 Y0.9728
X5.225 Y0.9835
X5.2621 Y0.9955
X5.2988 Y1.0086
X5.3351 Y1.0229
X5.3709 Y1.0383
X5.4062 Y1.0549
X5.4409 Y1.0727
X5.475 Y1.0915
X5.5086 Y1.1114
X5.5414 Y1.1324
X5.5736 Y1.1544
X5.6051 Y1.1774
X5.6358 Y1.2014
X5.6658 Y1.2264
X5.6949 Y1.2523
X5.7232 Y1.2791
X5.7507 Y1.3068
X5.7772 Y1.3353
X5.8029 Y1.3647
X5.8276 Y1.3949
X5.8513 Y1.4258
X5.8741 Y1.4575
X5.8958 Y1.4898
X5.9165 Y1.5229
X5.9362 Y1.5566
X5.9548 Y1.5908
X5.9723 Y1.6257
X5.9887 Y1.661
X6.004 Y1.6969
X6.0182 Y1.7332
X6.0312 Y1.77
X6.043 Y1.8071
X6.0537 Y1.8446
X6.0631 Y1.8825
X6.0714 Y1.9206
X6.0784 Y1.9589
X6.0843 Y1.9975
X6.0889 Y2.0362
X6.0924 Y2.075
X6.0946 Y2.1139
X6.0955 Y2.1529
X6.0953 Y2.1919
X6.0938 Y2.2309
X6.0911 Y2.2698
X6.0871 Y2.3086
X6.0819 Y2.3472
X6.0755 Y2.3857
X6.0678 Y2.4239
X6.059 Y2.4619
X6.049 Y2.4995
X6.0377 Y2.5369
X6.0254 Y2.5739
X6.0118 Y2.6104
X5.9971 Y2.6465
X5.9813 Y2.6822
X5.9643 Y2.7173
X5.9463 Y2.7518
X5.9271 Y2.7858
X5.9069 Y2.8191
X5.8856 Y2.8518
X5.8633 Y2.8838
X5.84 Y2.915
X5.8157 Y2.9456
X5.7905 Y2.9753
X5.7644 Y3.0042
X5.7373 Y3.0323
X5.7094 Y3.0595
X5.6806 Y3.0859
X5.6511 Y3.1113
X5.6207 Y3.1357
X5.5896 Y3.1592
X5.5577 Y3.1817
X5.5252 Y3.2032
X5.492 Y3.2236
X5.4581 Y3.243
X5.4237 Y3.2613
X5.3887 Y3.2785
X5.3532 Y3.2946
X5.3172 Y3.3096
X5.2808 Y3.3235
X5.2439 Y3.3362
X5.2067 Y3.3478
X5.1691 Y3.3582
X5.1312 Y3.3674
X5.0931 Y3.3754
X5.0547 Y3.3822
X5.0161 Y3.3878
X4.9774 Y3.3922
X4.9385 Y3.3954
X4.8996 Y3.3974
X4.8606 Y3.3981
X4.8216 Y3.3977
X4.7826 Y3.3961
X4.7437 Y3.3933
X4.705 Y3.3892
X4.6663 Y3.384
X4.6279 Y3.3775
X4.5896 Y3.3699
X4.5517 Y3.3611
X4.514 Y3.3511
X4.4766 Y3.3399
X4.4396 Y3.3276
X4.403 Y3.3142
X4.3668 Y3.2996
X4.3311 Y3.284
X4.2959 Y3.2672
X4.2612 Y3.2494
X4.2271 Y3.2306
X4.1936 Y3.2107
X4.1607 Y3.1897
X4.1285 Y3.1677
X4.0969 Y3.1448
X4.0661 Y3.1209
X4.0361 Y3.0961
X4.0068 Y3.0703
X3.9783 Y3.0437
X3.9506 Y3.0162
X3.9238 Y2.9879
X3.8979 Y2.9588
X3.8728 Y2.9289
X3.8487 Y2.8983
X3.8256 Y2.8669
X3.8034 Y2.8348
X3.7822 Y2.8021
X3.762 Y2.7687
X3.7429 Y2.7348
X3.7248 Y2.7002
X3.7077 Y2.6652
X3.6918 Y2.6296
X3.6769 Y2.5936
X3.6631 Y2.5571
X3.6504 Y2.5202
X3.6389 Y2.483
X3.6285 Y2.4454
X3.6192 Y2.4075
X3.6111 Y2.3694
X3.6042 Y2.331
X3.5984 Y2.2925
X3.5939 Y2.2537
X3.5905 Y2.2149
X3.5883 Y2.176
X3.5872 Y2.137
X3.5874 Y2.098
X3.5887 Y2.059
X3.5912 Y2.0201
X3.5949 Y1.9813
X3.5998 Y1.9426
X3.6058 Y1.9041
X3.613 Y1.8658
X3.6213 Y1.8277
X3.6309 Y1.7899
X3.6415 Y1.7524
X3.6533 Y1.7152
X3.6663 Y1.6784
X3.6803 Y1.6421
X3.6954 Y1.6061
X3.7116 Y1.5706
X3.7289 Y1.5357
X3.7472 Y1.5013
X3.7665 Y1.4674
X3.7869 Y1.4341
X3.8082 Y1.4015
X3.8306 Y1.3696
X3.8539 Y1.3383
X3.8781 Y1.3078
X3.9033 Y1.278
X3.9293 Y1.249
X3.9563 Y1.2208
X3.984 Y1.1934
X4.0126 Y1.1668
X4.0419 Y1.1412
X4.0721 Y1.1164
X4.1029 Y1.0926
X4.1345 Y1.0697
X4.1667 Y1.0477
X4.1996 Y1.0268
X4.2331 Y1.0069
X4.2672 Y0.988
X4.3019 Y0.9701
X4.337 Y0.9533
X4.3727 Y0.9376
X4.4089 Y0.9229
X4.4454 Y0.9094
X4.4824 Y0.8969
X4.5197 Y0.8856
X4.5573 Y0.8754
X4.5952 Y0.8663
X4.6334 Y0.8584
X4.6718 Y0.8517
X4.7104 Y0.8461
X4.7491 Y0.8417
X4.788 Y0.8385
X4.8269 Y0.8364
X4.8659 Y0.8355
X4.9049 Y0.8358
X4.9439 Y0.8373
X4.9828 Y0.84
X5.0216 Y0.8438
X5.0603 Y0.8488
X5.0988 Y0.8549
X5.1371 Y0.8622
X5.1751 Y0.8706
X5.2129 Y0.8801
X5.2504 Y0.8908
X5.2876 Y0.9027
X5.3244 Y0.9156
X5.3608 Y0.9296
X5.3967 Y0.9447
X5.4322 Y0.9609
X5.4672 Y0.9781
X5.5016 Y0.9963
X5.5355 Y1.0156
X5.5689 Y1.0358
X5.6016 Y1.057
X5.6337 Y1.0792
X5.6651 Y1.1023
X5.6958 Y1.1263
X5.7258 Y1.1512
X5.755 Y1.177
X5.7835 Y1.2036
X5.8112 Y1.2311
X5.838 Y1.2594
X5.864 Y1.2884
X5.8892 Y1.3182
X5.9135 Y1.3487
X5.9368 Y1.3799
X5.9593 Y1.4118
X5.9808 Y1.4443
X6.0014 Y1.4774
X6.021 Y1.5111
X6.0396 Y1.5454
X6.0572 Y1.5802
X6.0737 Y1.6155
X6.0892 Y1.6513
X6.1037 Y1.6875
X6.1171 Y1.7241
X6.1294 Y1.7611
X6.1406 Y1.7985
X6.1507 Y1.8361
X6.1598 Y1.874
X6.1677 Y1.9122
X6.1745 Y1.9506
X6.1802 Y1.9892
X6.1848 Y2.0279
X6.1882 Y2.0667
X6.1905 Y2.1057
X6.1916 Y2.1446
Y2.1836
X6.1904 Y2.2226
X6.1881 Y2.2615
X6.1847 Y2.3004
X6.1801 Y2.3391
X6.1744 Y2.3777
X6.1675 Y2.416
X6.1596 Y2.4542
X6.1505 Y2.4921
X6.1403 Y2.5298
X6.1291 Y2.5671
X6.1167 Y2.6041
X6.1032 Y2.6407
X6.0887 Y2.6768
X6.0731 Y2.7126
X6.0564 Y2.7478
X6.0388 Y2.7826
X6.0201 Y2.8168
X6.0004 Y2.8505
X5.9798 Y2.8835
X5.9581 Y2.916
X5.9356 Y2.9478
X5.9121 Y2.9789
X5.8878 Y3.0094
X5.8625 Y3.0391
X5.8364 Y3.068
X5.8094 Y3.0962
X5.7816 Y3.1236
X5.7531 Y3.1501
X5.7237 Y3.1758
X5.6936 Y3.2006
X5.6629 Y3.2245
X5.6314 Y3.2475
X5.5992 Y3.2696
X5.5665 Y3.2907
X5.5331 Y3.3109
X5.4992 Y3.3301
X5.4647 Y3.3484
X5.4297 Y3.3655
X5.3942 Y3.3817
X5.3583 Y3.3968
X5.3219 Y3.4109
X5.2852 Y3.4239
X5.248 Y3.4358
X5.2106 Y3.4466
X5.1728 Y3.4563
X5.1348 Y3.465
X5.0965 Y3.4725
X5.0581 Y3.479
X5.0195 Y3.4843
X4.9807 Y3.4885
X4.9418 Y3.4916
X4.9029 Y3.4936
X4.8639 Y3.4944
X4.8249 Y3.4941
X4.786 Y3.4926
X4.7471 Y3.4901
X4.7082 Y3.4864
X4.6695 Y3.4816
X4.631 Y3.4757
X4.5926 Y3.4687
X4.5545 Y3.4606
X4.5166 Y3.4514
X4.479 Y3.4411
X4.4417 Y3.4298
X4.4047 Y3.4174
X4.3681 Y3.4039
X4.3319 Y3.3894
X4.2962 Y3.3739
X4.2609 Y3.3573
X4.2261 Y3.3397
X4.1918 Y3.3211
X4.1581 Y3.3016
X4.1249 Y3.2811
X4.0923 Y3.2597
X4.0604 Y3.2373
X4.0291 Y3.2141
X3.9985 Y3.1899
X3.9685 Y3.1649
X3.9393 Y3.1391
X3.9109 Y3.1125
X3.8832 Y3.085
X3.8563 Y3.0567
X3.8302 Y3.0277
X3.805 Y2.998
X3.7806 Y2.9676
X3.7571 Y2.9365
X3.7345 Y2.9047
X3.7129 Y2.8723
X3.6921 Y2.8393
X3.6723 Y2.8057
X3.6534 Y2.7716
X3.6355 Y2.737
X3.6186 Y2.7018
X3.6027 Y2.6662
X3.5878 Y2.6302
X3.5739 Y2.5937
X3.5611 Y2.5569
X3.5494 Y2.5197
X3.5387 Y2.4823
X3.529 Y2.4445
X3.5204 Y2.4064
X3.513 Y2.3682
X3.5066 Y2.3297
X3.5012 Y2.2911
X3.497 Y2.2523
X3.4939 Y2.2135
X3.4918 Y2.1745
X3.4909 Y2.1355
X3.4911 Y2.0965
X3.4923 Y2.0576
X3.4947 Y2.0187
X3.4982 Y1.9798
X3.5028 Y1.9411
X3.5084 Y1.9025
X3.5152 Y1.8641
X3.523 Y1.8259
X3.532 Y1.788
X3.5419 Y1.7503
X3.553 Y1.7129
X3.565 Y1.6758
X3.5782 Y1.6391
X3.5923 Y1.6028
X3.6075 Y1.5668
X3.6236 Y1.5314
X3.6408 Y1.4964
X3.659 Y1.4618
X3.6781 Y1.4279
X3.6982 Y1.3944
X3.7192 Y1.3616
X3.7411 Y1.3293
X3.7639 Y1.2977
X3.7876 Y1.2668
X3.8122 Y1.2365
X3.8376 Y1.2069
X3.8638 Y1.1781
X3.8908 Y1.15
X3.9186 Y1.1226
X3.9472 Y1.0961
X3.9765 Y1.0704
X4.0065 Y1.0455
X4.0373 Y1.0215
X4.0686 Y0.9983
X4.1006 Y0.9761
X4.1333 Y0.9547
X4.1665 Y0.9343
X4.2003 Y0.9149
X4.2346 Y0.8963
X4.2694 Y0.8788
X4.3047 Y0.8622
X4.3405 Y0.8467
X4.3766 Y0.8321
X4.4132 Y0.8186
X4.4501 Y0.8061
X4.4874 Y0.7947
X4.525 Y0.7843
X4.5629 Y0.7749
X4.601 Y0.7667
X4.6393 Y0.7595
X4.6778 Y0.7534
X4.7165 Y0.7484
X4.7553 Y0.7445
X4.7941 Y0.7416
X4.8331 Y0.7399
X4.8721 Y0.7392
X4.9111 Y0.7396
X4.95 Y0.7412
X4.9889 Y0.7438
X5.0277 Y0.7475
X5.0664 Y0.7523
X5.105 Y0.7582
X5.1433 Y0.7652
X5.1815 Y0.7732
X5.2194 Y0.7823
X5.2571 Y0.7925
X5.2944 Y0.8036
X5.3314 Y0.8159
X5.3681 Y0.8291
X5.4044 Y0.8434
X5.4403 Y0.8586
X5.4757 Y0.8749
X5.5107 Y0.8921
X5.5452 Y0.9103
X5.5792 Y0.9294
X5.6126 Y0.9495
X5.6455 Y0.9705
X5.6777 Y0.9923
X5.7094 Y1.0151
X5.7404 Y1.0387
X5.7708 Y1.0632
X5.8005 Y1.0884
X5.8295 Y1.1145
X5.8577 Y1.1414
X5.8852 Y1.169
X5.912 Y1.1974
X5.938 Y1.2265
X5.9631 Y1.2563
X5.9875 Y1.2867
X6.0109 Y1.3178
X6.0336 Y1.3496
X6.0553 Y1.382
X6.0762 Y1.4149
X6.0962 Y1.4484
X6.1152 Y1.4824
X6.1333 Y1.5169
X6.1505 Y1.5519
X6.1667 Y1.5874
X6.1819 Y1.6233
X6.1962 Y1.6596
X6.2095 Y1.6962
X6.2217 Y1.7333
X6.233 Y1.7706
X6.2432 Y1.8082
X6.2523 Y1.8461
X6.2605 Y1.8843
X6.2676 Y1.9226
X6.2737 Y1.9611
X6.2787 Y1.9998
X6.2826 Y2.0386
X6.2855 Y2.0775
X6.2873 Y2.1164
X6.2881 Y2.1554
X6.2878 Y2.1944
X6.2864 Y2.2333
X6.284 Y2.2723
X6.2805 Y2.3111
X6.276 Y2.3498
X6.2703 Y2.3884
X6.2636 Y2.4268
X6.2559 Y2.465
X6.2471 Y2.503
X6.2373 Y2.5408
X6.2265 Y2.5782
X6.2147 Y2.6154
X6.2018 Y2.6522
X6.1879 Y2.6886
X6.1731 Y2.7247
X6.1572 Y2.7603
X6.1404 Y2.7955
X6.1227 Y2.8302
X6.104 Y2.8644
X6.0843 Y2.8981
X6.0638 Y2.9312
X6.0423 Y2.9637
X6.0199 Y2.9957
X5.9967 Y3.027
X5.9727 Y3.0577
X5.9478 Y3.0877
X5.9221 Y3.1171
X5.8956 Y3.1457
X5.8684 Y3.1736
X5.8403 Y3.2007
X5.8116 Y3.227
X5.7822 Y3.2526
X5.752 Y3.2774
X5.7212 Y3.3013
X5.6898 Y3.3243
X5.6577 Y3.3465
X5.6251 Y3.3678
X5.5919 Y3.3882
X5.5581 Y3.4077
X5.5238 Y3.4263
X5.489 Y3.4439
X5.4538 Y3.4606
X5.4181 Y3.4763
X5.382 Y3.4911
X5.3456 Y3.5049
X5.3087 Y3.5176
X5.2715 Y3.5294
X5.2341 Y3.5402
X5.1963 Y3.5499
X5.1583 Y3.5586
X5.1201 Y3.5663
X5.0817 Y3.5729
X5.0431 Y3.5785
X5.0043 Y3.5831
X4.9655 Y3.5866
X4.9266 Y3.589
X4.8876 Y3.5904
X4.8486 Y3.5908
X4.8097 Y3.5901
X4.7707 Y3.5884
X4.7318 Y3.5856
X4.693 Y3.5818
X4.6543 Y3.5769
X4.6158 Y3.571
X4.5774 Y3.5641
X4.5393 Y3.5561
X4.5013 Y3.5471
X4.4636 Y3.5371
X4.4262 Y3.526
X4.3891 Y3.514
X4.3524 Y3.501
X4.316 Y3.487
X4.28 Y3.4721
X4.2444 Y3.4562
X4.2092 Y3.4393
X4.1745 Y3.4216
X4.1403 Y3.4029
X4.1066 Y3.3833
X4.0734 Y3.3628
X4.0408 Y3.3414
X4.0088 Y3.3191
X3.9774 Y3.296
X3.9466 Y3.2721
X3.9165 Y3.2473
X3.887 Y3.2218
X3.8582 Y3.1955
X3.8302 Y3.1684
X3.8028 Y3.1406
X3.7762 Y3.1121
X3.7504 Y3.0829
X3.7254 Y3.053
X3.7011 Y3.0225
X3.6777 Y2.9913
X3.6551 Y2.9595
X3.6334 Y2.9272
X3.6125 Y2.8942
X3.5926 Y2.8607
X3.5735 Y2.8267
X3.5553 Y2.7922
X3.538 Y2.7573
X3.5217 Y2.7218
X3.5063 Y2.686
X3.4919 Y2.6498
X3.4784 Y2.6132
X3.466 Y2.5763
X3.4544 Y2.539
X3.4439 Y2.5015
X3.4344 Y2.4637
X3.4258 Y2.4256
X3.4183 Y2.3874
X3.4118 Y2.3489
X3.4064 Y2.3103
X3.4019 Y2.2716
X3.3985 Y2.2327
X3.3961 Y2.1938
X3.3947 Y2.1549
X3.3944 Y2.1159
X3.3951 Y2.0769
X3.3968 Y2.0379
X3.3995 Y1.999
X3.4033 Y1.9602
X3.408 Y1.9215
X3.4138 Y1.883
X3.4206 Y1.8446
X3.4285 Y1.8064
X3.4373 Y1.7684
X3.4472 Y1.7307
X3.458 Y1.6932
X3.4698 Y1.6561
X3.4826 Y1.6192
X3.4964 Y1.5828
X3.5111 Y1.5467
X3.5268 Y1.5109
X3.5434 Y1.4757
X3.5609 Y1.4408
X3.5793 Y1.4065
X3.5986 Y1.3726
X3.6188 Y1.3392
X3.6399 Y1.3064
X3.6618 Y1.2742
X3.6846 Y1.2426
X3.7082 Y1.2115
X3.7327 Y1.1811
X3.7579 Y1.1514
X3.7839 Y1.1223
X3.8106 Y1.094
X3.8381 Y1.0663
X3.8663 Y1.0394
X3.8952 Y1.0132
X3.9248 Y0.9878
X3.955 Y0.9632
X3.9859 Y0.9394
X4.0173 Y0.9164
X4.0494 Y0.8942
X4.0821 Y0.8729
X4.1153 Y0.8524
X4.149 Y0.8329
X4.1833 Y0.8142
X4.218 Y0.7965
X4.2531 Y0.7797
X4.2887 Y0.7638
X4.3248 Y0.7488
X4.3611 Y0.7348
X4.3979 Y0.7218
X4.435 Y0.7097
X4.4723 Y0.6986
X4.51 Y0.6885
X4.5479 Y0.6793
X4.586 Y0.6712
X4.6244 Y0.6641
X4.6629 Y0.658
X4.7015 Y0.6529
X4.7403 Y0.6489
X4.7792 Y0.6458
X4.7945 Y0.645
X4.7965
X4.8927
X4.9317 Y0.6469
X4.9706 Y0.6479
X5.0096 Y0.6502
X5.0484 Y0.6537
X5.0871 Y0.6584
X5.1257 Y0.6642
X5.164 Y0.6711
X5.2022 Y0.6791
X5.2401 Y0.6881
X5.2778 Y0.6981
X5.3152 Y0.709
X5.3524 Y0.721
X5.3891 Y0.7339
X5.4256 Y0.7478
X5.4616 Y0.7627
X5.4973 Y0.7784
X5.5325 Y0.7951
X5.5673 Y0.8127
X5.6017 Y0.8312
X5.6355 Y0.8505
X5.6689 Y0.8707
X5.7017 Y0.8918
X5.7339 Y0.9137
X5.7656 Y0.9364
X5.7967 Y0.96
X5.8271 Y0.9844
X5.8569 Y1.0095
X5.8861 Y1.0354
X5.9146 Y1.062
X5.9424 Y1.0893
X5.9695 Y1.1174
X5.9958 Y1.1461
X6.0215 Y1.1755
X6.0463 Y1.2055
X6.0704 Y1.2362
X6.0937 Y1.2674
X6.1162 Y1.2993
X6.1379 Y1.3317
X6.1588 Y1.3646
X6.1788 Y1.3981
X6.1979 Y1.4321
X6.2161 Y1.4665
X6.2335 Y1.5015
X6.2499 Y1.5368
X6.2655 Y1.5726
X6.2801 Y1.6087
X6.2938 Y1.6452
X6.3066 Y1.682
X6.3185 Y1.7192
X6.3294 Y1.7566
X6.3393 Y1.7943
X6.3483 Y1.8323
X6.3563 Y1.8704
X6.3633 Y1.9088
X6.3693 Y1.9473
X6.3744 Y1.986
X6.3784 Y2.0247
X6.3815 Y2.0636
X6.3835 Y2.1026
X6.3846 Y2.1415
Y2.1805
X6.3837 Y2.2195
X6.3818 Y2.2584
X6.3788 Y2.2973
X6.3749 Y2.3361
X6.37 Y2.3748
X6.3641 Y2.4133
X6.3572 Y2.4517
X6.3494 Y2.4899
X6.3406 Y2.5279
X6.3308 Y2.5656
X6.32 Y2.6031
X6.3082 Y2.6403
X6.2955 Y2.6771
X6.2819 Y2.7137
X6.2673 Y2.7498
X6.2518 Y2.7856
X6.2354 Y2.821
X6.2181 Y2.8559
X6.1999 Y2.8904
X6.1809 Y2.9244
X6.161 Y2.9579
X6.1402 Y2.9909
X6.1186 Y3.0234
X6.0961 Y3.0553
X6.0729 Y3.0866
X6.0488 Y3.1173
X6.024 Y3.1473
X5.9984 Y3.1767
X5.9721 Y3.2055
X5.945 Y3.2336
X5.9172 Y3.2609
X5.8887 Y3.2876
X5.8596 Y3.3135
X5.8298 Y3.3386
X5.7994 Y3.363
X5.7684 Y3.3866
X5.7367 Y3.4094
X5.7045 Y3.4314
X5.6718 Y3.4526
X5.6385 Y3.4729
X5.6047 Y3.4924
X5.5705 Y3.511
X5.5357 Y3.5287
X5.5006 Y3.5455
X5.465 Y3.5614
X5.429 Y3.5764
X5.3926 Y3.5905
X5.3618 Y3.6016
X5.3553 Y3.6035
X5.3487 Y3.6046
X5.3421 Y3.605
X4.4586
X4.4196 Y3.6031
X4.4003 Y3.6007
X4.3618 Y3.5943
X4.3239 Y3.5851
X4.2867 Y3.5736
X4.25 Y3.5605
X4.2138 Y3.5458
X4.1782 Y3.53
X4.1431 Y3.513
X4.1085 Y3.4949
X4.0745 Y3.476
X4.041 Y3.456
X4.008 Y3.4353
X3.9755 Y3.4136
X3.9437 Y3.3912
X3.9124 Y3.3679
X3.8817 Y3.3439
X3.8516 Y3.3191
X3.8221 Y3.2935
X3.7933 Y3.2672
X3.7652 Y3.2402
X3.7378 Y3.2125
X3.711 Y3.1841
X3.685 Y3.1551
X3.6597 Y3.1254
X3.6352 Y3.0951
X3.6114 Y3.0642
X3.5884 Y3.0328
X3.5662 Y3.0007
X3.5448 Y2.9681
X3.5242 Y2.935
X3.5044 Y2.9014
X3.4855 Y2.8673
X3.4674 Y2.8328
X3.4502 Y2.7978
X3.4339 Y2.7624
X3.4184 Y2.7266
X3.4039 Y2.6904
X3.3902 Y2.6539
X3.3775 Y2.617
X3.3657 Y2.5799
X3.3548 Y2.5424
X3.3449 Y2.5047
X3.3358 Y2.4668
X3.3278 Y2.4286
X3.3206 Y2.3903
X3.3145 Y2.3518
X3.3093 Y2.3132
X3.305 Y2.2744
X3.3017 Y2.2356
X3.2993 Y2.1966
X3.298 Y2.1577
X3.2976 Y2.1187
X3.2982 Y2.0797
X3.2997 Y2.0407
X3.3022 Y2.0018
X3.3057 Y1.963
X3.3101 Y1.9242
X3.3155 Y1.8856
X3.3219 Y1.8472
X3.3291 Y1.8089
X3.3374 Y1.7707
X3.3466 Y1.7329
X3.3567 Y1.6952
X3.3677 Y1.6578
X3.3797 Y1.6207
X3.3925 Y1.5839
X3.4063 Y1.5474
X3.421 Y1.5113
X3.4366 Y1.4755
X3.453 Y1.4402
X3.4704 Y1.4053
X3.4885 Y1.3708
X3.5076 Y1.3367
X3.5274 Y1.3032
X3.5481 Y1.2701
X3.5696 Y1.2376
X3.5919 Y1.2056
X3.615 Y1.1742
X3.6388 Y1.1433
X3.6634 Y1.1131
X3.6888 Y1.0835
X3.7148 Y1.0545
X3.7416 Y1.0261
X3.7691 Y0.9984
X3.7972 Y0.9715
X3.826 Y0.9452
X3.8555 Y0.9196
X3.8856 Y0.8948
X3.9162 Y0.8707
X3.9475 Y0.8474
X3.9793 Y0.8249
X4.0117 Y0.8032
X4.0446 Y0.7823
X4.078 Y0.7622
X4.1119 Y0.7429
X4.1463 Y0.7244
X4.1811 Y0.7069
X4.2163 Y0.6901
X4.2519 Y0.6743
X4.2879 Y0.6593
X4.3243 Y0.6453
X4.3248 Y0.6451
X4.3253 Y0.645
X4.3258
X4.7965
G3 X4.806 Y0.6472 I-0.0009 J0.025 F30
X4.807 Y0.6477 I-0.0104 J0.0227 F39.37
G1 X4.8493 Y0.6693
G2 X4.8853 Y0.6514 I0.0114 J-0.0223
G3 X4.8855 Y0.6507 I0.0077 J0.0014
X4.8927 Y0.645 I0.0075 J0.0022 F30
G1 X5.3269 F39.37
X5.3622 Y0.6468
X5.3964 Y0.6513
X5.4346 Y0.6594
X5.472 Y0.6702
X5.5088 Y0.6831
X5.545 Y0.6976
X5.5807 Y0.7135
X5.6157 Y0.7305
X5.6503 Y0.7486
X5.6843 Y0.7676
X5.7177 Y0.7876
X5.7507 Y0.8085
X5.7831 Y0.8302
X5.8149 Y0.8527
X5.8462 Y0.8761
X5.8768 Y0.9001
X5.9069 Y0.9249
X5.9364 Y0.9505
X5.9652 Y0.9767
X5.9934 Y1.0036
X6.021 Y1.0312
X6.0478 Y1.0595
X6.074 Y1.0883
X6.0995 Y1.1178
X6.1243 Y1.1479
X6.1484 Y1.1786
X6.1717 Y1.2099
X6.1942 Y1.2417
X6.216 Y1.2741
X6.2369 Y1.3069
X6.2571 Y1.3403
X6.2765 Y1.3742
X6.295 Y1.4085
X6.3127 Y1.4432
X6.3296 Y1.4783
X6.3456 Y1.5139
X6.3608 Y1.5498
X6.3751 Y1.5861
X6.3886 Y1.6227
X6.4012 Y1.6596
X6.4129 Y1.6968
X6.4237 Y1.7342
X6.4336 Y1.7719
X6.4425 Y1.8099
X6.4506 Y1.848
X6.4577 Y1.8864
X6.4639 Y1.9249
X6.4692 Y1.9635
X6.4735 Y2.0022
X6.4769 Y2.0411
X6.4794 Y2.08
X6.4809 Y2.119
X6.4815 Y2.1579
X6.4812 Y2.1969
X6.4799 Y2.2359
X6.4777 Y2.2748
X6.4746 Y2.3137
X6.4705 Y2.3525
X6.4655 Y2.3911
X6.4596 Y2.4297
X6.4527 Y2.4681
X6.445 Y2.5063
X6.4362 Y2.5443
X6.4266 Y2.5821
X6.4161 Y2.6196
X6.4046 Y2.6569
X6.3923 Y2.6939
X6.379 Y2.7305
X6.3649 Y2.7669
X6.3499 Y2.8029
X6.3341 Y2.8385
X6.3174 Y2.8738
X6.2999 Y2.9086
X6.2815 Y2.943
X6.2624 Y2.9769
X6.2424 Y3.0104
X6.2216 Y3.0434
X6.2 Y3.0759
X6.1777 Y3.1078
X6.1545 Y3.1392
X6.1306 Y3.17
X6.106 Y3.2002
X6.0806 Y3.2299
X6.0546 Y3.2589
X6.0278 Y3.2872
X6.0004 Y3.315
X5.9724 Y3.342
X5.9436 Y3.3684
X5.9143 Y3.3941
X5.8844 Y3.4191
X5.8538 Y3.4433
X5.8227 Y3.4668
X5.7911 Y3.4896
X5.7589 Y3.5116
X5.7262 Y3.5328
X5.693 Y3.5532
X5.6593 Y3.5728
X5.6251 Y3.5916
X5.6119 Y3.5984
X5.6034 Y3.6021
X5.5943 Y3.6043
X5.5851 Y3.605
X5.3421
G3 X5.3326 Y3.6028 I0.0009 J-0.025 F30
G1 X5.329 Y3.6011 Z-0.1993
X5.3255 Y3.5996 Z-0.1984
X5.3222 Y3.5981 Z-0.1969
X5.3192 Y3.5967 Z-0.1948
X5.3165 Y3.5954 Z-0.1923
X5.3142 Y3.5944 Z-0.1893
X5.3123 Y3.5935 Z-0.186
X5.3109 Y3.5929 Z-0.1823
X5.3101 Y3.5925 Z-0.1785
X5.3098 Y3.5924 Z-0.1746
G0 Z0.2
X5.315 Y0.676
Z-0.1496
G1 Z-0.1746 F30
X5.3151 Y0.6757 Z-0.1785
X5.3153 Y0.6748 Z-0.1823
X5.3155 Y0.6734 Z-0.186
X5.3159 Y0.6713 Z-0.1893
X5.3163 Y0.6688 Z-0.1923
X5.3169 Y0.6659 Z-0.1948
X5.3174 Y0.6626 Z-0.1969
X5.3181 Y0.659 Z-0.1984
X5.3188 Y0.6553 Z-0.1993
X5.3194 Y0.6514 Z-0.1996
G3 X5.3269 Y0.645 I0.0077 J0.0014
G1 X5.5572 F39.37
X5.5827 Y0.6463
X5.6059 Y0.6493
X5.6344 Y0.6554
X5.6693 Y0.6659
X5.7056 Y0.68
X5.7409 Y0.6965
X5.7753 Y0.7149
X5.8089 Y0.7347
X5.8418 Y0.7556
X5.874 Y0.7777
X5.9055 Y0.8006
X5.9364 Y0.8244
X5.9666 Y0.849
X5.9963 Y0.8744
X6.0253 Y0.9004
X6.0537 Y0.9271
X6.0814 Y0.9545
X6.1086 Y0.9825
X6.135 Y1.0111
X6.1609 Y1.0404
X6.186 Y1.0701
X6.2105 Y1.1005
X6.2342 Y1.1314
X6.2573 Y1.1629
X6.2796 Y1.1948
X6.3012 Y1.2273
X6.3221 Y1.2602
X6.3422 Y1.2936
X6.3615 Y1.3275
X6.3801 Y1.3618
X6.3979 Y1.3965
X6.4149 Y1.4316
X6.431 Y1.467
X6.4464 Y1.5029
X6.461 Y1.539
X6.4747 Y1.5755
X6.4877 Y1.6123
X6.4998 Y1.6494
X6.511 Y1.6867
X6.5214 Y1.7243
X6.531 Y1.7621
X6.5397 Y1.8001
X6.5475 Y1.8383
X6.5544 Y1.8767
X6.5605 Y1.9152
X6.5657 Y1.9538
X6.5701 Y1.9926
X6.5735 Y2.0314
X6.576 Y2.0703
X6.5777 Y2.1093
X6.5785 Y2.1483
X6.5784 Y2.1872
X6.5774 Y2.2262
X6.5755 Y2.2652
X6.5728 Y2.3041
X6.5691 Y2.3429
X6.5646 Y2.3816
X6.5593 Y2.4202
X6.553 Y2.4587
X6.5459 Y2.4971
X6.5379 Y2.5352
X6.529 Y2.5732
X6.5193 Y2.6109
X6.5087 Y2.6485
X6.4972 Y2.6857
X6.4849 Y2.7227
X6.4718 Y2.7594
X6.4578 Y2.7958
X6.443 Y2.8319
X6.4274 Y2.8677
X6.411 Y2.903
X6.3938 Y2.938
X6.3758 Y2.9726
X6.357 Y3.0068
X6.3375 Y3.0405
X6.3172 Y3.0738
X6.2961 Y3.1066
X6.2743 Y3.1389
X6.2518 Y3.1708
X6.2285 Y3.2021
X6.2046 Y3.2328
X6.1799 Y3.263
X6.1546 Y3.2927
X6.1286 Y3.3217
X6.1019 Y3.3502
X6.0746 Y3.378
X6.0467 Y3.4052
X6.0182 Y3.4318
X5.989 Y3.4577
X5.9593 Y3.483
X5.9291 Y3.5076
X5.8983 Y3.5315
X5.8669 Y3.5547
X5.8351 Y3.5771
X5.8084 Y3.5951
X5.7982 Y3.6005
X5.7873 Y3.6039
X5.7758 Y3.605
X5.5851
G3 X5.5756 Y3.6028 I0.0009 J-0.025 F30
G1 X5.572 Y3.6011 Z-0.1993
X5.5685 Y3.5996 Z-0.1984
X5.5652 Y3.5981 Z-0.1969
X5.5622 Y3.5967 Z-0.1948
X5.5595 Y3.5954 Z-0.1923
X5.5572 Y3.5944 Z-0.1893
X5.5553 Y3.5935 Z-0.186
X5.5539 Y3.5929 Z-0.1823
X5.5531 Y3.5925 Z-0.1785
X5.5528 Y3.5924 Z-0.1746
G0 Z0.2
X5.5454 Y0.676
Z-0.1496
G1 Z-0.1746 F30
X5.5455 Y0.6757 Z-0.1785
X5.5456 Y0.6748 Z-0.1823
X5.5459 Y0.6734 Z-0.186
X5.5462 Y0.6713 Z-0.1893
X5.5467 Y0.6688 Z-0.1923
X5.5472 Y0.6659 Z-0.1948
X5.5478 Y0.6626 Z-0.1969
X5.5484 Y0.659 Z-0.1984
X5.5491 Y0.6553 Z-0.1993
X5.5498 Y0.6514 Z-0.1996
G3 X5.5572 Y0.645 I0.0077 J0.0014
G1 X5.7433 F39.37
X5.7638 Y0.646
X5.7832 Y0.6486
X5.8055 Y0.6533
X5.8326 Y0.6614
X5.8653 Y0.6742
X5.9004 Y0.6912
X5.9342 Y0.7106
X5.9669 Y0.7319
X5.9987 Y0.7545
X6.0296 Y0.7783
X6.0597 Y0.803
X6.0891 Y0.8287
X6.1177 Y0.8551
X6.1458 Y0.8822
X6.1731 Y0.91
X6.1998 Y0.9384
X6.2259 Y0.9674
X6.2513 Y0.9969
X6.2761 Y1.0271
X6.3002 Y1.0577
X6.3236 Y1.0889
X6.3463 Y1.1206
X6.3684 Y1.1527
X6.3897 Y1.1853
X6.4104 Y1.2184
X6.4303 Y1.2519
X6.4495 Y1.2859
X6.468 Y1.3202
X6.4857 Y1.3549
X6.5027 Y1.39
X6.5189 Y1.4255
X6.5344 Y1.4613
X6.5491 Y1.4974
X6.563 Y1.5338
X6.5761 Y1.5705
X6.5884 Y1.6075
X6.5999 Y1.6448
X6.6107 Y1.6823
X6.6206 Y1.72
X6.6297 Y1.7579
X6.6381 Y1.796
X6.6456 Y1.8342
X6.6522 Y1.8726
X6.6581 Y1.9112
X6.6631 Y1.9499
X6.6673 Y1.9886
X6.6706 Y2.0275
X6.6731 Y2.0664
X6.6748 Y2.1053
X6.6756 Y2.1443
Y2.1833
X6.6747 Y2.2223
X6.6731 Y2.2612
X6.6705 Y2.3002
X6.6672 Y2.339
X6.663 Y2.3778
X6.658 Y2.4164
X6.6521 Y2.455
X6.6454 Y2.4934
X6.638 Y2.5317
X6.6296 Y2.5698
X6.6205 Y2.6077
X6.6106 Y2.6454
X6.5998 Y2.6828
X6.5882 Y2.7201
X6.5759 Y2.7571
X6.5627 Y2.7938
X6.5488 Y2.8302
X6.534 Y2.8663
X6.5185 Y2.902
X6.5022 Y2.9375
X6.4852 Y2.9725
X6.4674 Y3.0072
X6.4489 Y3.0415
X6.4296 Y3.0754
X6.4096 Y3.1089
X6.389 Y3.142
X6.3676 Y3.1746
X6.3455 Y3.2067
X6.3227 Y3.2383
X6.2992 Y3.2695
X6.2751 Y3.3001
X6.2504 Y3.3302
X6.2249 Y3.3598
X6.1989 Y3.3888
X6.1722 Y3.4173
X6.145 Y3.4451
X6.1171 Y3.4724
X6.0886 Y3.4991
X6.0596 Y3.5251
X6.03 Y3.5505
X5.9999 Y3.5753
X5.9781 Y3.5925
X5.9671 Y3.5993
X5.9549 Y3.6036
X5.942 Y3.605
X5.7758
G3 X5.7663 Y3.6028 I0.0009 J-0.025 F30
G1 X5.7628 Y3.6011 Z-0.1993
X5.7593 Y3.5996 Z-0.1984
X5.756 Y3.5981 Z-0.1969
X5.753 Y3.5967 Z-0.1948
X5.7502 Y3.5954 Z-0.1923
X5.7479 Y3.5944 Z-0.1893
X5.7461 Y3.5935 Z-0.186
X5.7447 Y3.5929 Z-0.1823
X5.7439 Y3.5925 Z-0.1785
X5.7436 Y3.5924 Z-0.1746
G0 Z0.2
X5.7315 Y0.676
Z-0.1496
G1 Z-0.1746 F30
Y0.6757 Z-0.1785
X5.7317 Y0.6748 Z-0.1823
X5.7319 Y0.6734 Z-0.186
X5.7323 Y0.6713 Z-0.1893
X5.7328 Y0.6688 Z-0.1923
X5.7333 Y0.6659 Z-0.1948
X5.7339 Y0.6626 Z-0.1969
X5.7345 Y0.659 Z-0.1984
X5.7352 Y0.6553 Z-0.1993
X5.7359 Y0.6514 Z-0.1996
G3 X5.7433 Y0.645 I0.0077 J0.0014
G1 X5.9028 F39.37
X5.9248 Y0.6461
X5.9417 Y0.6483
X5.9611 Y0.6525
X5.9843 Y0.6594
X6.011 Y0.6698
X6.0434 Y0.6855
X6.077 Y0.7053
X6.1092 Y0.7273
X6.1402 Y0.751
X6.1702 Y0.776
X6.1992 Y0.802
X6.2274 Y0.8289
X6.2548 Y0.8566
X6.2816 Y0.885
X6.3076 Y0.914
X6.333 Y0.9437
X6.3576 Y0.9738
X6.3817 Y1.0045
X6.4051 Y1.0357
X6.4278 Y1.0674
X6.4498 Y1.0996
X6.4712 Y1.1322
X6.4919 Y1.1652
X6.5119 Y1.1987
X6.5312 Y1.2326
X6.5499 Y1.2668
X6.5678 Y1.3014
X6.585 Y1.3364
X6.6015 Y1.3718
X6.6172 Y1.4074
X6.6322 Y1.4434
X6.6465 Y1.4797
X6.6601 Y1.5163
X6.6729 Y1.5531
X6.685 Y1.5902
X6.6963 Y1.6275
X6.7068 Y1.665
X6.7166 Y1.7028
X6.7256 Y1.7407
X6.7339 Y1.7788
X6.7414 Y1.8171
X6.7481 Y1.8555
X6.754 Y1.894
X6.7591 Y1.9327
X6.7634 Y1.9714
X6.7669 Y2.0103
X6.7696 Y2.0491
X6.7715 Y2.0881
X6.7727 Y2.1271
X6.773 Y2.1661
X6.7725 Y2.205
X6.7713 Y2.244
X6.7692 Y2.283
X6.7664 Y2.3218
X6.7628 Y2.3607
X6.7584 Y2.3994
X6.7532 Y2.438
X6.7472 Y2.4766
X6.7404 Y2.515
X6.7329 Y2.5532
X6.7246 Y2.5913
X6.7154 Y2.6292
X6.7056 Y2.6669
X6.6949 Y2.7045
X6.6835 Y2.7417
X6.6713 Y2.7788
X6.6583 Y2.8156
X6.6446 Y2.8521
X6.6302 Y2.8883
X6.615 Y2.9242
X6.5991 Y2.9598
X6.5825 Y2.9951
X6.5652 Y3.03
X6.5471 Y3.0645
X6.5284 Y3.0987
X6.5089 Y3.1325
X6.4888 Y3.1659
X6.468 Y3.1989
X6.4466 Y3.2315
X6.4245 Y3.2636
X6.4017 Y3.2952
X6.3783 Y3.3264
X6.3542 Y3.3571
X6.3295 Y3.3873
X6.3042 Y3.417
X6.2783 Y3.4461
X6.2519 Y3.4747
X6.2248 Y3.5028
X6.1972 Y3.5303
X6.169 Y3.5572
X6.1402 Y3.5836
X6.1325 Y3.5904
X6.124 Y3.5967
X6.1145 Y3.6012
X6.1044 Y3.6041
X6.0939 Y3.605
X5.942
G3 X5.9325 Y3.6028 I0.0009 J-0.025 F30
G1 X5.929 Y3.6011 Z-0.1993
X5.9255 Y3.5996 Z-0.1984
X5.9222 Y3.5981 Z-0.1969
X5.9192 Y3.5967 Z-0.1948
X5.9165 Y3.5954 Z-0.1923
X5.9141 Y3.5944 Z-0.1893
X5.9123 Y3.5935 Z-0.186
X5.9109 Y3.5929 Z-0.1823
X5.9101 Y3.5925 Z-0.1785
X5.9098 Y3.5924 Z-0.1746
G0 Z0.2
X5.8909 Y0.676
Z-0.1496
G1 Z-0.1746 F30
X5.891 Y0.6757 Z-0.1785
X5.8912 Y0.6748 Z-0.1823
X5.8914 Y0.6734 Z-0.186
X5.8918 Y0.6713 Z-0.1893
X5.8922 Y0.6688 Z-0.1923
X5.8928 Y0.6659 Z-0.1948
X5.8934 Y0.6626 Z-0.1969
X5.894 Y0.659 Z-0.1984
X5.8947 Y0.6553 Z-0.1993
X5.8954 Y0.6514 Z-0.1996
G3 X5.9028 Y0.645 I0.0077 J0.0014
G1 X6.0534 F39.37
X6.0723 Y0.6459
X6.0878 Y0.648
X6.1053 Y0.6517
X6.126 Y0.6579
X6.1494 Y0.667
X6.1774 Y0.6806
X6.2109 Y0.7003
X6.2428 Y0.7228
X6.2733 Y0.7471
X6.3025 Y0.7729
X6.3307 Y0.7998
X6.3579 Y0.8277
X6.3843 Y0.8564
X6.41 Y0.8858
X6.4349 Y0.9158
X6.4591 Y0.9463
X6.4826 Y0.9774
X6.5055 Y1.009
X6.5277 Y1.0411
X6.5492 Y1.0736
X6.5701 Y1.1065
X6.5903 Y1.1399
X6.6098 Y1.1736
X6.6287 Y1.2077
X6.6469 Y1.2422
X6.6644 Y1.2771
X6.6812 Y1.3122
X6.6974 Y1.3477
X6.7129 Y1.3835
X6.7276 Y1.4196
X6.7417 Y1.456
X6.7551 Y1.4926
X6.7677 Y1.5295
X6.7797 Y1.5666
X6.7909 Y1.6039
X6.8014 Y1.6415
X6.8112 Y1.6792
X6.8203 Y1.7171
X6.8286 Y1.7552
X6.8361 Y1.7935
X6.8429 Y1.8319
X6.849 Y1.8704
X6.8543 Y1.909
X6.8588 Y1.9477
X6.8626 Y1.9865
X6.8657 Y2.0254
X6.868 Y2.0643
X6.8695 Y2.1033
X6.8703 Y2.1423
Y2.1813
X6.8696 Y2.2203
X6.8681 Y2.2592
X6.8659 Y2.2981
X6.8629 Y2.337
X6.8591 Y2.3758
X6.8547 Y2.4146
X6.8494 Y2.4532
X6.8435 Y2.4917
X6.8367 Y2.5301
X6.8293 Y2.5684
X6.821 Y2.6065
X6.8121 Y2.6445
X6.8023 Y2.6822
X6.7919 Y2.7198
X6.7807 Y2.7571
X6.7688 Y2.7943
X6.7562 Y2.8312
X6.7429 Y2.8678
X6.7288 Y2.9042
X6.7141 Y2.9403
X6.6986 Y2.9761
X6.6825 Y3.0116
X6.6657 Y3.0467
X6.6482 Y3.0816
X6.63 Y3.1161
X6.6112 Y3.1502
X6.5917 Y3.184
X6.5716 Y3.2174
X6.5508 Y3.2504
X6.5294 Y3.283
X6.5073 Y3.3151
X6.4847 Y3.3469
X6.4614 Y3.3781
X6.4375 Y3.4089
X6.413 Y3.4393
X6.3879 Y3.4691
X6.3622 Y3.4985
X6.336 Y3.5273
X6.3092 Y3.5557
X6.2819 Y3.5835
X6.2769 Y3.5884
X6.2681 Y3.5954
X6.2582 Y3.6007
X6.2473 Y3.6039
X6.2361 Y3.605
X6.0939
G3 X6.0844 Y3.6028 I0.0009 J-0.025 F30
G1 X6.0809 Y3.6011 Z-0.1993
X6.0774 Y3.5996 Z-0.1984
X6.0741 Y3.5981 Z-0.1969
X6.071 Y3.5967 Z-0.1948
X6.0683 Y3.5954 Z-0.1923
X6.066 Y3.5944 Z-0.1893
X6.0641 Y3.5935 Z-0.186
X6.0628 Y3.5929 Z-0.1823
X6.0619 Y3.5925 Z-0.1785
X6.0617 Y3.5924 Z-0.1746
G0 Z0.2
X6.0416 Y0.676
Z-0.1496
G1 Z-0.1746 F30
Y0.6757 Z-0.1785
X6.0418 Y0.6748 Z-0.1823
X6.0421 Y0.6734 Z-0.186
X6.0424 Y0.6713 Z-0.1893
X6.0429 Y0.6688 Z-0.1923
X6.0434 Y0.6659 Z-0.1948
X6.044 Y0.6626 Z-0.1969
X6.0446 Y0.659 Z-0.1984
X6.0453 Y0.6553 Z-0.1993
X6.046 Y0.6514 Z-0.1996
G3 X6.0534 Y0.645 I0.0077 J0.0014
G1 X6.1952 F39.37
X6.2109 Y0.6458
X6.2256 Y0.6477
X6.2416 Y0.6511
X6.2607 Y0.6569
X6.282 Y0.6651
X6.3073 Y0.6774
X6.3369 Y0.6949
X6.3688 Y0.7173
X6.3991 Y0.7419
X6.4278 Y0.7683
X6.4554 Y0.7958
X6.4819 Y0.8244
X6.5075 Y0.8538
X6.5322 Y0.884
X6.5562 Y0.9147
X6.5794 Y0.9461
X6.6019 Y0.9779
X6.6238 Y1.0102
X6.645 Y1.0429
X6.6655 Y1.0761
X6.6854 Y1.1096
X6.7046 Y1.1435
X6.7232 Y1.1778
X6.7411 Y1.2124
X6.7584 Y1.2474
X6.775 Y1.2827
X6.791 Y1.3182
X6.8063 Y1.3541
X6.8209 Y1.3902
X6.8349 Y1.4266
X6.8482 Y1.4633
X6.8608 Y1.5002
X6.8728 Y1.5373
X6.884 Y1.5746
X6.8946 Y1.6122
X6.9045 Y1.6499
X6.9136 Y1.6878
X6.9221 Y1.7258
X6.9298 Y1.7641
X6.9368 Y1.8024
X6.9431 Y1.8409
X6.9487 Y1.8795
X6.9536 Y1.9182
X6.9578 Y1.9569
X6.9613 Y1.9958
X6.964 Y2.0347
X6.966 Y2.0736
X6.9673 Y2.1126
X6.9679 Y2.1515
X6.9677 Y2.1905
X6.9669 Y2.2295
X6.9653 Y2.2685
X6.963 Y2.3074
X6.96 Y2.3463
X6.9563 Y2.3851
X6.9519 Y2.4238
X6.9467 Y2.4625
X6.9408 Y2.501
X6.9342 Y2.5394
X6.9269 Y2.5777
X6.9189 Y2.6159
X6.9101 Y2.6539
X6.9007 Y2.6917
X6.8905 Y2.7294
X6.8797 Y2.7668
X6.8682 Y2.8041
X6.856 Y2.8411
X6.843 Y2.8779
X6.8295 Y2.9144
X6.8152 Y2.9507
X6.8003 Y2.9868
X6.7847 Y3.0225
X6.7685 Y3.058
X6.7516 Y3.0931
X6.7341 Y3.1279
X6.7159 Y3.1624
X6.6971 Y3.1966
X6.6777 Y3.2304
X6.6576 Y3.2638
X6.6369 Y3.2969
X6.6156 Y3.3295
X6.5937 Y3.3618
X6.5712 Y3.3936
X6.5481 Y3.4251
X6.5244 Y3.456
X6.5002 Y3.4866
X6.4754 Y3.5167
X6.4501 Y3.5463
X6.4242 Y3.5754
X6.4141 Y3.5863
X6.4051 Y3.5942
X6.3947 Y3.6001
X6.3833 Y3.6038
X6.3713 Y3.605
X6.2361
G3 X6.2266 Y3.6028 I0.0009 J-0.025 F30
G1 X6.2231 Y3.6011 Z-0.1993
X6.2196 Y3.5996 Z-0.1984
X6.2163 Y3.5981 Z-0.1969
X6.2133 Y3.5967 Z-0.1948
X6.2105 Y3.5954 Z-0.1923
X6.2082 Y3.5944 Z-0.1893
X6.2064 Y3.5935 Z-0.186
X6.205 Y3.5929 Z-0.1823
X6.2042 Y3.5925 Z-0.1785
X6.2039 Y3.5924 Z-0.1746
G0 Z0.2
X6.1833 Y0.676
Z-0.1496
G1 Z-0.1746 F30
X6.1834 Y0.6757 Z-0.1785
X6.1835 Y0.6748 Z-0.1823
X6.1838 Y0.6734 Z-0.186
X6.1842 Y0.6713 Z-0.1893
X6.1846 Y0.6688 Z-0.1923
X6.1852 Y0.6659 Z-0.1948
X6.1857 Y0.6626 Z-0.1969
X6.1864 Y0.659 Z-0.1984
X6.1871 Y0.6553 Z-0.1993
X6.1877 Y0.6514 Z-0.1996
G3 X6.1952 Y0.645 I0.0077 J0.0014
G1 X6.3281 F39.37
X6.3433 Y0.6458
X6.3574 Y0.6476
X6.3724 Y0.6508
X6.3905 Y0.6562
X6.4101 Y0.6639
X6.4334 Y0.6752
X6.4605 Y0.6911
X6.4919 Y0.7132
X6.522 Y0.7381
X6.5503 Y0.7649
X6.5773 Y0.793
X6.6032 Y0.8222
X6.628 Y0.8523
X6.6519 Y0.883
X6.675 Y0.9145
X6.6974 Y0.9464
X6.719 Y0.9788
X6.7399 Y1.0117
X6.7602 Y1.045
X6.7798 Y1.0787
X6.7988 Y1.1128
X6.8172 Y1.1472
X6.8349 Y1.1819
X6.852 Y1.217
X6.8684 Y1.2523
X6.8842 Y1.288
X6.8994 Y1.3239
X6.914 Y1.3601
X6.9279 Y1.3965
X6.9411 Y1.4332
X6.9537 Y1.4701
X6.9657 Y1.5072
X6.977 Y1.5445
X6.9876 Y1.582
X6.9976 Y1.6197
X7.0068 Y1.6576
X7.0154 Y1.6956
X7.0234 Y1.7338
X7.0306 Y1.7721
X7.0372 Y1.8105
X7.0431 Y1.8491
X7.0483 Y1.8877
X7.0528 Y1.9264
X7.0566 Y1.9652
X7.0598 Y2.0041
X7.0623 Y2.043
X7.064 Y2.082
X7.0651 Y2.1209
X7.0656 Y2.1599
X7.0653 Y2.1989
X7.0643 Y2.2379
X7.0627 Y2.2769
X7.0604 Y2.3158
X7.0574 Y2.3546
X7.0537 Y2.3935
X7.0493 Y2.4322
X7.0442 Y2.4709
X7.0384 Y2.5094
X7.0319 Y2.5479
X7.0248 Y2.5862
X7.0169 Y2.6244
X7.0084 Y2.6625
X6.9992 Y2.7003
X6.9894 Y2.7381
X6.9789 Y2.7756
X6.9677 Y2.813
X6.9559 Y2.8501
X6.9434 Y2.8871
X6.9302 Y2.9238
X6.9165 Y2.9602
X6.902 Y2.9965
X6.887 Y3.0324
X6.8713 Y3.0681
X6.855 Y3.1035
X6.838 Y3.1387
X6.8205 Y3.1735
X6.8023 Y3.208
X6.7835 Y3.2422
X6.7642 Y3.276
X6.7442 Y3.3095
X6.7236 Y3.3426
X6.7024 Y3.3753
X6.6807 Y3.4077
X6.6583 Y3.4396
X6.6355 Y3.4712
X6.612 Y3.5024
X6.588 Y3.5331
X6.5635 Y3.5634
X6.5461 Y3.5842
X6.5369 Y3.593
X6.526 Y3.5995
X6.514 Y3.6036
X6.5014 Y3.605
X6.3713
G3 X6.3618 Y3.6028 I0.0009 J-0.025 F30
G1 X6.3583 Y3.6011 Z-0.1993
X6.3548 Y3.5996 Z-0.1984
X6.3515 Y3.5981 Z-0.1969
X6.3485 Y3.5967 Z-0.1948
X6.3457 Y3.5954 Z-0.1923
X6.3434 Y3.5944 Z-0.1893
X6.3416 Y3.5935 Z-0.186
X6.3402 Y3.5929 Z-0.1823
X6.3394 Y3.5925 Z-0.1785
X6.3391 Y3.5924 Z-0.1746
G0 Z0.2
X6.3162 Y0.676
Z-0.1496
G1 Z-0.1746 F30
X6.3163 Y0.6757 Z-0.1785
X6.3164 Y0.6748 Z-0.1823
X6.3167 Y0.6734 Z-0.186
X6.3171 Y0.6713 Z-0.1893
X6.3175 Y0.6688 Z-0.1923
X6.3181 Y0.6659 Z-0.1948
X6.3186 Y0.6626 Z-0.1969
X6.3193 Y0.659 Z-0.1984
X6.32 Y0.6553 Z-0.1993
X6.3206 Y0.6514 Z-0.1996
G3 X6.3281 Y0.645 I0.0077 J0.0014
G1 X6.461 F39.37
X6.4707 Y0.6455
X6.484 Y0.6472
X6.4984 Y0.6503
X6.5157 Y0.6555
X6.5341 Y0.6627
X6.556 Y0.6733
X6.5809 Y0.688
X6.6096 Y0.7081
X6.6396 Y0.733
X6.6677 Y0.7599
X6.6944 Y0.7884
X6.7198 Y0.818
X6.744 Y0.8485
X6.7673 Y0.8798
X6.7897 Y0.9117
X6.8114 Y0.9441
X6.8323 Y0.977
X6.8524 Y1.0104
X6.872 Y1.0442
X6.8908 Y1.0783
X6.9091 Y1.1127
X6.9267 Y1.1475
X6.9437 Y1.1826
X6.9601 Y1.218
X6.9758 Y1.2537
X6.991 Y1.2896
X7.0055 Y1.3258
X7.0194 Y1.3622
X7.0327 Y1.3988
X7.0454 Y1.4357
X7.0574 Y1.4728
X7.0688 Y1.5101
X7.0795 Y1.5476
X7.0896 Y1.5852
X7.0991 Y1.6231
X7.1079 Y1.6611
X7.1161 Y1.6992
X7.1236 Y1.7374
X7.1305 Y1.7758
X7.1367 Y1.8143
X7.1423 Y1.8529
X7.1472 Y1.8916
X7.1515 Y1.9303
X7.1551 Y1.9692
X7.158 Y2.008
X7.1603 Y2.047
X7.162 Y2.0859
X7.163 Y2.1249
X7.1633 Y2.1639
X7.163 Y2.2029
X7.162 Y2.2418
X7.1604 Y2.2808
X7.1581 Y2.3197
X7.1552 Y2.3586
X7.1515 Y2.3974
X7.1472 Y2.4362
X7.1423 Y2.4749
X7.1367 Y2.5134
X7.1304 Y2.5519
X7.1235 Y2.5903
X7.1159 Y2.6285
X7.1077 Y2.6667
X7.0988 Y2.7046
X7.0893 Y2.7424
X7.0792 Y2.7801
X7.0684 Y2.8176
X7.057 Y2.8548
X7.045 Y2.8919
X7.0323 Y2.9288
X7.019 Y2.9655
X7.0051 Y3.0019
X6.9906 Y3.0381
X6.9755 Y3.074
X6.9598 Y3.1097
X6.9435 Y3.1451
X6.9266 Y3.1803
X6.909 Y3.2151
X6.8909 Y3.2496
X6.8722 Y3.2838
X6.853 Y3.3177
X6.8331 Y3.3513
X6.8127 Y3.3845
X6.7917 Y3.4174
X6.7702 Y3.4499
X6.7481 Y3.482
X6.7254 Y3.5137
X6.7023 Y3.5451
X6.6786 Y3.5761
X6.6722 Y3.5838
X6.663 Y3.5927
X6.6521 Y3.5994
X6.6399 Y3.6036
X6.6272 Y3.605
X6.5014
G3 X6.4919 Y3.6028 I0.0009 J-0.025 F30
G1 X6.4883 Y3.6011 Z-0.1993
X6.4849 Y3.5996 Z-0.1984
X6.4816 Y3.5981 Z-0.1969
X6.4785 Y3.5967 Z-0.1948
X6.4758 Y3.5954 Z-0.1923
X6.4735 Y3.5944 Z-0.1893
X6.4716 Y3.5935 Z-0.186
X6.4703 Y3.5929 Z-0.1823
X6.4694 Y3.5925 Z-0.1785
X6.4692 Y3.5924 Z-0.1746
G0 Z0.2
X6.4491 Y0.676
Z-0.1496
G1 Z-0.1746 F30
X6.4492 Y0.6757 Z-0.1785
X6.4494 Y0.6748 Z-0.1823
X6.4496 Y0.6734 Z-0.186
X6.45 Y0.6713 Z-0.1893
X6.4504 Y0.6688 Z-0.1923
X6.451 Y0.6659 Z-0.1948
X6.4515 Y0.6626 Z-0.1969
X6.4522 Y0.659 Z-0.1984
X6.4529 Y0.6553 Z-0.1993
X6.4535 Y0.6514 Z-0.1996
G3 X6.461 Y0.645 I0.0077 J0.0014
G1 X6.585 F39.37
X6.5945 Y0.6455
X6.6068 Y0.6471
X6.621 Y0.6501
X6.6374 Y0.655
X6.6552 Y0.662
X6.6758 Y0.672
X6.6994 Y0.6858
X6.7259 Y0.7045
X6.7559 Y0.7294
X6.7839 Y0.7565
X6.8102 Y0.7853
X6.8352 Y0.8152
X6.8589 Y0.8462
X6.8816 Y0.8779
X6.9034 Y0.9102
X6.9244 Y0.9431
X6.9446 Y0.9764
X6.9641 Y1.0102
X6.9829 Y1.0443
X7.0011 Y1.0788
X7.0187 Y1.1136
X7.0356 Y1.1487
X7.0519 Y1.1842
X7.0676 Y1.2198
X7.0828 Y1.2558
X7.0973 Y1.292
X7.1112 Y1.3284
X7.1245 Y1.365
X7.1372 Y1.4019
X7.1493 Y1.439
X7.1608 Y1.4762
X7.1716 Y1.5137
X7.1819 Y1.5513
X7.1915 Y1.5891
X7.2005 Y1.627
X7.2089 Y1.6651
X7.2167 Y1.7033
X7.2238 Y1.7416
X7.2303 Y1.7801
X7.2362 Y1.8186
X7.2415 Y1.8572
X7.2462 Y1.896
X7.2502 Y1.9347
X7.2536 Y1.9736
X7.2564 Y2.0125
X7.2585 Y2.0514
X7.26 Y2.0904
X7.2609 Y2.1293
X7.2612 Y2.1683
X7.2608 Y2.2073
X7.2598 Y2.2463
X7.2582 Y2.2853
X7.2559 Y2.3242
X7.253 Y2.3631
X7.2494 Y2.4019
X7.2452 Y2.4407
X7.2404 Y2.4794
X7.235 Y2.518
X7.2289 Y2.5565
X7.2221 Y2.5949
X7.2148 Y2.6332
X7.2068 Y2.6713
X7.1983 Y2.7094
X7.1891 Y2.7473
X7.1793 Y2.785
X7.1688 Y2.8226
X7.1578 Y2.86
X7.1462 Y2.8972
X7.1339 Y2.9342
X7.1211 Y2.971
X7.1077 Y3.0076
X7.0937 Y3.044
X7.0791 Y3.0802
X7.0639 Y3.1161
X7.0482 Y3.1518
X7.0318 Y3.1872
X7.0149 Y3.2223
X6.9975 Y3.2572
X6.9794 Y3.2917
X6.9608 Y3.326
X6.9416 Y3.3599
X6.9219 Y3.3935
X6.9016 Y3.4268
X6.8807 Y3.4598
X6.8594 Y3.4924
X6.8375 Y3.5247
X6.8151 Y3.5566
X6.797 Y3.5812
X6.7897 Y3.5894
X6.7811 Y3.596
X6.7713 Y3.601
X6.7608 Y3.604
X6.75 Y3.605
X6.6272
G3 X6.6177 Y3.6028 I0.0009 J-0.025 F30
G1 X6.6141 Y3.6011 Z-0.1993
X6.6107 Y3.5996 Z-0.1984
X6.6074 Y3.5981 Z-0.1969
X6.6043 Y3.5967 Z-0.1948
X6.6016 Y3.5954 Z-0.1923
X6.5993 Y3.5944 Z-0.1893
X6.5974 Y3.5935 Z-0.186
X6.5961 Y3.5929 Z-0.1823
X6.5952 Y3.5925 Z-0.1785
X6.595 Y3.5924 Z-0.1746
G0 Z0.2
X6.5732 Y0.676
Z-0.1496
G1 Z-0.1746 F30
Y0.6757 Z-0.1785
X6.5734 Y0.6748 Z-0.1823
X6.5737 Y0.6734 Z-0.186
X6.574 Y0.6713 Z-0.1893
X6.5745 Y0.6688 Z-0.1923
X6.575 Y0.6659 Z-0.1948
X6.5756 Y0.6626 Z-0.1969
X6.5762 Y0.659 Z-0.1984
X6.5769 Y0.6553 Z-0.1993
X6.5776 Y0.6514 Z-0.1996
G3 X6.585 Y0.645 I0.0077 J0.0014
G1 X6.7002 F39.37
X6.7153 Y0.6458
X6.727 Y0.6473
X6.7409 Y0.6503
X6.7566 Y0.655
X6.7738 Y0.6617
X6.7935 Y0.6712
X6.8159 Y0.6844
X6.8409 Y0.7019
X6.8701 Y0.7262
X6.898 Y0.7534
X6.9241 Y0.7824
X6.9487 Y0.8127
X6.972 Y0.8439
X6.9942 Y0.8759
X7.0155 Y0.9086
X7.0359 Y0.9419
X7.0555 Y0.9756
X7.0744 Y1.0097
X7.0926 Y1.0442
X7.1101 Y1.079
X7.1271 Y1.1141
X7.1434 Y1.1495
X7.1591 Y1.1852
X7.1742 Y1.2211
X7.1888 Y1.2573
X7.2027 Y1.2937
X7.2161 Y1.3304
X7.2288 Y1.3672
X7.241 Y1.4042
X7.2526 Y1.4415
X7.2635 Y1.4789
X7.2739 Y1.5165
X7.2837 Y1.5542
X7.2929 Y1.5921
X7.3015 Y1.6301
X7.3095 Y1.6683
X7.317 Y1.7066
X7.3238 Y1.745
X7.33 Y1.7834
X7.3356 Y1.822
X7.3406 Y1.8607
X7.345 Y1.8994
X7.3489 Y1.9382
X7.3521 Y1.9771
X7.3547 Y2.016
X7.3567 Y2.0549
X7.3581 Y2.0939
X7.3589 Y2.1329
X7.3591 Y2.1719
X7.3587 Y2.2109
X7.3577 Y2.2498
X7.3561 Y2.2888
X7.3538 Y2.3277
X7.351 Y2.3666
X7.3475 Y2.4055
X7.3434 Y2.4442
X7.3387 Y2.4829
X7.3334 Y2.5216
X7.3275 Y2.5601
X7.321 Y2.5985
X7.3139 Y2.6369
X7.3062 Y2.6751
X7.2978 Y2.7132
X7.289 Y2.7512
X7.2795 Y2.789
X7.2694 Y2.8266
X7.2587 Y2.8642
X7.2475 Y2.9015
X7.2357 Y2.9386
X7.2233 Y2.9756
X7.2103 Y3.0124
X7.1968 Y3.049
X7.1827 Y3.0853
X7.168 Y3.1214
X7.1528 Y3.1573
X7.137 Y3.193
X7.1207 Y3.2284
X7.1038 Y3.2635
X7.0864 Y3.2984
X7.0684 Y3.333
X7.0498 Y3.3673
X7.0307 Y3.4013
X7.0111 Y3.435
X6.991 Y3.4684
X6.9703 Y3.5015
X6.9492 Y3.5342
X6.9274 Y3.5666
X6.9169 Y3.581
X6.9097 Y3.5892
X6.901 Y3.5959
X6.8912 Y3.6009
X6.8807 Y3.604
X6.8698 Y3.605
X6.75
G3 X6.7405 Y3.6028 I0.0009 J-0.025 F30
G1 X6.7369 Y3.6011 Z-0.1993
X6.7335 Y3.5996 Z-0.1984
X6.7302 Y3.5981 Z-0.1969
X6.7271 Y3.5967 Z-0.1948
X6.7244 Y3.5954 Z-0.1923
X6.7221 Y3.5944 Z-0.1893
X6.7202 Y3.5935 Z-0.186
X6.7189 Y3.5929 Z-0.1823
X6.718 Y3.5925 Z-0.1785
X6.7177 Y3.5924 Z-0.1746
G0 Z0.2
X6.6884 Y0.676
Z-0.1496
G1 Z-0.1746 F30
Y0.6757 Z-0.1785
X6.6886 Y0.6748 Z-0.1823
X6.6888 Y0.6734 Z-0.186
X6.6892 Y0.6713 Z-0.1893
X6.6897 Y0.6688 Z-0.1923
X6.6902 Y0.6659 Z-0.1948
X6.6908 Y0.6626 Z-0.1969
X6.6914 Y0.659 Z-0.1984
X6.6921 Y0.6553 Z-0.1993
X6.6928 Y0.6514 Z-0.1996
G3 X6.7002 Y0.645 I0.0077 J0.0014
G1 X6.8242 F39.37
X6.8325 Y0.6454
X6.844 Y0.6469
X6.8578 Y0.6499
X6.8729 Y0.6544
X6.8897 Y0.6609
X6.9087 Y0.6702
X6.9303 Y0.6829
X6.9541 Y0.6996
X6.9817 Y0.7225
X7.0097 Y0.7498
X7.0356 Y0.7788
X7.06 Y0.8093
X7.083 Y0.8408
X7.1048 Y0.8731
X7.1256 Y0.9061
X7.1455 Y0.9396
X7.1646 Y0.9736
X7.183 Y1.008
X7.2006 Y1.0427
X7.2176 Y1.0778
X7.234 Y1.1132
X7.2498 Y1.1489
X7.265 Y1.1848
X7.2796 Y1.2209
X7.2936 Y1.2573
X7.307 Y1.2939
X7.3199 Y1.3307
X7.3321 Y1.3677
X7.3438 Y1.4049
X7.355 Y1.4423
X7.3655 Y1.4799
X7.3755 Y1.5175
X7.3849 Y1.5554
X7.3937 Y1.5934
X7.402 Y1.6315
X7.4097 Y1.6697
X7.4168 Y1.708
X7.4233 Y1.7465
X7.4293 Y1.785
X7.4347 Y1.8236
X7.4395 Y1.8623
X7.4437 Y1.9011
X7.4474 Y1.9399
X7.4505 Y1.9788
X7.453 Y2.0177
X7.4549 Y2.0566
X7.4562 Y2.0956
X7.457 Y2.1346
X7.4571 Y2.1736
X7.4567 Y2.2125
X7.4557 Y2.2515
X7.4541 Y2.2905
X7.4519 Y2.3294
X7.4492 Y2.3683
X7.4458 Y2.4071
X7.4418 Y2.4459
X7.4373 Y2.4847
X7.4321 Y2.5233
X7.4264 Y2.5619
X7.4201 Y2.6004
X7.4133 Y2.6387
X7.4058 Y2.677
X7.3978 Y2.7152
X7.3892 Y2.7532
X7.38 Y2.7911
X7.3703 Y2.8289
X7.36 Y2.8665
X7.3492 Y2.9039
X7.3377 Y2.9412
X7.3258 Y2.9783
X7.3133 Y3.0152
X7.3002 Y3.052
X7.2866 Y3.0885
X7.2724 Y3.1248
X7.2578 Y3.161
X7.2425 Y3.1969
X7.2268 Y3.2325
X7.2104 Y3.2679
X7.1936 Y3.3031
X7.1762 Y3.338
X7.1583 Y3.3726
X7.1398 Y3.407
X7.1209 Y3.441
X7.1014 Y3.4748
X7.0814 Y3.5083
X7.0609 Y3.5415
X7.0398 Y3.5742
X7.0345 Y3.5814
X7.0272 Y3.5895
X7.0186 Y3.5961
X7.0089 Y3.601
X6.9984 Y3.604
X6.9876 Y3.605
X6.8698
G3 X6.8603 Y3.6028 I0.0009 J-0.025 F30
G1 X6.8567 Y3.6011 Z-0.1993
X6.8532 Y3.5996 Z-0.1984
X6.8499 Y3.5981 Z-0.1969
X6.8469 Y3.5967 Z-0.1948
X6.8442 Y3.5954 Z-0.1923
X6.8419 Y3.5944 Z-0.1893
X6.84 Y3.5935 Z-0.186
X6.8386 Y3.5929 Z-0.1823
X6.8378 Y3.5925 Z-0.1785
X6.8375 Y3.5924 Z-0.1746
G0 Z0.2
X6.8124 Y0.676
Z-0.1496
G1 Z-0.1746 F30
X6.8125 Y0.6757 Z-0.1785
X6.8126 Y0.6748 Z-0.1823
X6.8129 Y0.6734 Z-0.186
X6.8132 Y0.6713 Z-0.1893
X6.8137 Y0.6688 Z-0.1923
X6.8142 Y0.6659 Z-0.1948
X6.8148 Y0.6626 Z-0.1969
X6.8155 Y0.659 Z-0.1984
X6.8161 Y0.6553 Z-0.1993
X6.8168 Y0.6514 Z-0.1996
G3 X6.8242 Y0.645 I0.0077 J0.0014
G1 X6.9394 F39.37
X6.9479 Y0.6454
X6.9595 Y0.6469
X6.9733 Y0.6499
X6.9876 Y0.6542
X7.0042 Y0.6607
X7.0225 Y0.6695
X7.0435 Y0.6819
X7.0662 Y0.6979
X7.0926 Y0.7198
X7.1205 Y0.747
X7.1463 Y0.7762
X7.1705 Y0.8068
X7.1932 Y0.8385
X7.2146 Y0.8711
X7.235 Y0.9043
X7.2545 Y0.9381
X7.2731 Y0.9723
X7.291 Y1.007
X7.3082 Y1.042
X7.3247 Y1.0773
X7.3406 Y1.1129
X7.3558 Y1.1488
X7.3705 Y1.1849
X7.3846 Y1.2213
X7.3981 Y1.2579
X7.4111 Y1.2946
X7.4234 Y1.3316
X7.4352 Y1.3688
X7.4465 Y1.4061
X7.4572 Y1.4436
X7.4674 Y1.4812
X7.477 Y1.519
X7.486 Y1.557
X7.4945 Y1.595
X7.5024 Y1.6332
X7.5098 Y1.6715
X7.5166 Y1.7099
X7.5229 Y1.7483
X7.5286 Y1.7869
X7.5338 Y1.8256
X7.5384 Y1.8643
X7.5425 Y1.9031
X7.546 Y1.9419
X7.5489 Y1.9808
X7.5513 Y2.0197
X7.5531 Y2.0586
X7.5544 Y2.0976
X7.5551 Y2.1366
X7.5552 Y2.1756
X7.5548 Y2.2146
X7.5538 Y2.2535
X7.5522 Y2.2925
X7.5501 Y2.3314
X7.5474 Y2.3703
X7.5441 Y2.4092
X7.5402 Y2.448
X7.5358 Y2.4867
X7.5308 Y2.5254
X7.5253 Y2.564
X7.5192 Y2.6025
X7.5126 Y2.6409
X7.5053 Y2.6792
X7.4976 Y2.7174
X7.4893 Y2.7555
X7.4804 Y2.7935
X7.471 Y2.8314
X7.461 Y2.869
X7.4505 Y2.9066
X7.4395 Y2.944
X7.4279 Y2.9812
X7.4158 Y3.0183
X7.4032 Y3.0552
X7.39 Y3.0919
X7.3764 Y3.1284
X7.3621 Y3.1647
X7.3474 Y3.2008
X7.3322 Y3.2367
X7.3164 Y3.2723
X7.3001 Y3.3078
X7.2833 Y3.3429
X7.2659 Y3.3779
X7.2481 Y3.4125
X7.2297 Y3.4469
X7.2109 Y3.4811
X7.1915 Y3.5149
X7.1717 Y3.5485
X7.1517 Y3.5799
X7.1503 Y3.5818
X7.143 Y3.5897
X7.1345 Y3.5962
X7.1248 Y3.6011
X7.1144 Y3.604
X7.1037 Y3.605
X6.9876
G3 X6.9781 Y3.6028 I0.0009 J-0.025 F30
G1 X6.9745 Y3.6011 Z-0.1993
X6.9711 Y3.5996 Z-0.1984
X6.9678 Y3.5981 Z-0.1969
X6.9647 Y3.5967 Z-0.1948
X6.962 Y3.5954 Z-0.1923
X6.9597 Y3.5944 Z-0.1893
X6.9578 Y3.5935 Z-0.186
X6.9565 Y3.5929 Z-0.1823
X6.9556 Y3.5925 Z-0.1785
X6.9554 Y3.5924 Z-0.1746
G0 Z0.2
X6.9276 Y0.676
Z-0.1496
G1 Z-0.1746 F30
Y0.6757 Z-0.1785
X6.9278 Y0.6748 Z-0.1823
X6.9281 Y0.6734 Z-0.186
X6.9284 Y0.6713 Z-0.1893
X6.9289 Y0.6688 Z-0.1923
X6.9294 Y0.6659 Z-0.1948
X6.93 Y0.6626 Z-0.1969
X6.9306 Y0.659 Z-0.1984
X6.9313 Y0.6553 Z-0.1993
X6.932 Y0.6514 Z-0.1996
G3 X6.9394 Y0.645 I0.0077 J0.0014
G1 X7.0457 F39.37
X7.062 Y0.6458
X7.0736 Y0.6473
X7.0871 Y0.6502
X7.101 Y0.6544
X7.1175 Y0.6608
X7.1351 Y0.6693
X7.1555 Y0.6814
X7.1774 Y0.6968
X7.2027 Y0.7178
X7.2307 Y0.745
X7.2564 Y0.7743
X7.2803 Y0.8051
X7.3027 Y0.837
X7.3238 Y0.8698
X7.3438 Y0.9032
X7.3629 Y0.9373
X7.3811 Y0.9717
X7.3985 Y1.0066
X7.4152 Y1.0419
X7.4313 Y1.0774
X7.4467 Y1.1132
X7.4615 Y1.1493
X7.4757 Y1.1856
X7.4893 Y1.2221
X7.5023 Y1.2589
X7.5148 Y1.2958
X7.5268 Y1.3329
X7.5381 Y1.3702
X7.549 Y1.4077
X7.5593 Y1.4453
X7.5691 Y1.483
X7.5783 Y1.5209
X7.587 Y1.5589
X7.5952 Y1.597
X7.6028 Y1.6353
X7.6099 Y1.6736
X7.6165 Y1.712
X7.6225 Y1.7506
X7.628 Y1.7892
X7.633 Y1.8278
X7.6374 Y1.8666
X7.6413 Y1.9054
X7.6446 Y1.9442
X7.6474 Y1.9831
X7.6497 Y2.022
X7.6514 Y2.061
X7.6526 Y2.1
X7.6533 Y2.139
X7.6534 Y2.1779
X7.6529 Y2.2169
X7.6519 Y2.2559
X7.6504 Y2.2949
X7.6483 Y2.3338
X7.6456 Y2.3727
X7.6424 Y2.4116
X7.6387 Y2.4504
X7.6344 Y2.4891
X7.6295 Y2.5278
X7.6242 Y2.5664
X7.6182 Y2.605
X7.6118 Y2.6434
X7.6048 Y2.6818
X7.5973 Y2.72
X7.5892 Y2.7582
X7.5806 Y2.7962
X7.5715 Y2.8341
X7.5618 Y2.8719
X7.5517 Y2.9095
X7.541 Y2.947
X7.5298 Y2.9844
X7.5181 Y3.0216
X7.5058 Y3.0586
X7.4931 Y3.0954
X7.4798 Y3.1321
X7.4661 Y3.1686
X7.4518 Y3.2049
X7.437 Y3.241
X7.4217 Y3.2768
X7.406 Y3.3125
X7.3897 Y3.3479
X7.3729 Y3.3831
X7.3556 Y3.4181
X7.3378 Y3.4528
X7.3195 Y3.4872
X7.3008 Y3.5214
X7.2814 Y3.5552
X7.2671 Y3.5778
X7.2599 Y3.5871
X7.2509 Y3.5947
X7.2407 Y3.6003
X7.2295 Y3.6038
X7.2178 Y3.605
X7.1037
G3 X7.0942 Y3.6028 I0.0009 J-0.025 F30
G1 X7.0907 Y3.6011 Z-0.1993
X7.0872 Y3.5996 Z-0.1984
X7.0839 Y3.5981 Z-0.1969
X7.0809 Y3.5967 Z-0.1948
X7.0781 Y3.5954 Z-0.1923
X7.0758 Y3.5944 Z-0.1893
X7.074 Y3.5935 Z-0.186
X7.0726 Y3.5929 Z-0.1823
X7.0718 Y3.5925 Z-0.1785
X7.0715 Y3.5924 Z-0.1746
G0 Z0.2
X7.0339 Y0.676
Z-0.1496
G1 Z-0.1746 F30
X7.034 Y0.6757 Z-0.1785
X7.0341 Y0.6748 Z-0.1823
X7.0344 Y0.6734 Z-0.186
X7.0347 Y0.6713 Z-0.1893
X7.0352 Y0.6688 Z-0.1923
X7.0357 Y0.6659 Z-0.1948
X7.0363 Y0.6626 Z-0.1969
X7.037 Y0.659 Z-0.1984
X7.0376 Y0.6553 Z-0.1993
X7.0383 Y0.6514 Z-0.1996
G3 X7.0457 Y0.645 I0.0077 J0.0014
G1 X7.1609 F39.37
X7.174 Y0.6457
X7.1856 Y0.6472
X7.1989 Y0.65
X7.2126 Y0.6541
X7.2289 Y0.6605
X7.246 Y0.6688
X7.266 Y0.6806
X7.2873 Y0.6955
X7.3118 Y0.7159
X7.3397 Y0.7431
X7.3654 Y0.7725
X7.3891 Y0.8034
X7.4113 Y0.8355
X7.4321 Y0.8684
X7.4518 Y0.9021
X7.4705 Y0.9363
X7.4883 Y0.971
X7.5053 Y1.0061
X7.5215 Y1.0415
X7.5371 Y1.0773
X7.5521 Y1.1133
X7.5665 Y1.1495
X7.5802 Y1.186
X7.5934 Y1.2227
X7.606 Y1.2596
X7.6181 Y1.2967
X7.6296 Y1.3339
X7.6406 Y1.3713
X7.6511 Y1.4089
X7.6611 Y1.4466
X7.6705 Y1.4844
X7.6794 Y1.5224
X7.6878 Y1.5604
X7.6957 Y1.5986
X7.703 Y1.6369
X7.7099 Y1.6753
X7.7162 Y1.7138
X7.722 Y1.7523
X7.7273 Y1.791
X7.7321 Y1.8297
X7.7363 Y1.8684
X7.74 Y1.9072
X7.7433 Y1.9461
X7.7459 Y1.985
X7.7481 Y2.0239
X7.7498 Y2.0629
X7.7509 Y2.1018
X7.7515 Y2.1408
X7.7516 Y2.1798
X7.7511 Y2.2188
X7.7501 Y2.2578
X7.7486 Y2.2967
X7.7466 Y2.3357
X7.744 Y2.3746
X7.7409 Y2.4134
X7.7372 Y2.4523
X7.733 Y2.491
X7.7283 Y2.5297
X7.7231 Y2.5684
X7.7173 Y2.6069
X7.7111 Y2.6454
X7.7043 Y2.6838
X7.697 Y2.7221
X7.6892 Y2.7603
X7.6808 Y2.7984
X7.672 Y2.8364
X7.6626 Y2.8742
X7.6528 Y2.912
X7.6424 Y2.9496
X7.6316 Y2.987
X7.6202 Y3.0243
X7.6084 Y3.0614
X7.596 Y3.0984
X7.5832 Y3.1352
X7.5698 Y3.1719
X7.556 Y3.2083
X7.5417 Y3.2446
X7.5269 Y3.2807
X7.5116 Y3.3165
X7.4958 Y3.3522
X7.4795 Y3.3876
X7.4628 Y3.4228
X7.4455 Y3.4578
X7.4278 Y3.4925
X7.4096 Y3.527
X7.3906 Y3.5611
X7.3798 Y3.578
X7.3726 Y3.5872
X7.3636 Y3.5947
X7.3534 Y3.6004
X7.3422 Y3.6038
X7.3306 Y3.605
X7.2178
G3 X7.2083 Y3.6028 I0.0009 J-0.025 F30
G1 X7.2047 Y3.6011 Z-0.1993
X7.2013 Y3.5996 Z-0.1984
X7.198 Y3.5981 Z-0.1969
X7.1949 Y3.5967 Z-0.1948
X7.1922 Y3.5954 Z-0.1923
X7.1899 Y3.5944 Z-0.1893
X7.188 Y3.5935 Z-0.186
X7.1867 Y3.5929 Z-0.1823
X7.1858 Y3.5925 Z-0.1785
X7.1856 Y3.5924 Z-0.1746
G0 Z0.2
X7.1491 Y0.676
Z-0.1496
G1 Z-0.1746 F30
Y0.6757 Z-0.1785
X7.1493 Y0.6748 Z-0.1823
X7.1496 Y0.6734 Z-0.186
X7.1499 Y0.6713 Z-0.1893
X7.1504 Y0.6688 Z-0.1923
X7.1509 Y0.6659 Z-0.1948
X7.1515 Y0.6626 Z-0.1969
X7.1521 Y0.659 Z-0.1984
X7.1528 Y0.6553 Z-0.1993
X7.1535 Y0.6514 Z-0.1996
G3 X7.1609 Y0.645 I0.0077 J0.0014
G1 X7.2761 F39.37
X7.2849 Y0.6454
X7.2964 Y0.6469
X7.3094 Y0.6497
X7.323 Y0.6538
X7.3391 Y0.6601
X7.3558 Y0.6682
X7.3755 Y0.6798
X7.3962 Y0.6943
X7.4201 Y0.7141
X7.4471 Y0.7405
X7.4727 Y0.7698
X7.4963 Y0.8008
X7.5183 Y0.833
X7.5389 Y0.8661
X7.5584 Y0.9
X7.5767 Y0.9343
X7.5942 Y0.9692
X7.6109 Y1.0045
X7.6268 Y1.0401
X7.642 Y1.0759
X7.6566 Y1.1121
X7.6705 Y1.1485
X7.6839 Y1.1851
X7.6967 Y1.222
X7.7089 Y1.259
X7.7207 Y1.2962
X7.7318 Y1.3335
X7.7425 Y1.371
X7.7527 Y1.4087
X7.7623 Y1.4465
X7.7714 Y1.4844
X7.7801 Y1.5224
X7.7882 Y1.5605
X7.7958 Y1.5988
X7.8029 Y1.6371
X7.8095 Y1.6755
X7.8156 Y1.714
X7.8213 Y1.7526
X7.8264 Y1.7913
X7.831 Y1.83
X7.8351 Y1.8688
X7.8387 Y1.9076
X7.8418 Y1.9465
X7.8444 Y1.9854
X7.8465 Y2.0243
X7.8481 Y2.0633
X7.8492 Y2.1022
X7.8498 Y2.1412
X7.8499 Y2.1802
X7.8494 Y2.2192
X7.8485 Y2.2582
X7.847 Y2.2971
X7.845 Y2.3361
X7.8425 Y2.375
X7.8394 Y2.4139
X7.8359 Y2.4527
X7.8319 Y2.4915
X7.8273 Y2.5302
X7.8222 Y2.5689
X7.8167 Y2.6074
X7.8106 Y2.646
X7.804 Y2.6844
X7.797 Y2.7227
X7.7894 Y2.761
X7.7813 Y2.7991
X7.7728 Y2.8372
X7.7637 Y2.8751
X7.7542 Y2.9129
X7.7441 Y2.9506
X7.7336 Y2.9881
X7.7226 Y3.0255
X7.7111 Y3.0628
X7.6992 Y3.0999
X7.6867 Y3.1369
X7.6738 Y3.1736
X7.6604 Y3.2103
X7.6465 Y3.2467
X7.6322 Y3.283
X7.6174 Y3.319
X7.6021 Y3.3549
X7.5863 Y3.3906
X7.5701 Y3.426
X7.5534 Y3.4612
X7.5362 Y3.4962
X7.5184 Y3.531
X7.4998 Y3.5652
X7.4913 Y3.5783
X7.4841 Y3.5874
X7.4752 Y3.5948
X7.465 Y3.6004
X7.4538 Y3.6038
X7.4423 Y3.605
X7.3306
G3 X7.3211 Y3.6028 I0.0009 J-0.025 F30
G1 X7.3176 Y3.6011 Z-0.1993
X7.3141 Y3.5996 Z-0.1984
X7.3108 Y3.5981 Z-0.1969
X7.3077 Y3.5967 Z-0.1948
X7.305 Y3.5954 Z-0.1923
X7.3027 Y3.5944 Z-0.1893
X7.3008 Y3.5935 Z-0.186
X7.2995 Y3.5929 Z-0.1823
X7.2986 Y3.5925 Z-0.1785
X7.2984 Y3.5924 Z-0.1746
G0 Z0.2
X7.2643 Y0.676
Z-0.1496
G1 Z-0.1746 F30
Y0.6757 Z-0.1785
X7.2645 Y0.6748 Z-0.1823
X7.2648 Y0.6734 Z-0.186
X7.2651 Y0.6713 Z-0.1893
X7.2656 Y0.6688 Z-0.1923
X7.2661 Y0.6659 Z-0.1948
X7.2667 Y0.6626 Z-0.1969
X7.2673 Y0.659 Z-0.1984
X7.268 Y0.6553 Z-0.1993
X7.2687 Y0.6514 Z-0.1996
G3 X7.2761 Y0.645 I0.0077 J0.0014
G1 X7.3824 F39.37
X7.3951 Y0.6456
X7.4066 Y0.6471
X7.4191 Y0.6498
X7.4327 Y0.6539
X7.4486 Y0.6601
X7.465 Y0.668
X7.4843 Y0.6794
X7.5046 Y0.6937
X7.5278 Y0.7129
X7.554 Y0.7385
X7.5796 Y0.7679
X7.6032 Y0.7989
X7.625 Y0.8312
X7.6454 Y0.8644
X7.6646 Y0.8984
X7.6827 Y0.9329
X7.6998 Y0.9679
X7.7162 Y1.0034
X7.7317 Y1.0391
X7.7466 Y1.0752
X7.7608 Y1.1115
X7.7744 Y1.148
X7.7874 Y1.1848
X7.7998 Y1.2217
X7.8117 Y1.2589
X7.8231 Y1.2962
X7.8339 Y1.3336
X7.8443 Y1.3712
X7.8541 Y1.4089
X7.8635 Y1.4468
X7.8723 Y1.4848
X7.8807 Y1.5228
X7.8885 Y1.561
X7.8959 Y1.5993
X7.9028 Y1.6377
X7.9092 Y1.6762
X7.9151 Y1.7147
X7.9206 Y1.7533
X7.9255 Y1.792
X7.93 Y1.8307
X7.934 Y1.8695
X7.9374 Y1.9083
X7.9404 Y1.9472
X7.943 Y1.9861
X7.945 Y2.0251
X7.9465 Y2.064
X7.9476 Y2.103
X7.9481 Y2.142
X7.9482 Y2.181
X7.9477 Y2.22
X7.9468 Y2.2589
X7.9454 Y2.2979
X7.9434 Y2.3368
X7.941 Y2.3758
X7.938 Y2.4146
X7.9346 Y2.4535
X7.9307 Y2.4923
X7.9262 Y2.531
X7.9213 Y2.5697
X7.9159 Y2.6083
X7.91 Y2.6468
X7.9037 Y2.6853
X7.8968 Y2.7237
X7.8895 Y2.762
X7.8816 Y2.8002
X7.8733 Y2.8383
X7.8646 Y2.8763
X7.8553 Y2.9141
X7.8456 Y2.9519
X7.8354 Y2.9895
X7.8247 Y3.027
X7.8136 Y3.0644
X7.8019 Y3.1016
X7.7899 Y3.1387
X7.7773 Y3.1756
X7.7643 Y3.2124
X7.7509 Y3.249
X7.737 Y3.2854
X7.7226 Y3.3216
X7.7078 Y3.3577
X7.6925 Y3.3936
X7.6767 Y3.4292
X7.6605 Y3.4647
X7.6438 Y3.4999
X7.6265 Y3.5349
X7.6087 Y3.5679
X7.6019 Y3.5784
X7.5946 Y3.5874
X7.5857 Y3.5949
X7.5755 Y3.6004
X7.5645 Y3.6038
X7.5529 Y3.605
X7.4423
G3 X7.4328 Y3.6028 I0.0009 J-0.025 F30
G1 X7.4292 Y3.6011 Z-0.1993
X7.4258 Y3.5996 Z-0.1984
X7.4225 Y3.5981 Z-0.1969
X7.4194 Y3.5967 Z-0.1948
X7.4167 Y3.5954 Z-0.1923
X7.4144 Y3.5944 Z-0.1893
X7.4125 Y3.5935 Z-0.186
X7.4111 Y3.5929 Z-0.1823
X7.4103 Y3.5925 Z-0.1785
X7.41 Y3.5924 Z-0.1746
G0 Z0.2
X7.3706 Y0.676
Z-0.1496
G1 Z-0.1746 F30
Y0.6757 Z-0.1785
X7.3708 Y0.6748 Z-0.1823
X7.3711 Y0.6734 Z-0.186
X7.3714 Y0.6713 Z-0.1893
X7.3719 Y0.6688 Z-0.1923
X7.3724 Y0.6659 Z-0.1948
X7.373 Y0.6626 Z-0.1969
X7.3736 Y0.659 Z-0.1984
X7.3743 Y0.6553 Z-0.1993
X7.375 Y0.6514 Z-0.1996
G3 X7.3824 Y0.645 I0.0077 J0.0014
G1 X7.4976 F39.37
X7.5037 Y0.6453
X7.5152 Y0.6468
X7.5275 Y0.6494
X7.541 Y0.6535
X7.5568 Y0.6596
X7.5729 Y0.6675
X7.592 Y0.6787
X7.6119 Y0.6927
X7.6347 Y0.7116
X7.6602 Y0.7365
X7.6858 Y0.7659
X7.7093 Y0.797
X7.731 Y0.8294
X7.7513 Y0.8627
X7.7702 Y0.8968
X7.788 Y0.9315
X7.8049 Y0.9666
X7.8209 Y1.0022
X7.8361 Y1.0381
X7.8507 Y1.0743
X7.8645 Y1.1107
X7.8778 Y1.1474
X7.8905 Y1.1842
X7.9026 Y1.2213
X7.9142 Y1.2585
X7.9252 Y1.2959
X7.9358 Y1.3335
X7.9458 Y1.3711
X7.9554 Y1.4089
X7.9644 Y1.4469
X7.973 Y1.4849
X7.9811 Y1.523
X7.9888 Y1.5613
X7.9959 Y1.5996
X8.0026 Y1.638
X8.0088 Y1.6765
X8.0146 Y1.7151
X8.0198 Y1.7537
X8.0246 Y1.7924
X8.0289 Y1.8311
X8.0328 Y1.8699
X8.0362 Y1.9088
X8.0391 Y1.9477
X8.0415 Y1.9866
X8.0435 Y2.0255
X8.045 Y2.0645
X8.046 Y2.1035
X8.0465 Y2.1425
X8.0466 Y2.1814
X8.0461 Y2.2204
X8.0452 Y2.2594
X8.0438 Y2.2984
X8.0419 Y2.3373
X8.0395 Y2.3762
X8.0367 Y2.4151
X8.0334 Y2.454
X8.0295 Y2.4928
X8.0252 Y2.5315
X8.0205 Y2.5702
X8.0152 Y2.6089
X8.0095 Y2.6474
X8.0033 Y2.6859
X7.9967 Y2.7244
X7.9895 Y2.7627
X7.9819 Y2.8009
X7.9739 Y2.8391
X7.9654 Y2.8771
X7.9564 Y2.9151
X7.9469 Y2.9529
X7.937 Y2.9906
X7.9267 Y3.0282
X7.9159 Y3.0657
X7.9046 Y3.103
X7.8929 Y3.1402
X7.8807 Y3.1772
X7.8681 Y3.2141
X7.855 Y3.2509
X7.8415 Y3.2874
X7.8276 Y3.3238
X7.8132 Y3.3601
X7.7983 Y3.3961
X7.783 Y3.432
X7.7673 Y3.4677
X7.751 Y3.5031
X7.7341 Y3.5382
X7.7176 Y3.5689
X7.7116 Y3.5783
X7.7044 Y3.5874
X7.6955 Y3.5948
X7.6853 Y3.6004
X7.6742 Y3.6038
X7.6626 Y3.605
X7.5529
G3 X7.5434 Y3.6028 I0.0009 J-0.025 F30
G1 X7.5399 Y3.6011 Z-0.1993
X7.5364 Y3.5996 Z-0.1984
X7.5331 Y3.5981 Z-0.1969
X7.5301 Y3.5967 Z-0.1948
X7.5273 Y3.5954 Z-0.1923
X7.525 Y3.5944 Z-0.1893
X7.5232 Y3.5935 Z-0.186
X7.5218 Y3.5929 Z-0.1823
X7.521 Y3.5925 Z-0.1785
X7.5207 Y3.5924 Z-0.1746
G0 Z0.2
X7.4858 Y0.676
Z-0.1496
G1 Z-0.1746 F30
Y0.6757 Z-0.1785
X7.486 Y0.6748 Z-0.1823
X7.4863 Y0.6734 Z-0.186
X7.4866 Y0.6713 Z-0.1893
X7.4871 Y0.6688 Z-0.1923
X7.4876 Y0.6659 Z-0.1948
X7.4882 Y0.6626 Z-0.1969
X7.4888 Y0.659 Z-0.1984
X7.4895 Y0.6553 Z-0.1993
X7.4902 Y0.6514 Z-0.1996
G3 X7.4976 Y0.645 I0.0077 J0.0014
G1 X7.6039 F39.37
X7.6121 Y0.6454
X7.6236 Y0.6469
X7.6354 Y0.6494
X7.6489 Y0.6535
X7.6645 Y0.6595
X7.6805 Y0.6673
X7.6992 Y0.6783
X7.7189 Y0.6922
X7.7411 Y0.7106
X7.7661 Y0.735
X7.7917 Y0.7643
X7.8151 Y0.7955
X7.8367 Y0.828
X7.8567 Y0.8614
X7.8755 Y0.8956
X7.893 Y0.9304
X7.9096 Y0.9657
X7.9254 Y1.0014
X7.9403 Y1.0374
X7.9545 Y1.0737
X7.9681 Y1.1103
X7.981 Y1.1471
X7.9934 Y1.184
X8.0052 Y1.2212
X8.0165 Y1.2585
X8.0272 Y1.296
X8.0375 Y1.3336
X8.0472 Y1.3714
X8.0565 Y1.4092
X8.0653 Y1.4472
X8.0737 Y1.4853
X8.0816 Y1.5235
X8.089 Y1.5618
X8.0959 Y1.6001
X8.1024 Y1.6386
X8.1084 Y1.6771
X8.114 Y1.7157
X8.1191 Y1.7544
X8.1238 Y1.7931
X8.1279 Y1.8318
X8.1317 Y1.8707
X8.135 Y1.9095
X8.1378 Y1.9484
X8.1401 Y1.9873
X8.142 Y2.0263
X8.1435 Y2.0652
X8.1444 Y2.1042
X8.1449 Y2.1432
X8.145 Y2.1822
X8.1446 Y2.2212
X8.1437 Y2.2601
X8.1423 Y2.2991
X8.1404 Y2.3381
X8.1381 Y2.377
X8.1354 Y2.4159
X8.1321 Y2.4547
X8.1284 Y2.4935
X8.1242 Y2.5323
X8.1196 Y2.571
X8.1145 Y2.6097
X8.1089 Y2.6483
X8.1029 Y2.6868
X8.0964 Y2.7252
X8.0895 Y2.7636
X8.0821 Y2.8019
X8.0743 Y2.8401
X8.066 Y2.8782
X8.0573 Y2.9162
X8.0481 Y2.9541
X8.0385 Y2.9919
X8.0284 Y3.0296
X8.0179 Y3.0671
X8.007 Y3.1045
X7.9956 Y3.1418
X7.9838 Y3.179
X7.9715 Y3.216
X7.9588 Y3.2529
X7.9457 Y3.2896
X7.9321 Y3.3261
X7.9181 Y3.3625
X7.9037 Y3.3987
X7.8888 Y3.4348
X7.8735 Y3.4706
X7.8577 Y3.5063
X7.841 Y3.5415
X7.8257 Y3.5702
X7.8205 Y3.5782
X7.8133 Y3.5873
X7.8044 Y3.5948
X7.7941 Y3.6004
X7.783 Y3.6038
X7.7714 Y3.605
X7.6626
G3 X7.6531 Y3.6028 I0.0009 J-0.025 F30
G1 X7.6495 Y3.6011 Z-0.1993
X7.6461 Y3.5996 Z-0.1984
X7.6428 Y3.5981 Z-0.1969
X7.6397 Y3.5967 Z-0.1948
X7.637 Y3.5954 Z-0.1923
X7.6347 Y3.5944 Z-0.1893
X7.6328 Y3.5935 Z-0.186
X7.6314 Y3.5929 Z-0.1823
X7.6306 Y3.5925 Z-0.1785
X7.6303 Y3.5924 Z-0.1746
G0 Z0.2
X7.5921 Y0.676
Z-0.1496
G1 Z-0.1746 F30
Y0.6757 Z-0.1785
X7.5923 Y0.6748 Z-0.1823
X7.5926 Y0.6734 Z-0.186
X7.5929 Y0.6713 Z-0.1893
X7.5934 Y0.6688 Z-0.1923
X7.5939 Y0.6659 Z-0.1948
X7.5945 Y0.6626 Z-0.1969
X7.5951 Y0.659 Z-0.1984
X7.5958 Y0.6553 Z-0.1993
X7.5965 Y0.6514 Z-0.1996
G3 X7.6039 Y0.645 I0.0077 J0.0014
G1 X7.7102 F39.37
X7.7196 Y0.6455
X7.731 Y0.647
X7.7426 Y0.6495
X7.7561 Y0.6535
X7.7714 Y0.6594
X7.7873 Y0.6672
X7.8057 Y0.678
X7.8252 Y0.6917
X7.847 Y0.7098
X7.8715 Y0.7337
X7.8971 Y0.763
X7.9205 Y0.7943
X7.9419 Y0.8268
X7.9618 Y0.8603
X7.9803 Y0.8947
X7.9977 Y0.9296
X8.014 Y0.965
X8.0295 Y1.0008
X8.0441 Y1.0369
X8.0581 Y1.0733
X8.0713 Y1.11
X8.084 Y1.1469
X8.096 Y1.1839
X8.1076 Y1.2212
X8.1186 Y1.2586
X8.129 Y1.2961
X8.139 Y1.3338
X8.1485 Y1.3717
X8.1576 Y1.4096
X8.1662 Y1.4476
X8.1743 Y1.4858
X8.1819 Y1.524
X8.1891 Y1.5623
X8.1959 Y1.6007
X8.2022 Y1.6392
X8.208 Y1.6777
X8.2134 Y1.7164
X8.2184 Y1.755
X8.2229 Y1.7938
X8.227 Y1.8325
X8.2306 Y1.8714
X8.2338 Y1.9102
X8.2365 Y1.9491
X8.2388 Y1.988
X8.2406 Y2.027
X8.242 Y2.0659
X8.2429 Y2.1049
X8.2434 Y2.1439
Y2.1829
X8.243 Y2.2219
X8.2421 Y2.2609
X8.2408 Y2.2998
X8.239 Y2.3388
X8.2368 Y2.3777
X8.234 Y2.4166
X8.2309 Y2.4555
X8.2273 Y2.4943
X8.2232 Y2.5331
X8.2187 Y2.5718
X8.2137 Y2.6105
X8.2083 Y2.6491
X8.2025 Y2.6876
X8.1962 Y2.7261
X8.1895 Y2.7645
X8.1823 Y2.8029
X8.1747 Y2.8411
X8.1666 Y2.8792
X8.1581 Y2.9173
X8.1492 Y2.9553
X8.1399 Y2.9931
X8.1301 Y3.0309
X8.1198 Y3.0685
X8.1092 Y3.106
X8.0981 Y3.1434
X8.0866 Y3.1806
X8.0747 Y3.2178
X8.0624 Y3.2547
X8.0496 Y3.2916
X8.0364 Y3.3283
X8.0228 Y3.3648
X8.0087 Y3.4012
X7.9943 Y3.4374
X7.9793 Y3.4734
X7.9639 Y3.5092
X7.9474 Y3.5446
X7.9331 Y3.5714
X7.9287 Y3.5782
X7.9215 Y3.5873
X7.9126 Y3.5948
X7.9023 Y3.6004
X7.8912 Y3.6038
X7.8796 Y3.605
X7.7714
G3 X7.762 Y3.6028 I0.0009 J-0.025 F30
G1 X7.7584 Y3.6011 Z-0.1993
X7.7549 Y3.5996 Z-0.1984
X7.7516 Y3.5981 Z-0.1969
X7.7486 Y3.5967 Z-0.1948
X7.7459 Y3.5954 Z-0.1923
X7.7435 Y3.5944 Z-0.1893
X7.7417 Y3.5935 Z-0.186
X7.7403 Y3.5929 Z-0.1823
X7.7395 Y3.5925 Z-0.1785
X7.7392 Y3.5924 Z-0.1746
G0 Z0.2
X7.6984 Y0.676
Z-0.1496
G1 Z-0.1746 F30
X7.6985 Y0.6757 Z-0.1785
X7.6986 Y0.6748 Z-0.1823
X7.6989 Y0.6734 Z-0.186
X7.6993 Y0.6713 Z-0.1893
X7.6997 Y0.6688 Z-0.1923
X7.7002 Y0.6659 Z-0.1948
X7.7008 Y0.6626 Z-0.1969
X7.7015 Y0.659 Z-0.1984
X7.7021 Y0.6553 Z-0.1993
X7.7028 Y0.6514 Z-0.1996
G3 X7.7102 Y0.645 I0.0077 J0.0014
G1 X7.8166 F39.37
X7.8263 Y0.6455
X7.8376 Y0.647
X7.8491 Y0.6494
X7.8627 Y0.6535
X7.8777 Y0.6593
X7.8935 Y0.667
X7.9117 Y0.6777
X7.9309 Y0.6912
X7.9524 Y0.709
X7.9764 Y0.7325
X8.002 Y0.7619
X8.0253 Y0.7931
X8.0467 Y0.8257
X8.0664 Y0.8594
X8.0848 Y0.8938
X8.1019 Y0.9288
X8.118 Y0.9643
X8.1332 Y1.0002
X8.1476 Y1.0364
X8.1613 Y1.073
X8.1743 Y1.1097
X8.1867 Y1.1467
X8.1985 Y1.1839
X8.2097 Y1.2212
X8.2205 Y1.2587
X8.2307 Y1.2963
X8.2404 Y1.334
X8.2497 Y1.3719
X8.2585 Y1.4099
X8.2669 Y1.448
X8.2747 Y1.4862
X8.2822 Y1.5245
X8.2892 Y1.5628
X8.2958 Y1.6012
X8.3019 Y1.6397
X8.3076 Y1.6783
X8.3128 Y1.717
X8.3176 Y1.7556
X8.322 Y1.7944
X8.326 Y1.8332
X8.3295 Y1.872
X8.3326 Y1.9109
X8.3352 Y1.9498
X8.3374 Y1.9887
X8.3392 Y2.0277
X8.3406 Y2.0666
X8.3415 Y2.1056
X8.3419 Y2.1446
X8.342 Y2.1836
X8.3415 Y2.2226
X8.3407 Y2.2616
X8.3394 Y2.3005
X8.3376 Y2.3395
X8.3354 Y2.3784
X8.3328 Y2.4173
X8.3297 Y2.4562
X8.3262 Y2.495
X8.3222 Y2.5338
X8.3178 Y2.5725
X8.313 Y2.6112
X8.3077 Y2.6499
X8.302 Y2.6884
X8.2959 Y2.7269
X8.2894 Y2.7654
X8.2824 Y2.8037
X8.275 Y2.842
X8.2671 Y2.8802
X8.2589 Y2.9183
X8.2502 Y2.9563
X8.2411 Y2.9942
X8.2316 Y3.0321
X8.2216 Y3.0698
X8.2113 Y3.1073
X8.2005 Y3.1448
X8.1893 Y3.1822
X8.1777 Y3.2194
X8.1657 Y3.2565
X8.1532 Y3.2934
X8.1404 Y3.3303
X8.1271 Y3.3669
X8.1135 Y3.4034
X8.0994 Y3.4398
X8.0848 Y3.476
X8.0696 Y3.5119
X8.0534 Y3.5473
X8.0399 Y3.5726
X8.0363 Y3.5782
X8.029 Y3.5873
X8.0201 Y3.5948
X8.0099 Y3.6004
X7.9988 Y3.6038
X7.9872 Y3.605
X7.8796
G3 X7.8701 Y3.6028 I0.0009 J-0.025 F30
G1 X7.8666 Y3.6011 Z-0.1993
X7.8631 Y3.5996 Z-0.1984
X7.8598 Y3.5981 Z-0.1969
X7.8568 Y3.5967 Z-0.1948
X7.8541 Y3.5954 Z-0.1923
X7.8517 Y3.5944 Z-0.1893
X7.8499 Y3.5935 Z-0.186
X7.8485 Y3.5929 Z-0.1823
X7.8477 Y3.5925 Z-0.1785
X7.8474 Y3.5924 Z-0.1746
G0 Z0.2
X7.8047 Y0.676
Z-0.1496
G1 Z-0.1746 F30
X7.8048 Y0.6757 Z-0.1785
X7.805 Y0.6748 Z-0.1823
X7.8052 Y0.6734 Z-0.186
X7.8056 Y0.6713 Z-0.1893
X7.806 Y0.6688 Z-0.1923
X7.8066 Y0.6659 Z-0.1948
X7.8071 Y0.6626 Z-0.1969
X7.8078 Y0.659 Z-0.1984
X7.8085 Y0.6553 Z-0.1993
X7.8091 Y0.6514 Z-0.1996
G3 X7.8166 Y0.645 I0.0077 J0.0014
G1 X7.9229 F39.37
X7.9325 Y0.6455
X7.9437 Y0.6469
X7.9551 Y0.6494
X7.9686 Y0.6534
X7.9834 Y0.6592
X7.9992 Y0.6668
X8.0171 Y0.6774
X8.0362 Y0.6908
X8.0573 Y0.7084
X8.0809 Y0.7314
X8.1066 Y0.7608
X8.1298 Y0.7921
X8.1511 Y0.8248
X8.1707 Y0.8585
X8.1888 Y0.893
X8.2058 Y0.9281
X8.2217 Y0.9637
X8.2367 Y0.9997
X8.2508 Y1.036
X8.2643 Y1.0726
X8.277 Y1.1095
X8.2891 Y1.1465
X8.3007 Y1.1838
X8.3117 Y1.2212
X8.3222 Y1.2587
X8.3322 Y1.2964
X8.3417 Y1.3342
X8.3507 Y1.3722
X8.3593 Y1.4102
X8.3675 Y1.4483
X8.3751 Y1.4866
X8.3824 Y1.5249
X8.3892 Y1.5633
X8.3956 Y1.6017
X8.4016 Y1.6403
X8.4071 Y1.6789
X8.4122 Y1.7175
X8.4169 Y1.7562
X8.4212 Y1.795
X8.425 Y1.8338
X8.4284 Y1.8726
X8.4314 Y1.9115
X8.434 Y1.9504
X8.4361 Y1.9893
X8.4379 Y2.0283
X8.4392 Y2.0673
X8.44 Y2.1062
X8.4405 Y2.1452
Y2.1842
X8.4401 Y2.2232
X8.4392 Y2.2622
X8.438 Y2.3012
X8.4363 Y2.3401
X8.4341 Y2.379
X8.4315 Y2.4179
X8.4285 Y2.4568
X8.4251 Y2.4957
X8.4213 Y2.5345
X8.417 Y2.5732
X8.4123 Y2.6119
X8.4071 Y2.6506
X8.4016 Y2.6892
X8.3956 Y2.7277
X8.3892 Y2.7662
X8.3824 Y2.8046
X8.3752 Y2.8429
X8.3676 Y2.8811
X8.3596 Y2.9193
X8.3511 Y2.9573
X8.3422 Y2.9953
X8.333 Y3.0332
X8.3233 Y3.0709
X8.3132 Y3.1086
X8.3027 Y3.1461
X8.2918 Y3.1836
X8.2805 Y3.2209
X8.2688 Y3.2581
X8.2567 Y3.2952
X8.2442 Y3.3321
X8.2312 Y3.3689
X8.2179 Y3.4055
X8.2042 Y3.442
X8.1899 Y3.4783
X8.1751 Y3.5143
X8.159 Y3.5499
X8.1462 Y3.5739
X8.1433 Y3.5783
X8.1361 Y3.5874
X8.1272 Y3.5949
X8.117 Y3.6004
X8.1059 Y3.6038
X8.0943 Y3.605
X7.9872
G3 X7.9777 Y3.6028 I0.0009 J-0.025 F30
G1 X7.9742 Y3.6011 Z-0.1993
X7.9707 Y3.5996 Z-0.1984
X7.9674 Y3.5981 Z-0.1969
X7.9644 Y3.5967 Z-0.1948
X7.9617 Y3.5954 Z-0.1923
X7.9593 Y3.5944 Z-0.1893
X7.9575 Y3.5935 Z-0.186
X7.9561 Y3.5929 Z-0.1823
X7.9553 Y3.5925 Z-0.1785
X7.955 Y3.5924 Z-0.1746
G0 Z0.2
X7.9111 Y0.676
Z-0.1496
G1 Z-0.1746 F30
Y0.6757 Z-0.1785
X7.9113 Y0.6748 Z-0.1823
X7.9115 Y0.6734 Z-0.186
X7.9119 Y0.6713 Z-0.1893
X7.9124 Y0.6688 Z-0.1923
X7.9129 Y0.6659 Z-0.1948
X7.9135 Y0.6626 Z-0.1969
X7.9141 Y0.659 Z-0.1984
X7.9148 Y0.6553 Z-0.1993
X7.9155 Y0.6514 Z-0.1996
G3 X7.9229 Y0.645 I0.0077 J0.0014
G1 X8.0292 F39.37
X8.0381 Y0.6454
X8.0491 Y0.6469
X8.0605 Y0.6493
X8.074 Y0.6534
X8.0886 Y0.6591
X8.1043 Y0.6667
X8.1221 Y0.6771
X8.1409 Y0.6904
X8.1618 Y0.7077
X8.1851 Y0.7304
X8.2107 Y0.7598
X8.2339 Y0.7912
X8.2551 Y0.8239
X8.2746 Y0.8577
X8.2926 Y0.8923
X8.3094 Y0.9275
X8.3251 Y0.9632
X8.3398 Y0.9992
X8.3538 Y1.0357
X8.367 Y1.0723
X8.3795 Y1.1093
X8.3914 Y1.1464
X8.4027 Y1.1837
X8.4135 Y1.2212
X8.4238 Y1.2588
X8.4335 Y1.2965
X8.4428 Y1.3344
X8.4516 Y1.3724
X8.46 Y1.4105
X8.468 Y1.4486
X8.4755 Y1.4869
X8.4825 Y1.5253
X8.4892 Y1.5637
X8.4954 Y1.6022
X8.5012 Y1.6407
X8.5066 Y1.6793
X8.5116 Y1.718
X8.5162 Y1.7567
X8.5203 Y1.7955
X8.524 Y1.8343
X8.5274 Y1.8732
X8.5303 Y1.912
X8.5328 Y1.951
X8.5349 Y1.9899
X8.5365 Y2.0288
X8.5378 Y2.0678
X8.5386 Y2.1068
X8.5391 Y2.1458
Y2.1848
X8.5387 Y2.2238
X8.5379 Y2.2627
X8.5366 Y2.3017
X8.5349 Y2.3407
X8.5328 Y2.3796
X8.5303 Y2.4185
X8.5274 Y2.4574
X8.5241 Y2.4962
X8.5203 Y2.5351
X8.5161 Y2.5738
X8.5115 Y2.6125
X8.5066 Y2.6512
X8.5011 Y2.6898
X8.4953 Y2.7284
X8.4891 Y2.7669
X8.4825 Y2.8053
X8.4754 Y2.8436
X8.468 Y2.8819
X8.4602 Y2.9201
X8.4519 Y2.9582
X8.4433 Y2.9962
X8.4343 Y3.0342
X8.4248 Y3.072
X8.415 Y3.1097
X8.4048 Y3.1474
X8.3941 Y3.1849
X8.3831 Y3.2223
X8.3717 Y3.2596
X8.3599 Y3.2967
X8.3477 Y3.3338
X8.3351 Y3.3707
X8.3221 Y3.4074
X8.3087 Y3.444
X8.2948 Y3.4804
X8.2801 Y3.5166
X8.2643 Y3.5522
X8.2518 Y3.5752
X8.2498 Y3.5784
X8.2426 Y3.5874
X8.2337 Y3.5949
X8.2235 Y3.6004
X8.2124 Y3.6038
X8.2008 Y3.605
X8.0943
G3 X8.0848 Y3.6028 I0.0009 J-0.025 F30
G1 X8.0812 Y3.6011 Z-0.1993
X8.0778 Y3.5996 Z-0.1984
X8.0745 Y3.5981 Z-0.1969
X8.0714 Y3.5967 Z-0.1948
X8.0687 Y3.5954 Z-0.1923
X8.0664 Y3.5944 Z-0.1893
X8.0645 Y3.5935 Z-0.186
X8.0632 Y3.5929 Z-0.1823
X8.0623 Y3.5925 Z-0.1785
X8.062 Y3.5924 Z-0.1746
G0 Z0.2
X8.0174 Y0.676
Z-0.1496
G1 Z-0.1746 F30
Y0.6757 Z-0.1785
X8.0176 Y0.6748 Z-0.1823
X8.0179 Y0.6734 Z-0.186
X8.0182 Y0.6713 Z-0.1893
X8.0187 Y0.6688 Z-0.1923
X8.0192 Y0.6659 Z-0.1948
X8.0198 Y0.6626 Z-0.1969
X8.0204 Y0.659 Z-0.1984
X8.0211 Y0.6553 Z-0.1993
X8.0218 Y0.6514 Z-0.1996
G3 X8.0292 Y0.645 I0.0077 J0.0014
G1 X8.1355 F39.37
X8.1431 Y0.6454
X8.154 Y0.6468
X8.1654 Y0.6492
X8.1789 Y0.6533
X8.1934 Y0.6589
X8.209 Y0.6665
X8.2266 Y0.6768
X8.2453 Y0.69
X8.2659 Y0.7071
X8.2889 Y0.7296
X8.3142 Y0.7585
X8.3374 Y0.7899
X8.3585 Y0.8227
X8.3779 Y0.8565
X8.3958 Y0.8911
X8.4124 Y0.9264
X8.4279 Y0.9622
X8.4425 Y0.9983
X8.4563 Y1.0348
X8.4693 Y1.0716
X8.4816 Y1.1086
X8.4933 Y1.1458
X8.5044 Y1.1831
X8.515 Y1.2207
X8.525 Y1.2583
X8.5346 Y1.2961
X8.5437 Y1.3341
X8.5523 Y1.3721
X8.5605 Y1.4102
X8.5683 Y1.4484
X8.5756 Y1.4867
X8.5825 Y1.5251
X8.589 Y1.5635
X8.5951 Y1.602
X8.6008 Y1.6406
X8.606 Y1.6793
X8.6109 Y1.7179
X8.6153 Y1.7567
X8.6194 Y1.7955
X8.623 Y1.8343
X8.6263 Y1.8731
X8.6291 Y1.912
X8.6316 Y1.9509
X8.6336 Y1.9899
X8.6352 Y2.0288
X8.6365 Y2.0678
X8.6373 Y2.1068
X8.6377 Y2.1458
Y2.1848
X8.6373 Y2.2238
X8.6365 Y2.2627
X8.6353 Y2.3017
X8.6337 Y2.3407
X8.6316 Y2.3796
X8.6292 Y2.4185
X8.6263 Y2.4574
X8.6231 Y2.4963
X8.6194 Y2.5351
X8.6154 Y2.5739
X8.6109 Y2.6126
X8.606 Y2.6513
X8.6008 Y2.6899
X8.5951 Y2.7285
X8.589 Y2.767
X8.5826 Y2.8055
X8.5757 Y2.8438
X8.5685 Y2.8821
X8.5608 Y2.9204
X8.5528 Y2.9585
X8.5444 Y2.9966
X8.5356 Y3.0346
X8.5264 Y3.0725
X8.5168 Y3.1103
X8.5068 Y3.148
X8.4965 Y3.1856
X8.4857 Y3.223
X8.4746 Y3.2604
X8.4631 Y3.2977
X8.4512 Y3.3348
X8.4389 Y3.3718
X8.4263 Y3.4087
X8.4131 Y3.4454
X8.3995 Y3.4819
X8.3851 Y3.5182
X8.3694 Y3.5538
X8.3573 Y3.5762
X8.3559 Y3.5784
X8.3486 Y3.5875
X8.3397 Y3.5949
X8.3296 Y3.6004
X8.3185 Y3.6038
X8.3069 Y3.605
X8.2008
G3 X8.1914 Y3.6028 I0.0009 J-0.025 F30
G1 X8.1878 Y3.6011 Z-0.1993
X8.1843 Y3.5996 Z-0.1984
X8.181 Y3.5981 Z-0.1969
X8.178 Y3.5967 Z-0.1948
X8.1753 Y3.5954 Z-0.1923
X8.1729 Y3.5944 Z-0.1893
X8.1711 Y3.5935 Z-0.186
X8.1697 Y3.5929 Z-0.1823
X8.1689 Y3.5925 Z-0.1785
X8.1686 Y3.5924 Z-0.1746
G0 Z0.2
X8.1237 Y0.676
Z-0.1496
G1 Z-0.1746 F30
X8.1238 Y0.6757 Z-0.1785
X8.1239 Y0.6748 Z-0.1823
X8.1242 Y0.6734 Z-0.186
X8.1245 Y0.6713 Z-0.1893
X8.125 Y0.6688 Z-0.1923
X8.1255 Y0.6659 Z-0.1948
X8.1261 Y0.6626 Z-0.1969
X8.1268 Y0.659 Z-0.1984
X8.1274 Y0.6553 Z-0.1993
X8.1281 Y0.6514 Z-0.1996
G3 X8.1355 Y0.645 I0.0077 J0.0014
G1 X8.2379 F39.37
X8.248 Y0.6455
X8.2587 Y0.6469
X8.2701 Y0.6493
X8.2836 Y0.6534
X8.2978 Y0.6589
X8.3134 Y0.6665
X8.3308 Y0.6767
X8.3494 Y0.6898
X8.3698 Y0.7067
X8.3925 Y0.7289
X8.4174 Y0.7574
X8.4406 Y0.7888
X8.4617 Y0.8216
X8.4809 Y0.8555
X8.4987 Y0.8902
X8.5152 Y0.9255
X8.5306 Y0.9613
X8.545 Y0.9976
X8.5586 Y1.0341
X8.5714 Y1.0709
X8.5835 Y1.108
X8.595 Y1.1452
X8.6059 Y1.1827
X8.6163 Y1.2203
X8.6262 Y1.258
X8.6356 Y1.2958
X8.6445 Y1.3338
X8.6529 Y1.3718
X8.661 Y1.41
X8.6685 Y1.4482
X8.6757 Y1.4866
X8.6825 Y1.525
X8.6888 Y1.5634
X8.6948 Y1.602
X8.7003 Y1.6406
X8.7054 Y1.6792
X8.7102 Y1.7179
X8.7145 Y1.7567
X8.7185 Y1.7955
X8.722 Y1.8343
X8.7252 Y1.8732
X8.728 Y1.9121
X8.7304 Y1.951
X8.7324 Y1.9899
X8.7339 Y2.0289
X8.7351 Y2.0678
X8.736 Y2.1068
X8.7364 Y2.1458
Y2.1848
X8.736 Y2.2238
X8.7352 Y2.2628
X8.734 Y2.3017
X8.7324 Y2.3407
X8.7305 Y2.3796
X8.7281 Y2.4186
X8.7253 Y2.4575
X8.7221 Y2.4963
X8.7185 Y2.5351
X8.7146 Y2.5739
X8.7102 Y2.6127
X8.7055 Y2.6514
X8.7004 Y2.69
X8.6948 Y2.7286
X8.6889 Y2.7672
X8.6826 Y2.8056
X8.6759 Y2.8441
X8.6689 Y2.8824
X8.6614 Y2.9207
X8.6536 Y2.9589
X8.6454 Y2.997
X8.6368 Y3.035
X8.6278 Y3.073
X8.6185 Y3.1108
X8.6088 Y3.1486
X8.5987 Y3.1862
X8.5882 Y3.2238
X8.5773 Y3.2613
X8.5661 Y3.2986
X8.5545 Y3.3358
X8.5425 Y3.3729
X8.5301 Y3.4099
X8.5173 Y3.4467
X8.5039 Y3.4833
X8.4897 Y3.5197
X8.4746 Y3.5543
X8.4629 Y3.5762
X8.4616 Y3.5783
X8.4543 Y3.5874
X8.4454 Y3.5948
X8.4352 Y3.6004
X8.4241 Y3.6038
X8.4125 Y3.605
X8.3069
G3 X8.2974 Y3.6028 I0.0009 J-0.025 F30
G1 X8.2939 Y3.6011 Z-0.1993
X8.2904 Y3.5996 Z-0.1984
X8.2871 Y3.5981 Z-0.1969
X8.2841 Y3.5967 Z-0.1948
X8.2814 Y3.5954 Z-0.1923
X8.279 Y3.5944 Z-0.1893
X8.2772 Y3.5935 Z-0.186
X8.2758 Y3.5929 Z-0.1823
X8.275 Y3.5925 Z-0.1785
X8.2747 Y3.5924 Z-0.1746
G0 Z0.2
X8.226 Y0.676
Z-0.1496
G1 Z-0.1746 F30
X8.2261 Y0.6757 Z-0.1785
X8.2263 Y0.6748 Z-0.1823
X8.2265 Y0.6734 Z-0.186
X8.2269 Y0.6713 Z-0.1893
X8.2273 Y0.6688 Z-0.1923
X8.2279 Y0.6659 Z-0.1948
X8.2284 Y0.6626 Z-0.1969
X8.2291 Y0.659 Z-0.1984
X8.2298 Y0.6553 Z-0.1993
X8.2304 Y0.6514 Z-0.1996
G3 X8.2379 Y0.645 I0.0077 J0.0014
G1 X8.3393 F39.37
X8.3524 Y0.6457
X8.363 Y0.647
X8.3744 Y0.6495
X8.3879 Y0.6535
X8.4019 Y0.659
X8.4174 Y0.6665
X8.4346 Y0.6766
X8.4532 Y0.6897
X8.4733 Y0.7064
X8.4957 Y0.7283
X8.5203 Y0.7565
X8.5435 Y0.7878
X8.5646 Y0.8207
X8.5838 Y0.8546
X8.6015 Y0.8893
X8.6178 Y0.9247
X8.6331 Y0.9606
X8.6473 Y0.9969
X8.6607 Y1.0335
X8.6734 Y1.0704
X8.6853 Y1.1075
X8.6966 Y1.1448
X8.7074 Y1.1823
X8.7176 Y1.2199
X8.7273 Y1.2577
X8.7365 Y1.2956
X8.7452 Y1.3336
X8.7535 Y1.3717
X8.7613 Y1.4099
X8.7688 Y1.4482
X8.7758 Y1.4865
X8.7824 Y1.5249
X8.7886 Y1.5634
X8.7944 Y1.602
X8.7998 Y1.6406
X8.8048 Y1.6793
X8.8095 Y1.718
X8.8137 Y1.7567
X8.8176 Y1.7955
X8.8211 Y1.8344
X8.8242 Y1.8732
X8.8269 Y1.9121
X8.8292 Y1.9511
X8.8311 Y1.99
X8.8327 Y2.029
X8.8339 Y2.0679
X8.8347 Y2.1069
X8.8351 Y2.1459
Y2.1849
X8.8347 Y2.2239
X8.8339 Y2.2629
X8.8328 Y2.3019
X8.8312 Y2.3408
X8.8293 Y2.3798
X8.827 Y2.4187
X8.8243 Y2.4576
X8.8212 Y2.4964
X8.8177 Y2.5353
X8.8138 Y2.5741
X8.8096 Y2.6128
X8.8049 Y2.6515
X8.7999 Y2.6902
X8.7945 Y2.7288
X8.7888 Y2.7674
X8.7826 Y2.8059
X8.7761 Y2.8443
X8.7692 Y2.8827
X8.762 Y2.921
X8.7543 Y2.9593
X8.7463 Y2.9974
X8.7379 Y3.0355
X8.7292 Y3.0735
X8.72 Y3.1114
X8.7105 Y3.1492
X8.7007 Y3.1869
X8.6905 Y3.2246
X8.6799 Y3.2621
X8.6689 Y3.2995
X8.6576 Y3.3368
X8.6459 Y3.374
X8.6337 Y3.4111
X8.6212 Y3.448
X8.608 Y3.4847
X8.5941 Y3.5211
X8.5796 Y3.5545
X8.568 Y3.5762
X8.5668 Y3.5781
X8.5595 Y3.5873
X8.5506 Y3.5948
X8.5404 Y3.6004
X8.5293 Y3.6038
X8.5177 Y3.605
X8.4125
G3 X8.403 Y3.6028 I0.0009 J-0.025 F30
G1 X8.3995 Y3.6011 Z-0.1993
X8.396 Y3.5996 Z-0.1984
X8.3927 Y3.5981 Z-0.1969
X8.3897 Y3.5967 Z-0.1948
X8.3869 Y3.5954 Z-0.1923
X8.3846 Y3.5944 Z-0.1893
X8.3828 Y3.5935 Z-0.186
X8.3814 Y3.5929 Z-0.1823
X8.3806 Y3.5925 Z-0.1785
X8.3803 Y3.5924 Z-0.1746
G0 Z0.2
X8.3275 Y0.676
Z-0.1496
G1 Z-0.1746 F30
Y0.6757 Z-0.1785
X8.3277 Y0.6748 Z-0.1823
X8.328 Y0.6734 Z-0.186
X8.3283 Y0.6713 Z-0.1893
X8.3288 Y0.6688 Z-0.1923
X8.3293 Y0.6659 Z-0.1948
X8.3299 Y0.6626 Z-0.1969
X8.3305 Y0.659 Z-0.1984
X8.3312 Y0.6553 Z-0.1993
X8.3319 Y0.6514 Z-0.1996
G3 X8.3393 Y0.645 I0.0077 J0.0014
G1 X8.4456 F39.37
X8.4561 Y0.6455
X8.4667 Y0.6469
X8.478 Y0.6493
X8.4915 Y0.6534
X8.5054 Y0.6588
X8.5209 Y0.6663
X8.538 Y0.6764
X8.5565 Y0.6893
X8.5764 Y0.7059
X8.5987 Y0.7276
X8.623 Y0.7555
X8.6462 Y0.7868
X8.6672 Y0.8197
X8.6863 Y0.8537
X8.7039 Y0.8885
X8.7201 Y0.9239
X8.7353 Y0.9598
X8.7494 Y0.9962
X8.7626 Y1.0328
X8.7751 Y1.0698
X8.7869 Y1.107
X8.7981 Y1.1443
X8.8086 Y1.1818
X8.8187 Y1.2195
X8.8282 Y1.2573
X8.8372 Y1.2953
X8.8458 Y1.3333
X8.8539 Y1.3714
X8.8616 Y1.4097
X8.8689 Y1.448
X8.8758 Y1.4863
X8.8823 Y1.5248
X8.8883 Y1.5633
X8.894 Y1.6019
X8.8993 Y1.6405
X8.9042 Y1.6792
X8.9088 Y1.7179
X8.9129 Y1.7567
X8.9167 Y1.7955
X8.9201 Y1.8343
X8.9231 Y1.8732
X8.9258 Y1.9121
X8.928 Y1.951
X8.9299 Y1.99
X8.9315 Y2.0289
X8.9326 Y2.0679
X8.9334 Y2.1069
X8.9338 Y2.1459
Y2.1849
X8.9334 Y2.2239
X8.9327 Y2.2628
X8.9316 Y2.3018
X8.93 Y2.3408
X8.9282 Y2.3797
X8.9259 Y2.4187
X8.9232 Y2.4576
X8.9202 Y2.4964
X8.9168 Y2.5353
X8.9131 Y2.5741
X8.9089 Y2.6128
X8.9044 Y2.6516
X8.8995 Y2.6903
X8.8942 Y2.7289
X8.8886 Y2.7675
X8.8826 Y2.806
X8.8763 Y2.8445
X8.8695 Y2.8829
X8.8624 Y2.9212
X8.855 Y2.9595
X8.8472 Y2.9977
X8.839 Y3.0358
X8.8304 Y3.0738
X8.8215 Y3.1118
X8.8123 Y3.1497
X8.8026 Y3.1875
X8.7926 Y3.2252
X8.7823 Y3.2628
X8.7716 Y3.3002
X8.7605 Y3.3376
X8.7491 Y3.3749
X8.7372 Y3.412
X8.7249 Y3.449
X8.7119 Y3.4858
X8.6981 Y3.5223
X8.6841 Y3.5548
X8.6727 Y3.5763
X8.6716 Y3.578
X8.6644 Y3.5872
X8.6555 Y3.5947
X8.6452 Y3.6004
X8.6341 Y3.6038
X8.6224 Y3.605
X8.5177
G3 X8.5082 Y3.6028 I0.0009 J-0.025 F30
G1 X8.5046 Y3.6011 Z-0.1993
X8.5011 Y3.5996 Z-0.1984
X8.4978 Y3.5981 Z-0.1969
X8.4948 Y3.5967 Z-0.1948
X8.4921 Y3.5954 Z-0.1923
X8.4898 Y3.5944 Z-0.1893
X8.4879 Y3.5935 Z-0.186
X8.4865 Y3.5929 Z-0.1823
X8.4857 Y3.5925 Z-0.1785
X8.4854 Y3.5924 Z-0.1746
G0 Z0.2
X8.4338 Y0.676
Z-0.1496
G1 Z-0.1746 F30
X8.4339 Y0.6757 Z-0.1785
X8.434 Y0.6748 Z-0.1823
X8.4343 Y0.6734 Z-0.186
X8.4347 Y0.6713 Z-0.1893
X8.4351 Y0.6688 Z-0.1923
X8.4356 Y0.6659 Z-0.1948
X8.4362 Y0.6626 Z-0.1969
X8.4369 Y0.659 Z-0.1984
X8.4375 Y0.6553 Z-0.1993
X8.4382 Y0.6514 Z-0.1996
G3 X8.4456 Y0.645 I0.0077 J0.0014
G1 X8.552 F39.37
X8.5596 Y0.6454
X8.57 Y0.6467
X8.5814 Y0.6492
X8.5949 Y0.6532
X8.6086 Y0.6585
X8.6242 Y0.6661
X8.6411 Y0.6761
X8.6595 Y0.689
X8.6792 Y0.7054
X8.7013 Y0.7269
X8.7254 Y0.7545
X8.7486 Y0.7859
X8.7695 Y0.8188
X8.7886 Y0.8528
X8.8061 Y0.8876
X8.8223 Y0.9231
X8.8373 Y0.9591
X8.8513 Y0.9955
X8.8644 Y1.0322
X8.8767 Y1.0692
X8.8884 Y1.1064
X8.8994 Y1.1438
X8.9098 Y1.1814
X8.9196 Y1.2191
X8.929 Y1.2569
X8.9379 Y1.2949
X8.9463 Y1.333
X8.9543 Y1.3711
X8.9619 Y1.4094
X8.969 Y1.4477
X8.9757 Y1.4861
X8.9821 Y1.5246
X8.988 Y1.5631
X8.9936 Y1.6017
X8.9988 Y1.6404
X9.0036 Y1.6791
X9.008 Y1.7178
X9.0121 Y1.7566
X9.0158 Y1.7954
X9.0191 Y1.8342
X9.0221 Y1.8731
X9.0247 Y1.912
X9.0269 Y1.951
X9.0288 Y1.9899
X9.0303 Y2.0289
X9.0314 Y2.0678
X9.0321 Y2.1068
X9.0325 Y2.1458
Y2.1848
X9.0322 Y2.2238
X9.0315 Y2.2628
X9.0304 Y2.3017
X9.0289 Y2.3407
X9.0271 Y2.3797
X9.0248 Y2.4186
X9.0223 Y2.4575
X9.0193 Y2.4964
X9.016 Y2.5352
X9.0123 Y2.574
X9.0083 Y2.6128
X9.0039 Y2.6516
X8.9991 Y2.6903
X8.9939 Y2.7289
X8.9885 Y2.7675
X8.9826 Y2.8061
X8.9764 Y2.8446
X8.9698 Y2.883
X8.9629 Y2.9214
X8.9556 Y2.9597
X8.948 Y2.9979
X8.94 Y3.0361
X8.9316 Y3.0741
X8.9229 Y3.1121
X8.9139 Y3.1501
X8.9045 Y3.1879
X8.8947 Y3.2257
X8.8846 Y3.2633
X8.8741 Y3.3009
X8.8633 Y3.3383
X8.8521 Y3.3757
X8.8405 Y3.4129
X8.8284 Y3.45
X8.8156 Y3.4868
X8.802 Y3.5233
X8.7884 Y3.555
X8.7772 Y3.5763
X8.7761 Y3.5779
X8.7689 Y3.5871
X8.76 Y3.5947
X8.7497 Y3.6003
X8.7385 Y3.6038
X8.7269 Y3.605
X8.6224
G3 X8.6129 Y3.6028 I0.0009 J-0.025 F30
G1 X8.6094 Y3.6011 Z-0.1993
X8.6059 Y3.5996 Z-0.1984
X8.6026 Y3.5981 Z-0.1969
X8.5996 Y3.5967 Z-0.1948
X8.5969 Y3.5954 Z-0.1923
X8.5945 Y3.5944 Z-0.1893
X8.5927 Y3.5935 Z-0.186
X8.5913 Y3.5929 Z-0.1823
X8.5905 Y3.5925 Z-0.1785
X8.5902 Y3.5924 Z-0.1746
G0 Z0.2
X8.5401 Y0.676
Z-0.1496
G1 Z-0.1746 F30
X8.5402 Y0.6757 Z-0.1785
X8.5403 Y0.6748 Z-0.1823
X8.5406 Y0.6734 Z-0.186
X8.541 Y0.6713 Z-0.1893
X8.5414 Y0.6688 Z-0.1923
X8.5419 Y0.6659 Z-0.1948
X8.5425 Y0.6626 Z-0.1969
X8.5432 Y0.659 Z-0.1984
X8.5439 Y0.6553 Z-0.1993
X8.5445 Y0.6514 Z-0.1996
G3 X8.552 Y0.645 I0.0077 J0.0014
G1 X8.6494 F39.37
X8.6633 Y0.6457
X8.6735 Y0.647
X8.6849 Y0.6495
X8.6983 Y0.6535
X8.7118 Y0.6588
X8.7274 Y0.6663
X8.7441 Y0.6762
X8.7625 Y0.6891
X8.782 Y0.7053
X8.8039 Y0.7266
X8.8277 Y0.7539
X8.8509 Y0.7853
X8.8718 Y0.8182
X8.8909 Y0.8522
X8.9083 Y0.8871
X8.9243 Y0.9226
X8.9392 Y0.9586
X8.9531 Y0.9951
X8.9661 Y1.0319
X8.9783 Y1.0689
X8.9897 Y1.1061
X9.0006 Y1.1436
X9.0109 Y1.1812
X9.0206 Y1.219
X9.0298 Y1.2569
X9.0385 Y1.2949
X9.0468 Y1.333
X9.0547 Y1.3711
X9.0621 Y1.4094
X9.0691 Y1.4478
X9.0757 Y1.4862
X9.0819 Y1.5247
X9.0878 Y1.5633
X9.0932 Y1.6019
X9.0983 Y1.6405
X9.103 Y1.6792
X9.1046 Y1.6937
X9.1048 Y1.6959
X9.105 Y1.6981
Y1.7002
Y2.532
X9.1031 Y2.571
X9.1019 Y2.61
X9.0996 Y2.6489
X9.0962 Y2.6877
X9.0921 Y2.7265
X9.0873 Y2.7652
X9.082 Y2.8038
X9.0762 Y2.8424
X9.07 Y2.8809
X9.0634 Y2.9193
X9.0564 Y2.9577
X9.049 Y2.9959
X9.0412 Y3.0341
X9.0331 Y3.0723
X9.0247 Y3.1103
X9.0158 Y3.1483
X9.0067 Y3.1862
X8.9972 Y3.224
X8.9873 Y3.2618
X8.9771 Y3.2994
X8.9665 Y3.3369
X8.9556 Y3.3743
X8.9442 Y3.4116
X8.9323 Y3.4488
X8.9198 Y3.4857
X8.9064 Y3.5223
X8.8929 Y3.5541
X8.8818 Y3.5755
X8.8804 Y3.5777
X8.8732 Y3.587
X8.8642 Y3.5946
X8.8539 Y3.6003
X8.8427 Y3.6038
X8.831 Y3.605
X8.7269
G3 X8.7174 Y3.6028 I0.0009 J-0.025 F30
X8.7041 Y3.572 I0.0104 J-0.0227 F39.37
G1 X9.0563 Y2.5249
G3 X9.1028 Y2.5225 I0.0237 J0.008
X9.105 Y2.532 I-0.0227 J0.0104 F30
G1 Y3.0895 F39.37
X9.1031 Y3.1285
X9.1002 Y3.1673
X9.095 Y3.206
X9.0881 Y3.2444
X9.08 Y3.2825
X9.071 Y3.3205
X9.0613 Y3.3582
X9.0509 Y3.3958
X9.0398 Y3.4332
X9.028 Y3.4703
X9.0153 Y3.5072
X9.0011 Y3.5435
X8.9898 Y3.5672
X8.9848 Y3.5759
X8.9776 Y3.5858
X8.9685 Y3.5939
X8.958 Y3.6
X8.9464 Y3.6037
X8.9343 Y3.605
X8.831
G3 X8.8215 Y3.6028 I0.0009 J-0.025 F30
X8.8096 Y3.5687 I0.0104 J-0.0227 F39.37
G1 X9.0577 Y3.0791
G3 X9.1028 Y3.08 I0.0223 J0.0113
X9.105 Y3.0895 I-0.0227 J0.0104 F30
G1 Y3.4346 F39.37
X9.1031 Y3.4736
X9.0999 Y3.5006
X9.0949 Y3.5255
X9.0886 Y3.5474
X9.0822 Y3.5647
X9.079 Y3.5714
X9.0721 Y3.5827
X9.0629 Y3.592
X9.0517 Y3.5991
X9.0393 Y3.6035
X9.0262 Y3.605
G3 X9.0167 Y3.6028 I0.0009 J-0.025 F30
X9.0036 Y3.5714 I0.0104 J-0.0227 F39.37
G1 X9.0565 Y3.4269
G3 X9.1028 Y3.4251 I0.0235 J0.0086
X9.105 Y3.4346 I-0.0227 J0.0104 F30
G1 Y3.5762 F39.37
Y3.5806
X9.1048 Y3.5828
X9.1044 Y3.585
X9.1032 Y3.5888
X9.1013 Y3.5926
X9.1005 Y3.5939
X9.0987 Y3.5962
X9.0965 Y3.5984
X9.0944 Y3.6001
X9.0924 Y3.6014
X9.09 Y3.6027
X9.0868 Y3.6039
X9.0836 Y3.6047
X9.0747 Y3.605
X8.9343
G3 X8.9248 Y3.6028 I0.0009 J-0.025 F30
G1 X8.9213 Y3.6011 Z-0.1993
X8.9178 Y3.5996 Z-0.1984
X8.9145 Y3.5981 Z-0.1969
X8.9114 Y3.5967 Z-0.1948
X8.9087 Y3.5954 Z-0.1923
X8.9064 Y3.5944 Z-0.1893
X8.9045 Y3.5935 Z-0.186
X8.9032 Y3.5929 Z-0.1823
X8.9023 Y3.5925 Z-0.1785
X8.9021 Y3.5924 Z-0.1746
G0 Z0.2
X8.6376 Y0.676
Z-0.1496
G1 Z-0.1746 F30
Y0.6757 Z-0.1785
X8.6378 Y0.6748 Z-0.1823
X8.6381 Y0.6734 Z-0.186
X8.6384 Y0.6713 Z-0.1893
X8.6389 Y0.6688 Z-0.1923
X8.6394 Y0.6659 Z-0.1948
X8.64 Y0.6626 Z-0.1969
X8.6406 Y0.659 Z-0.1984
X8.6413 Y0.6553 Z-0.1993
X8.642 Y0.6514 Z-0.1996
G3 X8.6494 Y0.645 I0.0077 J0.0014
G1 X8.7557 F39.37
X8.766 Y0.6455
X8.7762 Y0.6469
X8.7876 Y0.6493
X8.801 Y0.6533
X8.8145 Y0.6585
X8.83 Y0.6661
X8.8467 Y0.6759
X8.865 Y0.6887
X8.8844 Y0.7049
X8.9061 Y0.7261
X8.9298 Y0.7532
X8.9529 Y0.7845
X8.9738 Y0.8174
X8.9928 Y0.8515
X9.0102 Y0.8864
X9.0261 Y0.922
X9.0409 Y0.9581
X9.0547 Y0.9945
X9.0675 Y1.0313
X9.0796 Y1.0684
X9.091 Y1.1057
X9.1017 Y1.1432
X9.103 Y1.1481
X9.1041 Y1.1531
X9.1048 Y1.1582
X9.105 Y1.1633
Y1.7002
G3 X9.1028 Y1.7097 I-0.025 J-0.0009 F30
X9.0562 Y1.7069 I-0.0227 J-0.0104 F39.37
G1 X8.7328 Y0.6775
G3 X8.7462 Y0.6472 I0.0239 J-0.0075
X8.7557 Y0.645 I0.0104 J0.0227 F30
G1 X8.8621 F39.37
X8.8686 Y0.6453
X8.8787 Y0.6467
X8.8901 Y0.6491
X8.9035 Y0.6531
X8.9169 Y0.6583
X8.9325 Y0.6659
X8.949 Y0.6756
X8.9672 Y0.6884
X8.9866 Y0.7044
X9.0081 Y0.7255
X9.0316 Y0.7524
X9.0548 Y0.7837
X9.0757 Y0.8167
X9.0946 Y0.8508
X9.099 Y0.8596
X9.1023 Y0.8679
X9.1043 Y0.8766
X9.105 Y0.8855
Y1.1633
G3 X9.1028 Y1.1728 I-0.025 J-0.0009 F30
X9.0571 Y1.1725 I-0.0227 J-0.0104 F39.37
G1 X8.8401 Y0.6801
G3 X8.8526 Y0.6472 I0.0229 J-0.0101
X8.8621 Y0.645 I0.0104 J0.0227 F30
G1 X8.9595 F39.37
X8.9714 Y0.6456
X8.9815 Y0.6469
X8.9928 Y0.6493
X9.0061 Y0.6533
X9.0194 Y0.6585
X9.035 Y0.6661
X9.0514 Y0.6757
X9.0696 Y0.6885
X9.0839 Y0.7004
X9.0928 Y0.7096
X9.0995 Y0.7205
X9.1036 Y0.7326
X9.105 Y0.7453
G3 X9.1028 Y0.7548 I-0.025 J-0.0009 F30
X9.0668 Y0.7656 I-0.0227 J-0.0104 F39.37
G1 X8.9472 Y0.6912
G3 X8.95 Y0.6472 I0.0132 J-0.0212
X8.9595 Y0.645 I0.0104 J0.0227 F30
G1 X9.0619 F39.37
X9.0695 Y0.6454
X9.079 Y0.6478
X9.0876 Y0.6524
X9.0949 Y0.6589
X9.1004 Y0.667
X9.1038 Y0.6761
X9.105 Y0.6858
G3 X9.1028 Y0.6953 I-0.025 J-0.0009 F30
X9.0637 Y0.7038 I-0.0227 J-0.0104 F39.37
G1 X9.0464 Y0.6889
G3 X9.0524 Y0.6472 I0.0163 J-0.0189
X9.0619 Y0.645 I0.0104 J0.0227 F30
G1 X9.0747 F39.37
X9.0836 Y0.6453
X9.0868 Y0.6461
X9.09 Y0.6473
X9.0924 Y0.6486
X9.0944 Y0.6499
X9.0965 Y0.6516
X9.0987 Y0.6538
X9.1005 Y0.6561
X9.1013 Y0.6574
X9.1032 Y0.6612
X9.1044 Y0.665
X9.1048 Y0.6672
X9.105 Y0.6694
Y0.7004
Y0.8855
G3 X9.1028 Y0.895 I-0.025 J-0.0009 F30
G1 X9.1011 Y0.8985 Z-0.1993
X9.0996 Y0.902 Z-0.1984
X9.0981 Y0.9053 Z-0.1969
X9.0967 Y0.9083 Z-0.1948
X9.0954 Y0.9111 Z-0.1923
X9.0944 Y0.9134 Z-0.1893
X9.0935 Y0.9152 Z-0.186
X9.0929 Y0.9166 Z-0.1823
X9.0925 Y0.9174 Z-0.1785
X9.0924 Y0.9177 Z-0.1746
G0 Z0.2
X4.4704 Y3.574
Z-0.1496
G1 Z-0.1746 F30
X4.4703 Y3.5743 Z-0.1785
X4.4702 Y3.5752 Z-0.1823
X4.4699 Y3.5766 Z-0.186
X4.4696 Y3.5787 Z-0.1893
X4.4691 Y3.5812 Z-0.1923
X4.4686 Y3.5841 Z-0.1948
X4.468 Y3.5874 Z-0.1969
X4.4674 Y3.591 Z-0.1984
X4.4667 Y3.5947 Z-0.1993
X4.466 Y3.5986 Z-0.1996
G3 X4.4586 Y3.605 I-0.0077 J-0.0014
G1 X4.2193 F39.37
X4.1879 Y3.6034
X4.1636 Y3.6002
X4.1339 Y3.5939
X4.0976 Y3.583
X4.0613 Y3.5689
X4.0259 Y3.5524
X3.9914 Y3.5343
X3.9577 Y3.5147
X3.9247 Y3.4939
X3.8924 Y3.472
X3.8608 Y3.4492
X3.8298 Y3.4256
X3.7994 Y3.4012
X3.7696 Y3.376
X3.7405 Y3.35
X3.712 Y3.3234
X3.6842 Y3.2961
X3.657 Y3.2681
X3.6305 Y3.2395
X3.6047 Y3.2103
X3.5796 Y3.1805
X3.5552 Y3.1501
X3.5315 Y3.1192
X3.5085 Y3.0876
X3.4863 Y3.0556
X3.4648 Y3.023
X3.4441 Y2.99
X3.4242 Y2.9565
X3.4051 Y2.9225
X3.3868 Y2.888
X3.3693 Y2.8532
X3.3527 Y2.8179
X3.3368 Y2.7823
X3.3218 Y2.7463
X3.3077 Y2.71
X3.2944 Y2.6733
X3.2819 Y2.6364
X3.2703 Y2.5992
X3.2596 Y2.5617
X3.2498 Y2.524
X3.2408 Y2.486
X3.2327 Y2.4479
