%
(TeaBoxBottom)
(T1  D=0.25 CR=0 - ZMIN=-1.33 - flat end mill)
G90
G17
G20
G28 G91 Z0
G90

(Face1)
M9
T1 M6
S1600 M3
G54
M9
G0 X13.0375 Y0.1136
Z0.6
Z0.2
G1 Z-0.055 F30
G18 G3 X13.0125 Z-0.08 I-0.025 K0
G1 X12.875
X0.125 F39.37
G17 G2 Y0.3498 I0 J0.1181
G1 X12.875
G3 Y0.586 I0 J0.1181
G1 X0.125
G2 Y0.8222 I0 J0.1181
G1 X0.625
G3 Y1.0583 I0 J0.1181
G1 X0.125
G2 Y1.2945 I0 J0.1181
G1 X0.625
G3 Y1.5307 I0 J0.1181
G1 X0.125
G2 Y1.7669 I0 J0.1181
G1 X0.625
G3 Y2.0031 I0 J0.1181
G1 X0.125
G2 Y2.2393 I0 J0.1181
G1 X0.625
G3 Y2.4755 I0 J0.1181
G1 X0.125
G2 Y2.7117 I0 J0.1181
G1 X0.625
G3 Y2.9479 I0 J0.1181
G1 X0.125
G2 Y3.1841 I0 J0.1181
G1 X0.625
G3 Y3.4203 I0 J0.1181
G1 X0.125
G18 G3 X0.1 Z-0.055 I0 K0.025 F30
G0 Z0.2
X3.2125 Y0.8222
G1 Z-0.055 F30
G2 X3.2375 Z-0.08 I0.025 K0
G1 X3.375
X3.625 F39.37
G17 G3 Y1.0583 I0 J0.1181
G1 X3.375
G2 Y1.2945 I0 J0.1181
G1 X3.625
G3 Y1.5307 I0 J0.1181
G1 X3.375
G2 Y1.7669 I0 J0.1181
G1 X3.625
G3 Y2.0031 I0 J0.1181
G1 X3.375
G2 Y2.2393 I0 J0.1181
G1 X3.625
G3 Y2.4755 I0 J0.1181
G1 X3.375
G2 Y2.7117 I0 J0.1181
G1 X3.625
G3 Y2.9479 I0 J0.1181
G1 X3.375
G2 Y3.1841 I0 J0.1181
G1 X3.625
G3 Y3.4203 I0 J0.1181
G1 X3.375
G18 G3 X3.35 Z-0.055 I0 K0.025 F30
G0 Z0.2
X6.2125 Y0.8222
G1 Z-0.055 F30
G2 X6.2375 Z-0.08 I0.025 K0
G1 X6.375
X6.625 F39.37
G17 G3 Y1.0583 I0 J0.1181
G1 X6.375
G2 Y1.2945 I0 J0.1181
G1 X6.625
G3 Y1.5307 I0 J0.1181
G1 X6.375
G2 Y1.7669 I0 J0.1181
G1 X6.625
G3 Y2.0031 I0 J0.1181
G1 X6.375
G2 Y2.2393 I0 J0.1181
G1 X6.625
G3 Y2.4755 I0 J0.1181
G1 X6.375
G2 Y2.7117 I0 J0.1181
G1 X6.625
G3 Y2.9479 I0 J0.1181
G1 X6.375
G2 Y3.1841 I0 J0.1181
G1 X6.625
G3 Y3.4203 I0 J0.1181
G1 X6.375
G18 G3 X6.35 Z-0.055 I0 K0.025 F30
G0 Z0.2
X9.2125 Y0.8222
G1 Z-0.055 F30
G2 X9.2375 Z-0.08 I0.025 K0
G1 X9.375
X9.625 F39.37
G17 G3 Y1.0583 I0 J0.1181
G1 X9.375
G2 Y1.2945 I0 J0.1181
G1 X9.625
G3 Y1.5307 I0 J0.1181
G1 X9.375
G2 Y1.7669 I0 J0.1181
G1 X9.625
G3 Y2.0031 I0 J0.1181
G1 X9.375
G2 Y2.2393 I0 J0.1181
G1 X9.625
G3 Y2.4755 I0 J0.1181
G1 X9.375
G2 Y2.7117 I0 J0.1181
G1 X9.625
G3 Y2.9479 I0 J0.1181
G1 X9.375
G2 Y3.1841 I0 J0.1181
G1 X9.625
G3 Y3.4203 I0 J0.1181
G1 X9.375
G18 G3 X9.35 Z-0.055 I0 K0.025 F30
G0 Z0.2
X12.2125 Y0.8222
G1 Z-0.055 F30
G2 X12.2375 Z-0.08 I0.025 K0
G1 X12.375
X12.875 F39.37
G17 G3 Y1.0583 I0 J0.1181
G1 X12.375
G2 Y1.2945 I0 J0.1181
G1 X12.875
G3 Y1.5307 I0 J0.1181
G1 X12.375
G2 Y1.7669 I0 J0.1181
G1 X12.875
G3 Y2.0031 I0 J0.1181
G1 X12.375
G2 Y2.2393 I0 J0.1181
G1 X12.875
G3 Y2.4755 I0 J0.1181
G1 X12.375
G2 Y2.7117 I0 J0.1181
G1 X12.875
G3 Y2.9479 I0 J0.1181
G1 X12.375
G2 Y3.1841 I0 J0.1181
G1 X12.875
G3 Y3.4203 I0 J0.1181
G1 X12.375
G18 G3 X12.35 Z-0.055 I0 K0.025 F30
G0 Z0.2
X13.0375 Y3.6565
G1 Z-0.055 F30
G3 X13.0125 Z-0.08 I-0.025 K0
G1 X12.875
X0.125 F39.37
G17 G2 Y3.8927 I0 J0.1181
G1 X12.875
G3 Y4.1289 I0 J0.1181
G1 X0.125
G18 G3 X0.1 Z-0.055 I0 K0.025 F30
G0 Z0.6
G17

(2D Adaptive1)
M9
G0 X1.8813 Y2.3719
Z0.6
Z0.2
Z0.125
G1 Z0.1 F30
G3 X2.1187 Y2.3736 Z0.087 I0.1187 J0.0009 F13.12
X1.8813 Y2.3719 Z0.0739 I-0.1187 J-0.0009
X2.1187 Y2.3736 Z0.0609 I0.1187 J0.0009
X1.8813 Y2.3719 Z0.0479 I-0.1187 J-0.0009
X2.1187 Y2.3736 Z0.0349 I0.1187 J0.0009
X1.8813 Y2.3719 Z0.0218 I-0.1187 J-0.0009
X2.1187 Y2.3736 Z0.0088 I0.1187 J0.0009
X1.8813 Y2.3719 Z-0.0042 I-0.1187 J-0.0009
X2.1187 Y2.3736 Z-0.0172 I0.1187 J0.0009
X1.8813 Y2.3719 Z-0.0303 I-0.1187 J-0.0009
X2.1187 Y2.3736 Z-0.0433 I0.1187 J0.0009
X1.8813 Y2.3719 Z-0.0563 I-0.1187 J-0.0009
X2.1187 Y2.3736 Z-0.0694 I0.1187 J0.0009
X1.8813 Y2.3719 Z-0.0824 I-0.1187 J-0.0009
X2.1187 Y2.3736 Z-0.0954 I0.1187 J0.0009
X1.8813 Y2.3719 Z-0.1084 I-0.1187 J-0.0009
X2.1187 Y2.3736 Z-0.1215 I0.1187 J0.0009
X1.8813 Y2.3719 Z-0.1345 I-0.1187 J-0.0009
X2.1187 Y2.3736 Z-0.1475 I0.1187 J0.0009
X1.8813 Y2.3719 Z-0.1606 I-0.1187 J-0.0009
X2.1187 Y2.3736 Z-0.1736 I0.1187 J0.0009
X1.8813 Y2.3719 Z-0.1866 I-0.1187 J-0.0009
X2.1187 Y2.3728 Z-0.1996 I0.1187 J0.0009
X1.8812 I-0.1188 J0
X2.1187 I0.1188 J0
G1 X2.1189 Y2.3825 F39.37
X2.126 Y2.4208
X2.1275 Y2.4255
X2.1287 Y2.4314
X2.1294 Y2.4373
X2.1295 Y2.4433
X2.1291 Y2.4498
X2.1281 Y2.4566
X2.1265 Y2.4637
X2.1242 Y2.4712
X2.1212 Y2.4789
X2.1173 Y2.4867
X2.1126 Y2.4945
X2.107 Y2.5023
X2.1005 Y2.51
X2.0932 Y2.5173
X2.0849 Y2.5244
X2.0759 Y2.5309
X2.066 Y2.5369
X2.0554 Y2.5423
X2.0441 Y2.5469
X2.0322 Y2.5507
X2.0197 Y2.5535
X2.0068 Y2.5554
X1.9936 Y2.5563
X1.9801 Y2.5561
X1.9665 Y2.5548
X1.9528 Y2.5523
X1.9393 Y2.5488
X1.9259 Y2.5441
X1.9128 Y2.5383
X1.9001 Y2.5314
X1.888 Y2.5235
X1.8764 Y2.5146
X1.8656 Y2.5047
X1.8555 Y2.4939
X1.8463 Y2.4823
X1.838 Y2.47
X1.8307 Y2.457
X1.8244 Y2.4434
X1.8193 Y2.4293
X1.8153 Y2.4148
X1.8124 Y2.4
X1.8108 Y2.385
X1.8103 Y2.3699
X1.8111 Y2.3547
X1.8131 Y2.3397
X1.8163 Y2.3249
X1.8207 Y2.3103
X1.8262 Y2.2962
X1.8329 Y2.2825
X1.8406 Y2.2694
X1.8494 Y2.257
X1.8591 Y2.2453
X1.8697 Y2.2344
X1.8812 Y2.2244
X1.8935 Y2.2153
X1.9065 Y2.2073
X1.92 Y2.2003
X1.9341 Y2.1945
X1.9486 Y2.1897
X1.9635 Y2.1862
X1.9785 Y2.1839
X1.9938 Y2.1827
X2.009 Y2.1829
X2.0242 Y2.1842
X2.0393 Y2.1867
X2.0541 Y2.1905
X2.0685 Y2.1954
X2.0825 Y2.2015
X2.096 Y2.2086
X2.1089 Y2.2169
X2.121 Y2.2261
X2.1324 Y2.2363
X2.1429 Y2.2474
X2.1525 Y2.2592
X2.1612 Y2.2719
X2.1738 Y2.294
X2.1877 Y2.3236
X2.1962 Y2.3462
X2.202 Y2.3665
X2.2058 Y2.3852
X2.2079 Y2.4033
X2.2085 Y2.4208
X2.2078 Y2.4378
X2.2058 Y2.4543
X2.2024 Y2.4705
X2.1978 Y2.4863
X2.1919 Y2.5016
X2.1848 Y2.5166
X2.1765 Y2.531
X2.1669 Y2.5447
X2.1562 Y2.5579
X2.1443 Y2.5702
X2.1314 Y2.5817
X2.1173 Y2.5922
X2.1023 Y2.6017
X2.0863 Y2.6101
X2.0694 Y2.6173
X2.0518 Y2.6232
X2.0336 Y2.6277
X2.0148 Y2.6308
X1.9956 Y2.6323
X1.9762 Y2.6324
X1.9566 Y2.6308
X1.937 Y2.6276
X1.9176 Y2.6229
X1.8985 Y2.6166
X1.8798 Y2.6087
X1.8617 Y2.5992
X1.8443 Y2.5883
X1.8278 Y2.5759
X1.8122 Y2.5622
X1.7977 Y2.5472
X1.7844 Y2.531
X1.7724 Y2.5138
X1.7618 Y2.4955
X1.7526 Y2.4765
X1.745 Y2.4567
X1.739 Y2.4362
X1.7346 Y2.4154
X1.7319 Y2.3942
X1.731 Y2.3728
X1.7317 Y2.3514
X1.7342 Y2.33
X1.7383 Y2.3089
X1.7442 Y2.2882
X1.7517 Y2.2681
X1.7608 Y2.2485
X1.7715 Y2.2298
X1.7836 Y2.2119
X1.7972 Y2.1951
X1.812 Y2.1794
X1.8281 Y2.165
X1.8453 Y2.1518
X1.8635 Y2.1401
X1.8825 Y2.1299
X1.9024 Y2.1213
X1.9229 Y2.1142
X1.9438 Y2.1089
X1.9652 Y2.1052
X1.9867 Y2.1033
X2.0084 Y2.1031
X2.03 Y2.1046
X2.0514 Y2.1079
X2.0725 Y2.1128
X2.0931 Y2.1195
X2.1131 Y2.1278
X2.1324 Y2.1376
X2.1509 Y2.149
X2.1683 Y2.1619
X2.1862 Y2.1774
X2.2048 Y2.1962
X2.2221 Y2.2169
X2.2382 Y2.2396
X2.2523 Y2.2635
X2.2643 Y2.2879
X2.274 Y2.3126
X2.2815 Y2.3374
X2.2869 Y2.3621
X2.2902 Y2.3867
X2.2916 Y2.4111
X2.2909 Y2.4353
X2.2883 Y2.4592
X2.2839 Y2.4826
X2.2776 Y2.5055
X2.2695 Y2.5278
X2.2597 Y2.5493
X2.2482 Y2.57
X2.2349 Y2.5898
X2.2201 Y2.6086
X2.2037 Y2.6262
X2.1858 Y2.6425
X2.1666 Y2.6575
X2.146 Y2.671
X2.1242 Y2.6828
X2.1014 Y2.693
X2.0776 Y2.7014
X2.053 Y2.7079
X2.0278 Y2.7125
X2.0021 Y2.715
X1.9761 Y2.7154
X1.95 Y2.7138
X1.9239 Y2.71
X1.898 Y2.7042
X1.8725 Y2.6962
X1.8476 Y2.6861
X1.8235 Y2.674
X1.8003 Y2.66
X1.7782 Y2.644
X1.7573 Y2.6263
X1.7379 Y2.6068
X1.72 Y2.5858
X1.7038 Y2.5633
X1.6894 Y2.5395
X1.677 Y2.5146
X1.6665 Y2.4887
X1.6582 Y2.462
X1.652 Y2.4346
X1.648 Y2.4068
X1.6462 Y2.3786
X1.6468 Y2.3504
X1.6495 Y2.3223
X1.6546 Y2.2945
X1.6618 Y2.2672
X1.6713 Y2.2405
X1.6828 Y2.2146
X1.6965 Y2.1897
X1.712 Y2.166
X1.7295 Y2.1436
X1.7487 Y2.1226
X1.7695 Y2.1033
X1.7918 Y2.0856
X1.8155 Y2.0698
X1.8403 Y2.056
X1.8662 Y2.0442
X1.893 Y2.0345
X1.9204 Y2.027
X1.9484 Y2.0217
X1.9767 Y2.0187
X2.0052 Y2.018
X2.0336 Y2.0195
X2.0619 Y2.0234
X2.0897 Y2.0294
X2.117 Y2.0377
X2.1435 Y2.0482
X2.1695 Y2.061
X2.1953 Y2.0763
X2.2205 Y2.0942
X2.245 Y2.1147
X2.2682 Y2.1375
X2.2898 Y2.1625
X2.3093 Y2.1892
X2.3267 Y2.2173
X2.3416 Y2.2466
X2.3541 Y2.2768
X2.364 Y2.3076
X2.3713 Y2.3388
X2.3761 Y2.3703
X2.3783 Y2.4017
X2.378 Y2.4331
X2.3752 Y2.4642
X2.3699 Y2.4948
X2.3622 Y2.5247
X2.3521 Y2.554
X2.3398 Y2.5823
X2.3251 Y2.6095
X2.3084 Y2.6355
X2.2895 Y2.6602
X2.2686 Y2.6834
X2.2459 Y2.7049
X2.2214 Y2.7246
X2.1952 Y2.7423
X2.1675 Y2.758
X2.1385 Y2.7716
X2.1083 Y2.7828
X2.0771 Y2.7916
X2.0451 Y2.7979
X2.0126 Y2.8016
X1.9796 Y2.8027
X1.9465 Y2.8012
X1.9135 Y2.797
X1.8807 Y2.7901
X1.8484 Y2.7806
X1.8168 Y2.7684
X1.7862 Y2.7537
X1.7568 Y2.7365
X1.7287 Y2.7169
X1.7021 Y2.6951
X1.6773 Y2.6711
X1.6545 Y2.6451
X1.6338 Y2.6173
X1.6153 Y2.5878
X1.5991 Y2.5568
X1.5855 Y2.5246
X1.5745 Y2.4914
X1.5662 Y2.4573
X1.5607 Y2.4225
X1.5579 Y2.3874
X1.558 Y2.3522
X1.5609 Y2.317
X1.5666 Y2.2821
X1.5751 Y2.2477
X1.5864 Y2.2142
X1.6003 Y2.1816
X1.6168 Y2.1502
X1.6358 Y2.1202
X1.6571 Y2.0918
X1.6807 Y2.0652
X1.7063 Y2.0406
X1.7338 Y2.0181
X1.7631 Y1.9979
X1.7939 Y1.9801
X1.826 Y1.9648
X1.8593 Y1.9521
X1.8934 Y1.9422
X1.9283 Y1.935
X1.9636 Y1.9307
X1.9992 Y1.9292
X2.0348 Y1.9305
X2.0702 Y1.9347
X2.1052 Y1.9418
X2.1397 Y1.9517
X2.1737 Y1.9644
X2.2071 Y1.9801
X2.2395 Y1.9987
X2.271 Y2.0203
X2.3011 Y2.0447
X2.3293 Y2.0716
X2.3553 Y2.1006
X2.379 Y2.1316
X2.4001 Y2.1644
X2.4186 Y2.1988
X2.4343 Y2.2344
X2.4471 Y2.2713
X2.457 Y2.309
X2.4638 Y2.3474
X2.4675 Y2.386
X2.4681 Y2.4246
X2.4656 Y2.463
X2.4601 Y2.501
X2.4515 Y2.5383
X2.44 Y2.5748
X2.4256 Y2.6102
X2.4084 Y2.6443
X2.3885 Y2.677
X2.366 Y2.7081
X2.341 Y2.7373
X2.3137 Y2.7645
X2.2842 Y2.7895
X2.2526 Y2.8121
X2.2192 Y2.8322
X2.1843 Y2.8496
X2.1481 Y2.8641
X2.1109 Y2.8757
X2.0728 Y2.8844
X2.0343 Y2.89
X1.9954 Y2.8926
X1.9564 Y2.8921
X1.9175 Y2.8886
X1.8791 Y2.8822
X1.8412 Y2.8728
X1.8042 Y2.8606
X1.7682 Y2.8455
X1.7335 Y2.8278
X1.7002 Y2.8076
X1.6685 Y2.7849
X1.6386 Y2.7598
X1.6108 Y2.7325
X1.585 Y2.7032
X1.5616 Y2.6721
X1.5405 Y2.6393
X1.5219 Y2.605
X1.5059 Y2.5695
X1.4926 Y2.5328
X1.482 Y2.4953
X1.4742 Y2.4571
X1.4691 Y2.4184
X1.467 Y2.3795
X1.4677 Y2.3405
X1.4713 Y2.3017
X1.4778 Y2.2632
X1.4871 Y2.2254
X1.4992 Y2.1883
X1.514 Y2.1522
X1.5313 Y2.1173
X1.5512 Y2.0838
X1.5734 Y2.0517
X1.5979 Y2.0214
X1.6246 Y1.9929
X1.6532 Y1.9665
X1.6837 Y1.9422
X1.7159 Y1.9202
X1.7497 Y1.9007
X1.7848 Y1.8838
X1.8211 Y1.8694
X1.8583 Y1.8577
X1.8962 Y1.8487
X1.9347 Y1.8425
X1.9735 Y1.8391
X2.0125 Y1.8386
X2.0515 Y1.8408
X2.0901 Y1.8459
X2.1283 Y1.8539
X2.1658 Y1.8646
X2.2024 Y1.878
X2.238 Y1.894
X2.2723 Y1.9124
X2.3054 Y1.933
X2.337 Y1.9559
X2.3668 Y1.981
X2.3949 Y2.008
X2.4211 Y2.0369
X2.4453 Y2.0675
X2.4675 Y2.0996
X2.4875 Y2.133
X2.5052 Y2.1678
X2.5205 Y2.2036
X2.5333 Y2.2405
X2.5436 Y2.2781
X2.5514 Y2.3163
X2.5567 Y2.3549
X2.5594 Y2.3938
X2.5593 Y2.4328
X2.5565 Y2.4717
X2.5511 Y2.5103
X2.5431 Y2.5484
X2.5325 Y2.586
X2.5194 Y2.6227
X2.5038 Y2.6585
X2.4858 Y2.693
X2.4654 Y2.7262
X2.4427 Y2.758
X2.418 Y2.7881
X2.3913 Y2.8165
X2.3627 Y2.8431
X2.3324 Y2.8676
X2.3005 Y2.89
X2.2671 Y2.9101
X2.2324 Y2.9279
X2.1966 Y2.9434
X2.1599 Y2.9566
X2.1224 Y2.9672
X2.0843 Y2.9753
X2.0457 Y2.9808
X2.0068 Y2.9837
X1.9678 Y2.9841
X1.9289 Y2.9819
X1.8901 Y2.9773
X1.8518 Y2.9701
X1.8141 Y2.9604
X1.777 Y2.9482
X1.7408 Y2.9337
X1.7056 Y2.9169
X1.6716 Y2.898
X1.6388 Y2.8769
X1.6075 Y2.8536
X1.5777 Y2.8284
X1.5497 Y2.8013
X1.5234 Y2.7725
X1.499 Y2.7421
X1.4765 Y2.7103
X1.4561 Y2.677
X1.4379 Y2.6425
X1.422 Y2.607
X1.4083 Y2.5705
X1.3969 Y2.5332
X1.3878 Y2.4952
X1.3811 Y2.4568
X1.3768 Y2.4181
X1.375 Y2.3791
X1.3757 Y2.3402
X1.3789 Y2.3013
X1.3844 Y2.2627
X1.3924 Y2.2245
X1.4026 Y2.1869
X1.4153 Y2.15
X1.4303 Y2.114
X1.4475 Y2.0791
X1.4669 Y2.0452
X1.4882 Y2.0126
X1.5116 Y1.9814
X1.5368 Y1.9516
X1.5638 Y1.9235
X1.5926 Y1.8972
X1.623 Y1.8728
X1.6549 Y1.8503
X1.688 Y1.8298
X1.7224 Y1.8114
X1.7578 Y1.7952
X1.7943 Y1.7813
X1.8315 Y1.7696
X1.8694 Y1.7604
X1.9077 Y1.7534
X1.9464 Y1.7488
X1.9854 Y1.7466
X2.0244 Y1.7468
X2.0633 Y1.7495
X2.1019 Y1.7547
X2.1402 Y1.7622
X2.1779 Y1.7721
X2.2149 Y1.7842
X2.2512 Y1.7986
X2.2865 Y1.8151
X2.3208 Y1.8337
X2.3538 Y1.8544
X2.3856 Y1.877
X2.416 Y1.9014
X2.4449 Y1.9276
X2.4723 Y1.9553
X2.498 Y1.9846
X2.522 Y2.0154
X2.5441 Y2.0475
X2.5643 Y2.0809
X2.5825 Y2.1153
X2.5988 Y2.1508
X2.6129 Y2.1871
X2.6251 Y2.2241
X2.6349 Y2.2619
X2.6426 Y2.3001
X2.648 Y2.3387
X2.6511 Y2.3776
X2.652 Y2.4165
X2.6506 Y2.4555
X2.647 Y2.4943
X2.641 Y2.5329
X2.6328 Y2.571
X2.6223 Y2.6085
X2.6097 Y2.6454
X2.5949 Y2.6815
X2.578 Y2.7166
X2.5591 Y2.7507
X2.5382 Y2.7836
X2.5153 Y2.8152
X2.4906 Y2.8454
X2.4643 Y2.8741
X2.4362 Y2.9013
X2.4067 Y2.9267
X2.3758 Y2.9504
X2.3434 Y2.9723
X2.3099 Y2.9921
X2.2752 Y3.01
X2.2396 Y3.0259
X2.2032 Y3.0396
X2.166 Y3.0513
X2.1282 Y3.0609
X2.0899 Y3.0682
X2.0512 Y3.0733
X2.0123 Y3.0762
X1.9733 Y3.0768
X1.9344 Y3.0753
X1.8956 Y3.0715
X1.857 Y3.0656
X1.8189 Y3.0576
X1.7812 Y3.0474
X1.7443 Y3.035
X1.708 Y3.0206
X1.6727 Y3.0042
X1.6382 Y2.9859
X1.6049 Y2.9657
X1.5727 Y2.9437
X1.5418 Y2.9199
X1.5123 Y2.8944
X1.4843 Y2.8673
X1.4578 Y2.8386
X1.433 Y2.8086
X1.4098 Y2.7772
X1.3884 Y2.7447
X1.3688 Y2.711
X1.351 Y2.6762
X1.3353 Y2.6406
X1.3216 Y2.6041
X1.3098 Y2.5669
X1.3001 Y2.5291
X1.2924 Y2.4909
X1.2868 Y2.4523
X1.2833 Y2.4135
X1.282 Y2.3745
X1.2829 Y2.3355
X1.2859 Y2.2967
X1.291 Y2.258
X1.2982 Y2.2197
X1.3074 Y2.1818
X1.3187 Y2.1445
X1.332 Y2.1078
X1.3473 Y2.072
X1.3645 Y2.037
X1.3837 Y2.003
X1.4046 Y1.9701
X1.4272 Y1.9384
X1.4516 Y1.9079
X1.4775 Y1.8788
X1.505 Y1.8511
X1.534 Y1.8251
X1.5643 Y1.8006
X1.596 Y1.7779
X1.6288 Y1.7568
X1.6627 Y1.7376
X1.6976 Y1.7202
X1.7334 Y1.7047
X1.77 Y1.6913
X1.8073 Y1.6798
X1.8451 Y1.6704
X1.8834 Y1.6631
X1.9221 Y1.6578
X1.9609 Y1.6546
X1.9999 Y1.6534
X2.0389 Y1.6544
X2.0777 Y1.6575
X2.1164 Y1.6628
X2.1547 Y1.6702
X2.1925 Y1.6795
X2.2298 Y1.6909
X2.2664 Y1.7042
X2.3024 Y1.7194
X2.3374 Y1.7365
X2.3715 Y1.7554
X2.4045 Y1.7761
X2.4364 Y1.7986
X2.4671 Y1.8226
X2.4966 Y1.8481
X2.5247 Y1.8752
X2.5514 Y1.9036
X2.5766 Y1.9333
X2.6003 Y1.9643
X2.6223 Y1.9965
X2.6426 Y2.0297
X2.6612 Y2.064
X2.6781 Y2.0992
X2.6932 Y2.1351
X2.7065 Y2.1718
X2.7179 Y2.209
X2.7273 Y2.2469
X2.7348 Y2.2851
X2.7403 Y2.3238
X2.7438 Y2.3626
X2.7453 Y2.4015
X2.7448 Y2.4405
X2.7424 Y2.4794
X2.738 Y2.5182
X2.7315 Y2.5566
X2.7231 Y2.5947
X2.7127 Y2.6323
X2.7003 Y2.6693
X2.6861 Y2.7056
X2.67 Y2.7411
X2.6522 Y2.7758
X2.6326 Y2.8095
X2.6112 Y2.8421
X2.5882 Y2.8736
X2.5636 Y2.9038
X2.5374 Y2.9327
X2.5098 Y2.9602
X2.4809 Y2.9864
X2.4506 Y3.011
X2.4192 Y3.034
X2.3866 Y3.0554
X2.3529 Y3.0751
X2.3183 Y3.093
X2.2827 Y3.1091
X2.2465 Y3.1234
X2.2095 Y3.1358
X2.172 Y3.1464
X2.134 Y3.1551
X2.0956 Y3.1619
X2.0569 Y3.1667
X2.018 Y3.1695
X1.979 Y3.1704
X1.9401 Y3.1693
X1.9012 Y3.1663
X1.8625 Y3.1614
X1.8241 Y3.1545
X1.7861 Y3.1459
X1.7486 Y3.1353
X1.7116 Y3.1228
X1.6754 Y3.1084
X1.6399 Y3.0924
X1.6052 Y3.0746
X1.5714 Y3.0551
X1.5386 Y3.034
X1.5068 Y3.0114
X1.4763 Y2.9872
X1.4469 Y2.9615
X1.4189 Y2.9343
X1.3923 Y2.9059
X1.3671 Y2.8761
X1.3433 Y2.8452
X1.3211 Y2.8132
X1.3004 Y2.7802
X1.2813 Y2.7462
X1.2639 Y2.7112
X1.2483 Y2.6755
X1.2345 Y2.6391
X1.2224 Y2.602
X1.2121 Y2.5644
X1.2037 Y2.5263
X1.197 Y2.4879
X1.1922 Y2.4492
X1.1893 Y2.4103
X1.1883 Y2.3713
X1.1892 Y2.3324
X1.192 Y2.2935
X1.1967 Y2.2548
X1.2032 Y2.2163
X1.2115 Y2.1782
X1.2217 Y2.1406
X1.2336 Y2.1035
X1.2473 Y2.067
X1.2628 Y2.0312
X1.2801 Y1.9962
X1.2989 Y1.9621
X1.3194 Y1.9289
X1.3415 Y1.8968
X1.365 Y1.8657
X1.39 Y1.8357
X1.4164 Y1.807
X1.4441 Y1.7796
X1.4732 Y1.7537
X1.5035 Y1.7291
X1.535 Y1.7061
X1.5675 Y1.6846
X1.601 Y1.6646
X1.6353 Y1.6462
X1.6706 Y1.6295
X1.7066 Y1.6145
X1.7433 Y1.6013
X1.7805 Y1.5899
X1.8183 Y1.5803
X1.8565 Y1.5726
X1.8951 Y1.5666
X1.9338 Y1.5625
X1.9728 Y1.5601
X2.0118 Y1.5597
X2.0507 Y1.5611
X2.0896 Y1.5645
X2.1282 Y1.5697
X2.1665 Y1.5768
X2.2045 Y1.5857
X2.242 Y1.5963
X2.279 Y1.6087
X2.3154 Y1.6227
X2.3511 Y1.6385
X2.3859 Y1.6559
X2.4199 Y1.6749
X2.453 Y1.6956
X2.4851 Y1.7177
X2.5161 Y1.7413
X2.5461 Y1.7663
X2.5749 Y1.7926
X2.6024 Y1.8202
X2.6287 Y1.849
X2.6537 Y1.879
X2.6772 Y1.9101
X2.6992 Y1.9422
X2.7198 Y1.9753
X2.7388 Y2.0094
X2.7564 Y2.0442
X2.7723 Y2.0798
X2.7866 Y2.116
X2.7993 Y2.1529
X2.8103 Y2.1903
X2.8196 Y2.2282
X2.827 Y2.2665
X2.8327 Y2.305
X2.8367 Y2.3438
X2.8389 Y2.3828
X2.8393 Y2.4217
X2.838 Y2.4607
X2.835 Y2.4996
X2.8301 Y2.5383
X2.8235 Y2.5767
X2.815 Y2.6147
X2.8048 Y2.6524
X2.7929 Y2.6895
X2.7793 Y2.726
X2.764 Y2.7619
X2.7472 Y2.7971
X2.7288 Y2.8315
X2.7088 Y2.865
X2.6873 Y2.8975
X2.6642 Y2.9289
X2.6398 Y2.9593
X2.614 Y2.9885
X2.5868 Y3.0165
X2.5585 Y3.0433
X2.529 Y3.0688
X2.4983 Y3.0929
X2.4666 Y3.1156
X2.4339 Y3.1368
X2.4002 Y3.1564
X2.3657 Y3.1745
X2.3303 Y3.191
X2.2943 Y3.2059
X2.2576 Y3.2191
X2.2204 Y3.2308
X2.1827 Y3.2408
X2.1446 Y3.249
X2.1062 Y3.2555
X2.0675 Y3.2603
X2.0286 Y3.2632
X1.9896 Y3.2645
X1.9506 Y3.264
X1.9117 Y3.2618
X1.8729 Y3.2579
X1.8343 Y3.2523
X1.796 Y3.245
X1.7581 Y3.236
X1.7206 Y3.2252
X1.6836 Y3.2128
X1.6473 Y3.1988
X1.6115 Y3.1832
X1.5765 Y3.166
X1.5423 Y3.1474
X1.5089 Y3.1273
X1.4764 Y3.1057
X1.4449 Y3.0828
X1.4144 Y3.0584
X1.3851 Y3.0327
X1.357 Y3.0057
X1.33 Y2.9775
X1.3043 Y2.9482
X1.2799 Y2.9178
X1.2568 Y2.8864
X1.2351 Y2.854
X1.2148 Y2.8207
X1.196 Y2.7866
X1.1787 Y2.7516
X1.163 Y2.7159
X1.1488 Y2.6796
X1.1363 Y2.6427
X1.1253 Y2.6053
X1.1159 Y2.5674
X1.1082 Y2.5292
X1.1021 Y2.4907
X1.0976 Y2.452
X1.0949 Y2.4131
X1.0939 Y2.3741
X1.0947 Y2.3351
X1.0971 Y2.2962
X1.1011 Y2.2574
X1.1069 Y2.2188
X1.1142 Y2.1806
X1.1232 Y2.1426
X1.1338 Y2.1051
X1.146 Y2.0681
X1.1598 Y2.0316
X1.1753 Y1.9958
X1.1922 Y1.9607
X1.2107 Y1.9263
X1.2306 Y1.8928
X1.2519 Y1.8602
X1.2745 Y1.8284
X1.2985 Y1.7977
X1.3238 Y1.768
X1.3504 Y1.7395
X1.3782 Y1.7121
X1.4071 Y1.686
X1.4372 Y1.6612
X1.4683 Y1.6377
X1.5004 Y1.6155
X1.5334 Y1.5947
X1.5672 Y1.5754
X1.6018 Y1.5574
X1.6372 Y1.541
X1.6733 Y1.5262
X1.7099 Y1.513
X1.7472 Y1.5013
X1.7848 Y1.4913
X1.8229 Y1.4829
X1.8613 Y1.4761
X1.8999 Y1.4709
X1.9388 Y1.4674
X1.9777 Y1.4655
X2.0167 Y1.4653
X2.0557 Y1.4668
X2.0945 Y1.4701
X2.1332 Y1.475
X2.1716 Y1.4816
X2.2098 Y1.4897
X2.2475 Y1.4995
X2.2848 Y1.5108
X2.3216 Y1.5236
X2.3579 Y1.538
X2.3935 Y1.5539
X2.4283 Y1.5714
X2.4624 Y1.5903
X2.4957 Y1.6106
X2.5281 Y1.6323
X2.5596 Y1.6553
X2.5901 Y1.6796
X2.6196 Y1.7051
X2.6481 Y1.7318
X2.6754 Y1.7595
X2.7016 Y1.7885
X2.7265 Y1.8185
X2.7501 Y1.8495
X2.7724 Y1.8814
X2.7935 Y1.9143
X2.8131 Y1.9479
X2.8314 Y1.9824
X2.8483 Y2.0175
X2.8638 Y2.0533
X2.8779 Y2.0897
X2.8904 Y2.1266
X2.9013 Y2.164
X2.9106 Y2.2019
X2.9184 Y2.2401
X2.9246 Y2.2786
X2.9293 Y2.3173
X2.9324 Y2.3562
X2.9339 Y2.3951
X2.9338 Y2.4341
X2.9322 Y2.4731
X2.9289 Y2.5119
X2.924 Y2.5506
X2.9174 Y2.589
X2.9093 Y2.6272
X2.8995 Y2.6649
X2.8883 Y2.7023
X2.8755 Y2.7391
X2.8613 Y2.7754
X2.8456 Y2.8111
X2.8285 Y2.8461
X2.8099 Y2.8804
X2.7898 Y2.9138
X2.7684 Y2.9464
X2.7457 Y2.9781
X2.7216 Y3.0088
X2.6963 Y3.0384
X2.6699 Y3.0671
X2.6423 Y3.0946
X2.6136 Y3.121
X2.5838 Y3.1463
X2.5531 Y3.1702
X2.5213 Y3.1928
X2.4887 Y3.2141
X2.4551 Y3.234
X2.4208 Y3.2526
X2.3858 Y3.2697
X2.3501 Y3.2854
X2.3138 Y3.2997
X2.277 Y3.3125
X2.2397 Y3.3238
X2.202 Y3.3336
X2.1638 Y3.3418
X2.1254 Y3.3484
X2.0867 Y3.3534
X2.0479 Y3.3569
X2.009 Y3.3588
X1.97 Y3.3591
X1.931 Y3.3579
X1.8921 Y3.3552
X1.8533 Y3.351
X1.8148 Y3.3451
X1.7765 Y3.3377
X1.7386 Y3.3288
X1.701 Y3.3183
X1.6639 Y3.3063
X1.6273 Y3.2928
X1.5913 Y3.278
X1.5559 Y3.2617
X1.5211 Y3.244
X1.487 Y3.225
X1.4538 Y3.2047
X1.4214 Y3.183
X1.3899 Y3.16
X1.3593 Y3.1358
X1.3297 Y3.1104
X1.3012 Y3.0838
X1.2738 Y3.0561
X1.2474 Y3.0274
X1.2222 Y2.9977
X1.1981 Y2.967
X1.1752 Y2.9354
X1.1537 Y2.9029
X1.1334 Y2.8696
X1.1145 Y2.8355
X1.097 Y2.8007
X1.0809 Y2.7652
X1.0661 Y2.7291
X1.0528 Y2.6924
X1.0409 Y2.6553
X1.0305 Y2.6177
X1.0214 Y2.5798
X1.0139 Y2.5415
X1.0079 Y2.503
X1.0035 Y2.4643
X1.0006 Y2.4254
X0.9992 Y2.3864
X0.9994 Y2.3474
X1.0011 Y2.3085
X1.0043 Y2.2696
X1.009 Y2.2309
X1.0151 Y2.1924
X1.0228 Y2.1542
X1.0319 Y2.1163
X1.0425 Y2.0788
X1.0547 Y2.0417
X1.0683 Y2.0052
X1.0833 Y1.9692
X1.0997 Y1.9338
X1.1174 Y1.8991
X1.1365 Y1.8651
X1.1568 Y1.8318
X1.1784 Y1.7993
X1.2013 Y1.7677
X1.2254 Y1.7371
X1.2507 Y1.7074
X1.2771 Y1.6788
X1.3047 Y1.6512
X1.3333 Y1.6247
X1.3629 Y1.5993
X1.3935 Y1.5751
X1.4249 Y1.5521
X1.4573 Y1.5303
X1.4904 Y1.5098
X1.5243 Y1.4905
X1.559 Y1.4727
X1.5943 Y1.4562
X1.6303 Y1.4411
X1.6668 Y1.4275
X1.7038 Y1.4153
X1.7413 Y1.4045
X1.7792 Y1.3952
X1.8174 Y1.3873
X1.8558 Y1.3809
X1.8945 Y1.3759
X1.9333 Y1.3725
X1.9723 Y1.3707
X2.0113 Y1.3703
X2.0502 Y1.3716
X2.0891 Y1.3743
X2.1279 Y1.3785
X2.1665 Y1.3842
X2.2048 Y1.3914
X2.2428 Y1.4
X2.2805 Y1.41
X2.3178 Y1.4215
X2.3545 Y1.4344
X2.3908 Y1.4488
X2.4265 Y1.4645
X2.4615 Y1.4816
X2.4959 Y1.5001
X2.5295 Y1.5198
X2.5624 Y1.5407
X2.5945 Y1.5629
X2.6257 Y1.5862
X2.6561 Y1.6107
X2.6855 Y1.6363
X2.7139 Y1.663
X2.7413 Y1.6908
X2.7676 Y1.7195
X2.7928 Y1.7493
X2.8169 Y1.78
X2.8398 Y1.8115
X2.8615 Y1.8439
X2.882 Y1.877
X2.9014 Y1.9109
X2.9194 Y1.9454
X2.9362 Y1.9806
X2.9516 Y2.0164
X2.9657 Y2.0528
X2.9784 Y2.0897
X2.9897 Y2.127
X2.9996 Y2.1647
X3.008 Y2.2028
X3.0151 Y2.2411
X3.0207 Y2.2797
X3.025 Y2.3185
X3.0278 Y2.3574
X3.0291 Y2.3963
X3.029 Y2.4353
X3.0274 Y2.4743
X3.0243 Y2.5131
X3.0198 Y2.5519
X3.0137 Y2.5904
X3.0063 Y2.6287
X2.9974 Y2.6666
X2.9872 Y2.7042
X2.9755 Y2.7415
X2.9625 Y2.7782
X2.9482 Y2.8145
X2.9324 Y2.8501
X2.9153 Y2.8852
X2.8969 Y2.9196
X2.8772 Y2.9532
X2.8563 Y2.9861
X2.8341 Y3.0182
X2.8107 Y3.0494
X2.7863 Y3.0797
X2.7607 Y3.1092
X2.734 Y3.1376
X2.7064 Y3.1651
X2.6776 Y3.1915
X2.6479 Y3.2167
X2.6173 Y3.2408
X2.5858 Y3.2638
X2.5534 Y3.2856
X2.5203 Y3.3061
X2.4864 Y3.3254
X2.4519 Y3.3435
X2.4167 Y3.3602
X2.3809 Y3.3757
X2.3446 Y3.3899
X2.3077 Y3.4027
X2.2704 Y3.414
X2.2327 Y3.424
X2.1947 Y3.4326
X2.1564 Y3.4397
X2.1178 Y3.4455
X2.079 Y3.4498
X2.0402 Y3.4527
X2.0012 Y3.4542
X1.9622 Y3.4543
X1.9232 Y3.453
X1.8844 Y3.4502
X1.8456 Y3.446
X1.807 Y3.4404
X1.7687 Y3.4333
X1.7306 Y3.4248
X1.6929 Y3.415
X1.6555 Y3.4038
X1.6186 Y3.3912
X1.5822 Y3.3774
X1.5462 Y3.3622
X1.5109 Y3.3458
X1.4761 Y3.3281
X1.4421 Y3.3091
X1.4087 Y3.2889
X1.3762 Y3.2675
X1.3444 Y3.2449
X1.3135 Y3.2211
X1.2834 Y3.1963
X1.2543 Y3.1704
X1.226 Y3.1435
X1.1988 Y3.1156
X1.1726 Y3.0867
X1.1474 Y3.0569
X1.1234 Y3.0263
X1.1004 Y2.9947
X1.0787 Y2.9624
X1.0581 Y2.9293
X1.0387 Y2.8954
X1.0205 Y2.8609
X1.0036 Y2.8258
X0.988 Y2.7901
X0.9736 Y2.7538
X0.9605 Y2.7171
X0.9487 Y2.68
X0.9383 Y2.6424
X0.9292 Y2.6045
X0.9215 Y2.5662
X0.9152 Y2.5278
X0.9103 Y2.4891
X0.9068 Y2.4503
X0.9046 Y2.4113
X0.9039 Y2.3723
X0.9045 Y2.3333
X0.9065 Y2.2944
X0.9098 Y2.2556
X0.9146 Y2.2169
X0.9207 Y2.1784
X0.9282 Y2.1401
X0.9371 Y2.1021
X0.9474 Y2.0645
X0.959 Y2.0273
X0.9719 Y1.9905
X0.9861 Y1.9542
X1.0016 Y1.9184
X1.0183 Y1.8832
X1.0363 Y1.8486
X1.0554 Y1.8146
X1.0758 Y1.7814
X1.0974 Y1.7489
X1.1201 Y1.7172
X1.1439 Y1.6863
X1.1688 Y1.6563
X1.1948 Y1.6272
X1.2218 Y1.5991
X1.2497 Y1.5719
X1.2786 Y1.5458
X1.3085 Y1.5206
X1.3391 Y1.4966
X1.3706 Y1.4736
X1.403 Y1.4518
X1.436 Y1.4311
X1.4698 Y1.4117
X1.5043 Y1.3935
X1.5394 Y1.3765
X1.5751 Y1.3608
X1.6113 Y1.3463
X1.648 Y1.3332
X1.6851 Y1.3213
X1.7227 Y1.3108
X1.7606 Y1.3015
X1.7987 Y1.2937
X1.8372 Y1.2872
X1.8758 Y1.2821
X1.9147 Y1.2783
X1.9536 Y1.276
X1.9926 Y1.275
X2.0315 Y1.2755
X2.0705 Y1.2773
X2.1094 Y1.2804
X2.1481 Y1.285
X2.1866 Y1.2908
X2.2249 Y1.2981
X2.263 Y1.3066
X2.3007 Y1.3166
X2.338 Y1.3278
X2.3749 Y1.3404
X2.4114 Y1.3542
X2.4473 Y1.3693
X2.4827 Y1.3857
X2.5175 Y1.4033
X2.5517 Y1.422
X2.5852 Y1.442
X2.618 Y1.463
X2.6501 Y1.4852
X2.6814 Y1.5085
X2.7118 Y1.5328
X2.7414 Y1.5582
X2.7701 Y1.5846
X2.7979 Y1.612
X2.8247 Y1.6403
X2.8505 Y1.6695
X2.8753 Y1.6996
X2.8991 Y1.7305
X2.9218 Y1.7622
X2.9435 Y1.7946
X2.964 Y1.8278
X2.9834 Y1.8616
X3.0016 Y1.8961
X3.0186 Y1.9312
X3.0344 Y1.9668
X3.049 Y2.003
X3.0623 Y2.0396
X3.0744 Y2.0767
X3.0852 Y2.1142
X3.0947 Y2.152
X3.1029 Y2.1901
X3.1099 Y2.2284
X3.1155 Y2.267
X3.1198 Y2.3058
X3.1228 Y2.3447
X3.1244 Y2.3836
X3.1247 Y2.4226
X3.1236 Y2.4616
X3.1212 Y2.5005
X3.1175 Y2.5393
X3.1124 Y2.578
X3.1061 Y2.6164
X3.0984 Y2.6547
X3.0894 Y2.6926
X3.0792 Y2.7302
X3.0676 Y2.7675
X3.0548 Y2.8043
X3.0407 Y2.8406
X3.0253 Y2.8765
X3.0087 Y2.9118
X2.9909 Y2.9465
X2.972 Y2.9805
X2.9519 Y3.0139
X2.9306 Y3.0466
X2.9083 Y3.0786
X2.8849 Y3.1098
X2.8604 Y3.1401
X2.8349 Y3.1696
X2.8084 Y3.1982
X2.7809 Y3.2258
X2.7525 Y3.2525
X2.7232 Y3.2783
X2.693 Y3.303
X2.662 Y3.3266
X2.6302 Y3.3492
X2.5977 Y3.3707
X2.5644 Y3.391
X2.5305 Y3.4103
X2.4959 Y3.4283
X2.4608 Y3.4452
X2.4251 Y3.4609
X2.3889 Y3.4753
X2.3522 Y3.4885
X2.3151 Y3.5004
X2.2775 Y3.5111
X2.2397 Y3.5205
X2.2016 Y3.5286
X2.1632 Y3.5354
X2.1246 Y3.541
X2.0858 Y3.5452
X2.0469 Y3.5481
X2.008 Y3.5497
X1.969 Y3.55
X1.93 Y3.549
X1.8911 Y3.5466
X1.8523 Y3.543
X1.8136 Y3.538
X1.7751 Y3.5318
X1.7369 Y3.5243
X1.6989 Y3.5155
X1.6612 Y3.5054
X1.6239 Y3.4941
X1.587 Y3.4816
X1.5505 Y3.4678
X1.5145 Y3.4528
X1.479 Y3.4366
X1.4441 Y3.4192
X1.4098 Y3.4007
X1.3761 Y3.3811
X1.3431 Y3.3603
X1.3108 Y3.3385
X1.2793 Y3.3156
X1.2485 Y3.2916
X1.2185 Y3.2667
X1.1894 Y3.2408
X1.1611 Y3.2139
X1.1338 Y3.1861
X1.1074 Y3.1574
X1.0819 Y3.1279
X1.0575 Y3.0975
X1.0341 Y3.0663
X1.0117 Y3.0344
X0.9904 Y3.0018
X0.9701 Y2.9684
X0.951 Y2.9344
X0.933 Y2.8999
X0.9161 Y2.8647
X0.9005 Y2.829
X0.886 Y2.7928
X0.8727 Y2.7562
X0.8606 Y2.7191
X0.8497 Y2.6816
X0.8401 Y2.6438
X0.8318 Y2.6058
X0.8247 Y2.5674
X0.8188 Y2.5289
X0.8142 Y2.4902
X0.8109 Y2.4513
X0.8089 Y2.4124
X0.8081 Y2.3734
X0.8086 Y2.3344
X0.8105 Y2.2955
X0.8135 Y2.2566
X0.8179 Y2.2178
X0.8235 Y2.1793
X0.8304 Y2.1409
X0.8386 Y2.1028
X0.848 Y2.0649
X0.8586 Y2.0274
X0.8705 Y1.9902
X0.8835 Y1.9535
X0.8978 Y1.9172
X0.9132 Y1.8814
X0.9298 Y1.8461
X0.9476 Y1.8114
X0.9664 Y1.7773
X0.9864 Y1.7438
X1.0075 Y1.711
X1.0296 Y1.6789
X1.0528 Y1.6475
X1.077 Y1.617
X1.1021 Y1.5872
X1.1283 Y1.5582
X1.1553 Y1.5301
X1.1833 Y1.503
X1.2121 Y1.4767
X1.2418 Y1.4515
X1.2723 Y1.4272
X1.3036 Y1.4039
X1.3356 Y1.3816
X1.3683 Y1.3605
X1.4017 Y1.3403
X1.4358 Y1.3213
X1.4704 Y1.3035
X1.5056 Y1.2867
X1.5414 Y1.2711
X1.5776 Y1.2567
X1.6143 Y1.2435
X1.6514 Y1.2315
X1.6889 Y1.2207
X1.7267 Y1.2111
X1.7648 Y1.2028
X1.8031 Y1.1957
X1.8416 Y1.1899
X1.8804 Y1.1854
X1.9192 Y1.1821
X1.9582 Y1.1801
X1.9971 Y1.1793
X2.0361 Y1.1798
X2.0751 Y1.1816
X2.114 Y1.1847
X2.1527 Y1.189
X2.1913 Y1.1946
X2.2297 Y1.2014
X2.2678 Y1.2095
X2.3057 Y1.2188
X2.3432 Y1.2293
X2.3804 Y1.241
X2.4172 Y1.2539
X2.4536 Y1.268
X2.4895 Y1.2832
X2.5248 Y1.2996
X2.5597 Y1.3172
X2.5939 Y1.3358
X2.6275 Y1.3555
X2.6605 Y1.3763
X2.6928 Y1.3981
X2.7245 Y1.421
X2.7553 Y1.4448
X2.7854 Y1.4696
X2.8147 Y1.4953
X2.8432 Y1.522
X2.8708 Y1.5495
X2.8975 Y1.5779
X2.9233 Y1.6071
X2.9482 Y1.6371
X2.9721 Y1.6679
X2.995 Y1.6995
X3.0169 Y1.7317
X3.0378 Y1.7646
X3.0577 Y1.7982
X3.0765 Y1.8324
X3.0942 Y1.8671
X3.1108 Y1.9024
X3.1263 Y1.9382
X3.1407 Y1.9744
X3.1539 Y2.0111
X3.1659 Y2.0482
X3.1768 Y2.0856
X3.1865 Y2.1234
X3.195 Y2.1614
X3.2022 Y2.1997
X3.2083 Y2.2383
X3.2132 Y2.2769
X3.2168 Y2.3158
X3.2192 Y2.3547
X3.2204 Y2.3937
Y2.4326
X3.2191 Y2.4716
X3.2166 Y2.5105
X3.2129 Y2.5493
X3.2079 Y2.588
X3.2017 Y2.6265
X3.1943 Y2.6648
X3.1856 Y2.7028
X3.1758 Y2.7405
X3.1648 Y2.7779
X3.1526 Y2.815
X3.1393 Y2.8516
X3.1248 Y2.8878
X3.1092 Y2.9235
X3.0924 Y2.9588
X3.0746 Y2.9934
X3.0556 Y3.0275
X3.0356 Y3.0609
X3.0145 Y3.0937
X2.9924 Y3.1258
X2.9692 Y3.1572
X2.9451 Y3.1879
X2.9201 Y3.2178
X2.8941 Y3.2468
X2.8672 Y3.2751
X2.8395 Y3.3025
X2.8109 Y3.3289
X2.7814 Y3.3545
X2.7512 Y3.3792
X2.7202 Y3.4028
X2.6885 Y3.4255
X2.6561 Y3.4471
X2.623 Y3.4677
X2.5892 Y3.4873
X2.5549 Y3.5058
X2.52 Y3.5232
X2.4846 Y3.5396
X2.4487 Y3.5548
X2.4124 Y3.5688
X2.3756 Y3.5818
X2.3384 Y3.5936
X2.3057 Y3.6028
X2.3005 Y3.604
X2.2952 Y3.6048
X2.2898 Y3.605
X1.7648
X1.7259 Y3.6031
X1.687 Y3.5999
X1.6485 Y3.5937
X1.6105 Y3.5851
X1.5729 Y3.5746
X1.5359 Y3.5625
X1.4994 Y3.5488
X1.4634 Y3.5339
X1.4279 Y3.5176
X1.393 Y3.5002
X1.3587 Y3.4817
X1.325 Y3.4621
X1.292 Y3.4414
X1.2596 Y3.4197
X1.2279 Y3.3969
X1.197 Y3.3732
X1.1667 Y3.3486
X1.1373 Y3.323
X1.1086 Y3.2966
X1.0808 Y3.2693
X1.0538 Y3.2411
X1.0277 Y3.2121
X1.0025 Y3.1824
X0.9782 Y3.1519
X0.9549 Y3.1207
X0.9325 Y3.0887
X0.9111 Y3.0561
X0.8908 Y3.0229
X0.8714 Y2.989
X0.8531 Y2.9546
X0.8359 Y2.9196
X0.8197 Y2.8841
X0.8046 Y2.8482
X0.7906 Y2.8118
X0.7778 Y2.775
X0.7727 Y2.7591
X0.7712 Y2.7533
X0.7703 Y2.7474
X0.77 Y2.7415
Y2.0896
X0.7719 Y2.0507
X0.7741 Y2.0313
X0.7799 Y1.9927
X0.7887 Y1.9547
X0.7996 Y1.9173
X0.8125 Y1.8805
X0.827 Y1.8443
X0.8429 Y1.8087
X0.86 Y1.7737
X0.8784 Y1.7393
X0.8979 Y1.7055
X0.9184 Y1.6724
X0.94 Y1.6399
X0.9626 Y1.6081
X0.9861 Y1.577
X1.0106 Y1.5467
X1.036 Y1.5171
X1.0622 Y1.4883
X1.0894 Y1.4603
X1.1174 Y1.4331
X1.1462 Y1.4069
X1.1758 Y1.3815
X1.2061 Y1.357
X1.2372 Y1.3335
X1.269 Y1.3109
X1.3014 Y1.2892
X1.3345 Y1.2686
X1.3682 Y1.249
X1.4025 Y1.2304
X1.4373 Y1.2128
X1.4726 Y1.1963
X1.5084 Y1.1808
X1.5446 Y1.1665
X1.5813 Y1.1532
X1.6184 Y1.1411
X1.6558 Y1.1302
X1.6935 Y1.1203
X1.7315 Y1.1117
X1.7698 Y1.1041
X1.8083 Y1.0977
X1.8469 Y1.0925
X1.8857 Y1.0884
X1.9246 Y1.0855
X1.9635 Y1.0838
X2.0025 Y1.0832
X2.0415 Y1.0839
X2.0804 Y1.0857
X2.1193 Y1.0887
X2.1581 Y1.0928
X2.1967 Y1.0982
X2.2351 Y1.1047
X2.2734 Y1.1123
X2.3114 Y1.1211
X2.3491 Y1.131
X2.3865 Y1.1421
X2.4235 Y1.1542
X2.4602 Y1.1674
X2.4965 Y1.1817
X2.5323 Y1.1971
X2.5677 Y1.2136
X2.6025 Y1.2311
X2.6368 Y1.2496
X2.6705 Y1.2692
X2.7037 Y1.2897
X2.7362 Y1.3113
X2.768 Y1.3337
X2.7992 Y1.3571
X2.8297 Y1.3814
X2.8595 Y1.4066
X2.8885 Y1.4326
X2.9168 Y1.4595
X2.9442 Y1.4872
X2.9709 Y1.5156
X2.9967 Y1.5449
X3.0216 Y1.5749
X3.0456 Y1.6056
X3.0686 Y1.6371
X3.0908 Y1.6691
X3.112 Y1.7019
X3.1323 Y1.7352
X3.1515 Y1.7691
X3.1698 Y1.8035
X3.1871 Y1.8385
X3.2034 Y1.8739
X3.2186 Y1.9098
X3.226 Y1.9288
X3.2282 Y1.9357
X3.2296 Y1.9428
X3.23 Y1.95
Y2.7798
X3.2281 Y2.8187
X3.2255 Y2.8381
X3.219 Y2.874
X3.209 Y2.9117
X3.1965 Y2.9486
X3.182 Y2.9848
X3.1658 Y3.0203
X3.1482 Y3.0551
X3.1293 Y3.0892
X3.1093 Y3.1226
X3.0881 Y3.1554
X3.066 Y3.1875
X3.0428 Y3.2189
X3.0188 Y3.2495
X2.9938 Y3.2794
X2.9679 Y3.3086
X2.9411 Y3.337
X2.9136 Y3.3645
X2.8852 Y3.3913
X2.856 Y3.4172
X2.8262 Y3.4422
X2.7955 Y3.4664
X2.7642 Y3.4896
X2.7323 Y3.512
X2.6997 Y3.5333
X2.6665 Y3.5538
X2.6327 Y3.5732
X2.5983 Y3.5917
X2.584 Y3.5988
X2.5757 Y3.6022
X2.5669 Y3.6043
X2.5579 Y3.605
X2.2898
G3 X2.2803 Y3.6028 I0.0009 J-0.025 F30
G1 X2.2767 Y3.6011 Z-0.1993
X2.2733 Y3.5996 Z-0.1984
X2.27 Y3.5981 Z-0.1969
X2.2669 Y3.5967 Z-0.1948
X2.2642 Y3.5954 Z-0.1923
X2.2619 Y3.5944 Z-0.1893
X2.26 Y3.5935 Z-0.186
X2.2587 Y3.5929 Z-0.1823
X2.2578 Y3.5925 Z-0.1785
X2.2576 Y3.5924 Z-0.1746
G0 Z0.2
X3.199 Y2.768
Z-0.1496
G1 Z-0.1746 F30
X3.1993 Z-0.1785
X3.2002 Y2.7682 Z-0.1823
X3.2016 Y2.7685 Z-0.186
X3.2037 Y2.7688 Z-0.1893
X3.2062 Y2.7693 Z-0.1923
X3.2091 Y2.7698 Z-0.1948
X3.2124 Y2.7704 Z-0.1969
X3.216 Y2.771 Z-0.1984
X3.2197 Y2.7717 Z-0.1993
X3.2236 Y2.7724 Z-0.1996
G3 X3.23 Y2.7798 I-0.0014 J0.0077
G1 Y3.001 F39.37
X3.2287 Y3.027
X3.2259 Y3.0481
X3.2205 Y3.0737
X3.2112 Y3.1046
X3.1971 Y3.1409
X3.1801 Y3.176
X3.161 Y3.21
X3.1402 Y3.243
X3.118 Y3.2751
X3.0946 Y3.3062
X3.0702 Y3.3366
X3.0447 Y3.3661
X3.0184 Y3.3949
X2.9912 Y3.4228
X2.9632 Y3.45
X2.9345 Y3.4763
X2.905 Y3.5019
X2.8749 Y3.5266
X2.844 Y3.5505
X2.8126 Y3.5735
X2.782 Y3.5947
X2.7717 Y3.6003
X2.7605 Y3.6038
X2.7488 Y3.605
X2.5579
G3 X2.5484 Y3.6028 I0.0009 J-0.025 F30
X2.5421 Y3.5614 I0.0104 J-0.0227 F39.37
G1 X3.1883 Y2.9833
G3 X3.2278 Y2.9915 I0.0167 J0.0186
X3.23 Y3.001 I-0.0227 J0.0104 F30
G1 Y3.178 F39.37
X3.2291 Y3.1968
X3.2268 Y3.2143
X3.2224 Y3.2346
X3.2152 Y3.2589
X3.2044 Y3.2866
X3.1881 Y3.3201
X3.1683 Y3.3537
X3.1464 Y3.3859
X3.1227 Y3.4169
X3.0977 Y3.4468
X3.0716 Y3.4758
X3.0445 Y3.5038
X3.0165 Y3.5309
X2.9877 Y3.5572
X2.9582 Y3.5827
X2.9469 Y3.5919
X2.9387 Y3.5975
X2.9296 Y3.6016
X2.92 Y3.6041
X2.9101 Y3.605
X2.7488
G3 X2.7393 Y3.6028 I0.0009 J-0.025 F30
X2.7332 Y3.5613 I0.0104 J-0.0227 F39.37
G1 X3.1885 Y3.1601
G3 X3.2278 Y3.1685 I0.0165 J0.0188
X3.23 Y3.178 I-0.0227 J0.0104 F30
G1 Y3.3284 F39.37
X3.2291 Y3.3473
X3.227 Y3.3628
X3.2232 Y3.3805
X3.2171 Y3.4011
X3.208 Y3.4245
X3.1945 Y3.4523
X3.1752 Y3.485
X3.1528 Y3.5169
X3.1284 Y3.5473
X3.1024 Y3.5764
X3.0916 Y3.5874
X3.0827 Y3.5949
X3.0725 Y3.6004
X3.0614 Y3.6038
X3.0499 Y3.605
X2.9101
G3 X2.9006 Y3.6028 I0.0009 J-0.025 F30
X2.8947 Y3.561 I0.0104 J-0.0227 F39.37
G1 X3.1888 Y3.3103
G3 X3.2278 Y3.3189 I0.0162 J0.019
X3.23 Y3.3284 I-0.0227 J0.0104 F30
G1 Y3.47 F39.37
X3.2292 Y3.4856
X3.2273 Y3.5002
X3.2239 Y3.516
X3.2183 Y3.5347
X3.2103 Y3.5554
X3.2009 Y3.5746
X3.2 Y3.5763
X3.1928 Y3.586
X3.1838 Y3.594
X3.1732 Y3.6
X3.1617 Y3.6037
X3.1497 Y3.605
G3 X3.1402 Y3.6028 I0.0009 J-0.025 F30
X3.1282 Y3.5689 I0.0104 J-0.0227 F39.37
G1 X3.1826 Y3.4597
G3 X3.2278 Y3.4605 I0.0224 J0.0112
X3.23 Y3.47 I-0.0227 J0.0104 F30
G1 Y3.5762 F39.37
Y3.5806
X3.2298 Y3.5828
X3.2294 Y3.585
X3.2283 Y3.5886
X3.2266 Y3.5922
X3.2255 Y3.5939
X3.2238 Y3.5961
X3.2216 Y3.5982
X3.2177 Y3.6011
X3.2147 Y3.6027
X3.2118 Y3.6039
X3.2089 Y3.6046
X3.2066 Y3.6049
X3.2044 Y3.605
X3.0499
G3 X3.0404 Y3.6028 I0.0009 J-0.025 F30
G1 X3.0368 Y3.6011 Z-0.1993
X3.0334 Y3.5996 Z-0.1984
X3.0301 Y3.5981 Z-0.1969
X3.027 Y3.5967 Z-0.1948
X3.0243 Y3.5954 Z-0.1923
X3.022 Y3.5944 Z-0.1893
X3.0201 Y3.5935 Z-0.186
X3.0187 Y3.5929 Z-0.1823
X3.0179 Y3.5925 Z-0.1785
X3.0176 Y3.5924 Z-0.1746
G0 Z0.2
X0.801 Y2.1014
Z-0.1496
G1 Z-0.1746 F30
X0.8007 Z-0.1785
X0.7998 Y2.1012 Z-0.1823
X0.7984 Y2.101 Z-0.186
X0.7963 Y2.1006 Z-0.1893
X0.7938 Y2.1001 Z-0.1923
X0.7909 Y2.0996 Z-0.1948
X0.7876 Y2.099 Z-0.1969
X0.784 Y2.0984 Z-0.1984
X0.7803 Y2.0977 Z-0.1993
X0.7764 Y2.097 Z-0.1996
G3 X0.77 Y2.0896 I0.0014 J-0.0077
G1 Y1.8418 F39.37
X0.7713 Y1.8157
X0.7744 Y1.7924
X0.7804 Y1.7642
X0.7905 Y1.7306
X0.8046 Y1.6943
X0.8213 Y1.6591
X0.84 Y1.6248
X0.8602 Y1.5915
X0.8818 Y1.5591
X0.9046 Y1.5274
X0.9284 Y1.4966
X0.9532 Y1.4665
X0.979 Y1.4372
X1.0056 Y1.4087
X1.033 Y1.381
X1.0613 Y1.3541
X1.0902 Y1.328
X1.12 Y1.3028
X1.1504 Y1.2784
X1.1815 Y1.2549
X1.2133 Y1.2323
X1.2457 Y1.2106
X1.2787 Y1.1898
X1.3122 Y1.17
X1.3464 Y1.1511
X1.381 Y1.1332
X1.4161 Y1.1162
X1.4517 Y1.1003
X1.4877 Y1.0854
X1.5241 Y1.0714
X1.5609 Y1.0585
X1.5981 Y1.0467
X1.6355 Y1.0359
X1.6733 Y1.0261
X1.7113 Y1.0175
X1.7495 Y1.0099
X1.788 Y1.0034
X1.8266 Y0.998
X1.8653 Y0.9936
X1.9042 Y0.9904
X1.9431 Y0.9882
X1.9821 Y0.9871
X2.0211
X2.0601 Y0.9882
X2.099 Y0.9904
X2.1378 Y0.9937
X2.1766 Y0.9981
X2.2152 Y1.0036
X2.2536 Y1.0101
X2.2919 Y1.0177
X2.3299 Y1.0264
X2.3676 Y1.0362
X2.4051 Y1.047
X2.4423 Y1.0588
X2.4791 Y1.0717
X2.5155 Y1.0855
X2.5515 Y1.1004
X2.5872 Y1.1163
X2.6223 Y1.1331
X2.657 Y1.151
X2.6912 Y1.1697
X2.7248 Y1.1894
X2.7579 Y1.21
X2.7904 Y1.2316
X2.8223 Y1.254
X2.8536 Y1.2773
X2.8842 Y1.3014
X2.9142 Y1.3264
X2.9434 Y1.3522
X2.9719 Y1.3788
X2.9997 Y1.4061
X3.0268 Y1.4342
X3.0531 Y1.463
X3.0785 Y1.4925
X3.1032 Y1.5227
X3.127 Y1.5536
X3.15 Y1.5851
X3.1721 Y1.6172
X3.1933 Y1.6499
X3.2136 Y1.6832
X3.2223 Y1.6984
X3.2265 Y1.7075
X3.2291 Y1.7173
X3.23 Y1.7274
Y1.95
G3 X3.2278 Y1.9595 I-0.025 J-0.0009 F30
G1 X3.2261 Y1.963 Z-0.1993
X3.2246 Y1.9665 Z-0.1984
X3.2231 Y1.9698 Z-0.1969
X3.2217 Y1.9729 Z-0.1948
X3.2204 Y1.9756 Z-0.1923
X3.2194 Y1.9779 Z-0.1893
X3.2185 Y1.9798 Z-0.186
X3.2179 Y1.9811 Z-0.1823
X3.2175 Y1.982 Z-0.1785
X3.2174 Y1.9822 Z-0.1746
G0 Z0.2
X1.7767 Y3.574
Z-0.1496
G1 Z-0.1746 F30
X1.7766 Y3.5743 Z-0.1785
X1.7764 Y3.5752 Z-0.1823
X1.7762 Y3.5766 Z-0.186
X1.7758 Y3.5787 Z-0.1893
X1.7754 Y3.5812 Z-0.1923
X1.7748 Y3.5841 Z-0.1948
X1.7742 Y3.5874 Z-0.1969
X1.7736 Y3.591 Z-0.1984
X1.7729 Y3.5947 Z-0.1993
X1.7722 Y3.5986 Z-0.1996
G3 X1.7648 Y3.605 I-0.0077 J-0.0014
G1 X1.4902 F39.37
X1.4627 Y3.6036
X1.4383 Y3.6004
X1.4085 Y3.5941
X1.3724 Y3.5832
X1.336 Y3.5691
X1.3007 Y3.5526
X1.2663 Y3.5342
X1.2327 Y3.5144
X1.2 Y3.4932
X1.1681 Y3.4708
X1.1369 Y3.4474
X1.1065 Y3.423
X1.0769 Y3.3976
X1.048 Y3.3714
X1.02 Y3.3443
X0.9927 Y3.3164
X0.9663 Y3.2878
X0.9407 Y3.2584
X0.9159 Y3.2283
X0.892 Y3.1974
X0.869 Y3.166
X0.8469 Y3.1338
X0.8257 Y3.1011
X0.8055 Y3.0678
X0.7862 Y3.0339
X0.7768 Y3.0162
X0.7731 Y3.0075
X0.7708 Y2.9983
X0.77 Y2.9888
Y2.7415
G3 X0.7722 Y2.732 I0.025 J0.0009 F30
X0.8142 Y2.7264 I0.0227 J0.0104 F39.37
G1 X1.5086 Y3.5641
G3 X1.4997 Y3.6028 I-0.0192 J0.016
X1.4902 Y3.605 I-0.0104 J-0.0227 F30
G1 X1.3041 F39.37
X1.2792 Y3.6038
X1.2601 Y3.6013
X1.2382 Y3.5966
X1.2119 Y3.5887
X1.1805 Y3.5765
X1.1454 Y3.5594
X1.1117 Y3.5398
X1.0793 Y3.5182
X1.0479 Y3.4951
X1.0175 Y3.4706
X0.9881 Y3.4451
X0.9595 Y3.4185
X0.9318 Y3.3911
X0.9049 Y3.3629
X0.8788 Y3.3339
X0.8536 Y3.3042
X0.8292 Y3.2738
X0.8056 Y3.2427
X0.7829 Y3.211
X0.78 Y3.2068
X0.7745 Y3.1967
X0.7711 Y3.1856
X0.77 Y3.1741
Y2.9888
G3 X0.7722 Y2.9793 I0.025 J0.0009 F30
X0.8139 Y2.9734 I0.0227 J0.0104 F39.37
G1 X1.3222 Y3.5637
G3 X1.3136 Y3.6028 I-0.0189 J0.0163
X1.3041 Y3.605 I-0.0104 J-0.0227 F30
G1 X1.1358 F39.37
X1.1221 Y3.6043
X1.1059 Y3.6022
X1.0872 Y3.5982
X1.0655 Y3.5917
X1.0405 Y3.5819
X1.0108 Y3.5675
X0.9772 Y3.5477
X0.9452 Y3.5255
X0.9146 Y3.5013
X0.8852 Y3.4757
X0.8569 Y3.4488
X0.8296 Y3.421
X0.8032 Y3.3923
X0.7842 Y3.3702
X0.7781 Y3.3618
X0.7737 Y3.3524
X0.7709 Y3.3424
X0.77 Y3.3321
Y3.1741
G3 X0.7722 Y3.1646 I0.025 J0.0009 F30
X0.8141 Y3.1589 I0.0227 J0.0104 F39.37
G1 X1.1541 Y3.5639
G3 X1.1453 Y3.6028 I-0.0191 J0.0161
X1.1358 Y3.605 I-0.0104 J-0.0227 F30
G1 X0.9941 F39.37
X0.9791 Y3.6043
X0.9643 Y3.6023
X0.9478 Y3.5988
X0.9284 Y3.593
X0.9067 Y3.5845
X0.8811 Y3.5721
X0.8512 Y3.5545
X0.8192 Y3.532
X0.7891 Y3.5074
X0.7887 Y3.5071
X0.7808 Y3.498
X0.7749 Y3.4876
X0.7712 Y3.4762
X0.77 Y3.4643
G3 X0.7722 Y3.4548 I0.025 J0.0009 F30
X0.8075 Y3.4435 I0.0227 J0.0104 F39.37
G1 X1.0057 Y3.5584
G3 X1.0036 Y3.6028 I-0.0125 J0.0216
X0.9941 Y3.605 I-0.0104 J-0.0227 F30
G1 X0.8612 F39.37
X0.8455 Y3.6042
X0.8314 Y3.6024
X0.8182 Y3.5995
X0.8116 Y3.5976
X0.8001 Y3.5927
X0.79 Y3.5856
X0.7815 Y3.5765
X0.7752 Y3.5658
X0.7713 Y3.554
X0.77 Y3.5417
G3 X0.7722 Y3.5322 I0.025 J0.0009 F30
X0.8074 Y3.5209 I0.0227 J0.0104 F39.37
G1 X0.8728 Y3.5583
G3 X0.8707 Y3.6028 I-0.0124 J0.0217
X0.8612 Y3.605 I-0.0104 J-0.0227 F30
G1 X0.7948 F39.37
X0.7925 Y3.6048
X0.7903 Y3.6045
X0.7877 Y3.6038
X0.785 Y3.6027
X0.7815 Y3.6007
X0.7797 Y3.5995
X0.778 Y3.5979
X0.7761 Y3.5959
X0.7745 Y3.5939
X0.7726 Y3.5906
X0.7714 Y3.5878
X0.7706 Y3.585
X0.7702 Y3.5828
X0.77 Y3.5806
Y3.5496
Y3.3321
G3 X0.7722 Y3.3226 I0.025 J0.0009 F30
G1 X0.7739 Y3.319 Z-0.1993
X0.7754 Y3.3156 Z-0.1984
X0.7769 Y3.3123 Z-0.1969
X0.7783 Y3.3092 Z-0.1948
X0.7796 Y3.3065 Z-0.1923
X0.7806 Y3.3042 Z-0.1893
X0.7815 Y3.3023 Z-0.186
X0.7821 Y3.301 Z-0.1823
X0.7825 Y3.3001 Z-0.1785
X0.7826 Y3.2998 Z-0.1746
G0 Z0.2
X0.801 Y1.8537
Z-0.1496
G1 Z-0.1746 F30
X0.8007 Y1.8536 Z-0.1785
X0.7998 Y1.8535 Z-0.1823
X0.7984 Y1.8532 Z-0.186
X0.7963 Y1.8528 Z-0.1893
X0.7938 Y1.8524 Z-0.1923
X0.7909 Y1.8519 Z-0.1948
X0.7876 Y1.8513 Z-0.1969
X0.784 Y1.8506 Z-0.1984
X0.7803 Y1.8499 Z-0.1993
X0.7764 Y1.8493 Z-0.1996
G3 X0.77 Y1.8418 I0.0014 J-0.0077
G1 Y1.656 F39.37
X0.7709 Y1.6381
X0.7733 Y1.6197
X0.7779 Y1.5985
X0.7855 Y1.5729
X0.7971 Y1.5431
X0.8141 Y1.508
X0.8339 Y1.4744
X0.8556 Y1.442
X0.879 Y1.4108
X0.9037 Y1.3806
X0.9295 Y1.3514
X0.9563 Y1.323
X0.9839 Y1.2956
X1.0124 Y1.2689
X1.0416 Y1.2431
X1.0716 Y1.2181
X1.1022 Y1.194
X1.1335 Y1.1707
X1.1653 Y1.1483
X1.1978 Y1.1267
X1.2308 Y1.106
X1.2644 Y1.0861
X1.2985 Y1.0672
X1.3331 Y1.0492
X1.3681 Y1.0321
X1.4036 Y1.0159
X1.4395 Y1.0007
X1.4758 Y0.9865
X1.5124 Y0.9731
X1.5494 Y0.9608
X1.5867 Y0.9494
X1.6243 Y0.939
X1.6621 Y0.9296
X1.7002 Y0.9212
X1.7385 Y0.9138
X1.777 Y0.9074
X1.8156 Y0.902
X1.8543 Y0.8977
X1.8932 Y0.8943
X1.9321 Y0.892
X1.9711 Y0.8907
X2.0101 Y0.8905
X2.049 Y0.8912
X2.088 Y0.893
X2.1269 Y0.8958
X2.1657 Y0.8996
X2.2044 Y0.9045
X2.2429 Y0.9103
X2.2813 Y0.9171
X2.3195 Y0.925
X2.3575 Y0.9338
X2.3952 Y0.9436
X2.4327 Y0.9544
X2.4699 Y0.9662
X2.5067 Y0.9789
X2.5432 Y0.9926
X2.5793 Y1.0073
X2.6151 Y1.0229
X2.6504 Y1.0394
X2.6853 Y1.0568
X2.7197 Y1.0751
X2.7537 Y1.0943
X2.7871 Y1.1143
X2.82 Y1.1352
X2.8524 Y1.157
X2.8842 Y1.1795
X2.9154 Y1.2029
X2.946 Y1.2271
X2.9759 Y1.2521
X3.0052 Y1.2778
X3.0339 Y1.3043
X3.0618 Y1.3315
X3.089 Y1.3594
X3.1155 Y1.3879
X3.1413 Y1.4172
X3.1663 Y1.4471
X3.1906 Y1.4777
X3.214 Y1.5088
X3.2191 Y1.5159
X3.2251 Y1.5264
X3.2288 Y1.5379
X3.23 Y1.5498
Y1.7274
G3 X3.2278 Y1.7369 I-0.025 J-0.0009 F30
G1 X3.2261 Y1.7404 Z-0.1993
X3.2246 Y1.7439 Z-0.1984
X3.2231 Y1.7472 Z-0.1969
X3.2217 Y1.7502 Z-0.1948
X3.2204 Y1.753 Z-0.1923
X3.2194 Y1.7553 Z-0.1893
X3.2185 Y1.7571 Z-0.186
X3.2179 Y1.7585 Z-0.1823
X3.2175 Y1.7593 Z-0.1785
X3.2174 Y1.7596 Z-0.1746
G0 Z0.2
X0.801 Y1.6678
Z-0.1496
G1 Z-0.1746 F30
X0.8007 Z-0.1785
X0.7998 Y1.6676 Z-0.1823
X0.7984 Y1.6674 Z-0.186
X0.7963 Y1.667 Z-0.1893
X0.7938 Y1.6666 Z-0.1923
X0.7909 Y1.666 Z-0.1948
X0.7876 Y1.6654 Z-0.1969
X0.784 Y1.6648 Z-0.1984
X0.7803 Y1.6641 Z-0.1993
X0.7764 Y1.6634 Z-0.1996
G3 X0.77 Y1.656 I0.0014 J-0.0077
G1 Y1.4967 F39.37
X0.7707 Y1.4835
X0.7727 Y1.4676
X0.7767 Y1.4493
X0.783 Y1.428
X0.7925 Y1.4037
X0.8066 Y1.3747
X0.8263 Y1.3411
X0.8487 Y1.3092
X0.873 Y1.2787
X0.8988 Y1.2494
X0.9258 Y1.2213
X0.9538 Y1.1942
X0.9827 Y1.168
X1.0124 Y1.1428
X1.0429 Y1.1184
X1.074 Y1.0949
X1.1057 Y1.0723
X1.138 Y1.0504
X1.1709 Y1.0295
X1.2043 Y1.0093
X1.2382 Y0.9901
X1.2725 Y0.9716
X1.3074 Y0.9541
X1.3426 Y0.9374
X1.3782 Y0.9216
X1.4143 Y0.9066
X1.4506 Y0.8926
X1.4873 Y0.8795
X1.5244 Y0.8672
X1.5617 Y0.8559
X1.5993 Y0.8455
X1.6371 Y0.8361
X1.6751 Y0.8276
X1.7134 Y0.82
X1.7518 Y0.8134
X1.7904 Y0.8077
X1.8291 Y0.803
X1.8679 Y0.7993
X1.9068 Y0.7965
X1.9458 Y0.7947
X1.9847 Y0.7938
X2.0237 Y0.7939
X2.0627 Y0.7949
X2.1016 Y0.7969
X2.1405 Y0.7999
X2.1793 Y0.8038
X2.218 Y0.8086
X2.2566 Y0.8144
X2.295 Y0.8212
X2.3332 Y0.8289
X2.3712 Y0.8375
X2.409 Y0.8471
X2.4466 Y0.8576
X2.4838 Y0.869
X2.5208 Y0.8813
X2.5575 Y0.8946
X2.5939 Y0.9087
X2.6299 Y0.9237
X2.6655 Y0.9395
X2.7007 Y0.9562
X2.7355 Y0.9738
X2.7699 Y0.9922
X2.8038 Y1.0114
X2.8372 Y1.0315
X2.8702 Y1.0523
X2.9026 Y1.074
X2.9345 Y1.0964
X2.9658 Y1.1196
X2.9966 Y1.1436
X3.0268 Y1.1683
X3.0563 Y1.1937
X3.0853 Y1.2198
X3.1136 Y1.2466
X3.1412 Y1.2741
X3.1682 Y1.3023
X3.1945 Y1.3311
X3.2157 Y1.3553
X3.2218 Y1.3637
X3.2263 Y1.3732
X3.2291 Y1.3832
X3.23 Y1.3936
Y1.5498
G3 X3.2278 Y1.5593 I-0.025 J-0.0009 F30
G1 X3.2261 Y1.5629 Z-0.1993
X3.2246 Y1.5664 Z-0.1984
X3.2231 Y1.5697 Z-0.1969
X3.2217 Y1.5727 Z-0.1948
X3.2204 Y1.5754 Z-0.1923
X3.2194 Y1.5777 Z-0.1893
X3.2185 Y1.5796 Z-0.186
X3.2179 Y1.581 Z-0.1823
X3.2175 Y1.5818 Z-0.1785
X3.2174 Y1.5821 Z-0.1746
G0 Z0.2
X0.801 Y1.5086
Z-0.1496
G1 Z-0.1746 F30
X0.8007 Y1.5085 Z-0.1785
X0.7998 Y1.5084 Z-0.1823
X0.7984 Y1.5081 Z-0.186
X0.7963 Y1.5077 Z-0.1893
X0.7938 Y1.5073 Z-0.1923
X0.7909 Y1.5068 Z-0.1948
X0.7876 Y1.5062 Z-0.1969
X0.784 Y1.5055 Z-0.1984
X0.7803 Y1.5048 Z-0.1993
X0.7764 Y1.5042 Z-0.1996
G3 X0.77 Y1.4967 I0.0014 J-0.0077
G1 Y1.3552 F39.37
X0.7706 Y1.3424
X0.7726 Y1.3276
X0.776 Y1.3114
X0.7818 Y1.2924
X0.7901 Y1.271
X0.8023 Y1.2458
X0.8195 Y1.2165
X0.842 Y1.1846
X0.8667 Y1.1545
X0.8932 Y1.1258
X0.921 Y1.0985
X0.9499 Y1.0724
X0.9798 Y1.0473
X1.0104 Y1.0232
X1.0418 Y1
X1.0737 Y0.9777
X1.1063 Y0.9562
X1.1394 Y0.9356
X1.173 Y0.9159
X1.2071 Y0.8969
X1.2416 Y0.8788
X1.2765 Y0.8615
X1.3119 Y0.845
X1.3476 Y0.8293
X1.3836 Y0.8145
X1.42 Y0.8006
X1.4568 Y0.7874
X1.4938 Y0.7752
X1.5311 Y0.7638
X1.5686 Y0.7534
X1.6064 Y0.7437
X1.6444 Y0.735
X1.6826 Y0.7272
X1.721 Y0.7203
X1.7595 Y0.7142
X1.7982 Y0.7091
X1.8369 Y0.7048
X1.8758 Y0.7015
X1.9147 Y0.699
X1.9536 Y0.6975
X1.9926 Y0.6968
X2.0316 Y0.6971
X2.0706 Y0.6982
X2.1095 Y0.7003
X2.1484 Y0.7032
X2.1872 Y0.7071
X2.2259 Y0.7118
X2.2645 Y0.7175
X2.3029 Y0.7241
X2.3412 Y0.7315
X2.3793 Y0.7399
X2.4172 Y0.7491
X2.4548 Y0.7592
X2.4923 Y0.7701
X2.5294 Y0.7819
X2.5663 Y0.7946
X2.6029 Y0.8081
X2.6391 Y0.8224
X2.6751 Y0.8376
X2.7106 Y0.8536
X2.7458 Y0.8703
X2.7806 Y0.8879
X2.815 Y0.9063
X2.849 Y0.9255
X2.8825 Y0.9454
X2.9155 Y0.9661
X2.948 Y0.9876
X2.9801 Y1.0098
X3.0116 Y1.0328
X3.0426 Y1.0564
X3.0731 Y1.0808
X3.103 Y1.1058
X3.1323 Y1.1315
X3.161 Y1.1579
X3.1891 Y1.1849
X3.213 Y1.2089
X3.2202 Y1.2177
X3.2256 Y1.2278
X3.2289 Y1.2387
X3.23 Y1.25
Y1.3936
G3 X3.2278 Y1.4031 I-0.025 J-0.0009 F30
G1 X3.2261 Y1.4067 Z-0.1993
X3.2246 Y1.4101 Z-0.1984
X3.2231 Y1.4134 Z-0.1969
X3.2217 Y1.4165 Z-0.1948
X3.2204 Y1.4192 Z-0.1923
X3.2194 Y1.4215 Z-0.1893
X3.2185 Y1.4234 Z-0.186
X3.2179 Y1.4247 Z-0.1823
X3.2175 Y1.4256 Z-0.1785
X3.2174 Y1.4259 Z-0.1746
G0 Z0.2
X0.801 Y1.367
Z-0.1496
G1 Z-0.1746 F30
X0.8007 Y1.3669 Z-0.1785
X0.7998 Y1.3668 Z-0.1823
X0.7984 Y1.3665 Z-0.186
X0.7963 Y1.3661 Z-0.1893
X0.7938 Y1.3657 Z-0.1923
X0.7909 Y1.3652 Z-0.1948
X0.7876 Y1.3646 Z-0.1969
X0.784 Y1.3639 Z-0.1984
X0.7803 Y1.3633 Z-0.1993
X0.7764 Y1.3626 Z-0.1996
G3 X0.77 Y1.3552 I0.0014 J-0.0077
G1 Y1.2224 F39.37
X0.7706 Y1.21
X0.7725 Y1.196
X0.7756 Y1.1812
X0.781 Y1.1634
X0.7884 Y1.1442
X0.7995 Y1.1214
X0.8147 Y1.0955
X0.8356 Y1.0658
X0.8605 Y1.0358
X0.8874 Y1.0076
X0.9158 Y0.9809
X0.9453 Y0.9554
X0.9759 Y0.9312
X1.0072 Y0.908
X1.0392 Y0.8857
X1.0719 Y0.8644
X1.1051 Y0.8439
X1.1387 Y0.8243
X1.1729 Y0.8055
X1.2075 Y0.7875
X1.2425 Y0.7703
X1.2779 Y0.754
X1.3136 Y0.7384
X1.3497 Y0.7236
X1.3861 Y0.7096
X1.4228 Y0.6965
X1.4598 Y0.6841
X1.4971 Y0.6727
X1.5346 Y0.662
X1.5723 Y0.6522
X1.596 Y0.6466
X1.6004 Y0.6457
X1.6049 Y0.6452
X1.6094 Y0.645
X2.2964
X2.3353 Y0.6469
X2.3742 Y0.6498
X2.4128 Y0.6551
X2.4511 Y0.6624
X2.4891 Y0.6712
X2.5268 Y0.6814
X2.5641 Y0.6926
X2.6011 Y0.7049
X2.6378 Y0.7181
X2.6741 Y0.7322
X2.7101 Y0.7472
X2.7458 Y0.763
X2.7811 Y0.7796
X2.816 Y0.797
X2.8505 Y0.8151
X2.8846 Y0.834
X2.9183 Y0.8536
X2.9515 Y0.874
X2.9843 Y0.8951
X3.0166 Y0.9169
X3.0485 Y0.9394
X3.0798 Y0.9626
X3.1107 Y0.9864
X3.141 Y1.0109
X3.1708 Y1.036
X3.2001 Y1.0618
X3.2112 Y1.0721
X3.2192 Y1.0811
X3.2251 Y1.0916
X3.2288 Y1.103
X3.23 Y1.115
Y1.25
G3 X3.2278 Y1.2595 I-0.025 J-0.0009 F30
X3.1916 Y1.2702 I-0.0227 J-0.0104 F39.37
G1 X2.2838 Y0.6911
G3 X2.2869 Y0.6472 I0.0134 J-0.0211
X2.2964 Y0.645 I0.0104 J0.0227 F30
G1 X2.6153 F39.37
X2.6469 Y0.6466
X2.6782 Y0.6507
X2.7163 Y0.6588
X2.7537 Y0.6699
X2.7904 Y0.6832
X2.8264 Y0.6981
X2.8618 Y0.7143
X2.8967 Y0.7317
X2.9311 Y0.75
X2.9651 Y0.7693
X2.9985 Y0.7893
X3.0315 Y0.8102
X3.064 Y0.8317
X3.096 Y0.854
X3.1275 Y0.8769
X3.1586 Y0.9005
X3.1891 Y0.9247
X3.2089 Y0.941
X3.2178 Y0.9502
X3.2245 Y0.9611
X3.2286 Y0.9732
X3.23 Y0.9859
Y1.115
G3 X3.2278 Y1.1245 I-0.025 J-0.0009 F30
X3.19 Y1.1341 I-0.0227 J-0.0104 F39.37
G1 X2.6011 Y0.6899
G3 X2.6058 Y0.6472 I0.0151 J-0.02
X2.6153 Y0.645 I0.0104 J0.0227 F30
G1 X2.8368 F39.37
X2.8608 Y0.6462
X2.8838 Y0.6492
X2.9122 Y0.6553
X2.9473 Y0.6658
X2.9836 Y0.6799
X3.0189 Y0.6964
X3.0534 Y0.7146
X3.0871 Y0.7342
X3.1201 Y0.755
X3.1526 Y0.7766
X3.1844 Y0.7991
X3.2067 Y0.8159
X3.2147 Y0.8231
X3.2212 Y0.8317
X3.226 Y0.8414
X3.229 Y0.8518
X3.23 Y0.8625
Y0.9859
G3 X3.2278 Y0.9954 I-0.025 J-0.0009 F30
X3.1887 Y1.004 I-0.0227 J-0.0104 F39.37
G1 X2.8214 Y0.689
G3 X2.8273 Y0.6472 I0.0163 J-0.019
X2.8368 Y0.645 I0.0104 J0.0227 F30
G1 X3.0228 F39.37
X3.0429 Y0.646
X3.0627 Y0.6486
X3.0856 Y0.6535
X3.1135 Y0.6619
X3.1476 Y0.6752
X3.1827 Y0.6922
X3.2012 Y0.7031
X3.211 Y0.7102
X3.219 Y0.7193
X3.225 Y0.7298
X3.2287 Y0.7413
X3.23 Y0.7533
G3 X3.2278 Y0.7628 I-0.025 J-0.0009 F30
X3.1947 Y0.7752 I-0.0227 J-0.0104 F39.37
G1 X3.0133 Y0.6927
G3 Y0.6472 I0.0104 J-0.0228
X3.0228 Y0.645 I0.0104 J0.0227 F30
G1 X3.1823 F39.37
X3.1883 Y0.6453
X3.1994 Y0.6482
X3.2095 Y0.6536
X3.2181 Y0.6613
X3.2246 Y0.6708
X3.2286 Y0.6816
X3.23 Y0.693
G3 X3.2286 Y0.7027 I-0.0461 J-0.0016 F30
X3.172 Y0.736 I-0.0448 J-0.0113 F39.37
X3.1726 Y0.6464 I0.0119 J-0.0448
X3.1823 Y0.645 I0.0113 J0.0449 F30
G1 X3.2044 F39.37
X3.2066 Y0.6451
X3.2089 Y0.6454
X3.2118 Y0.6461
X3.2147 Y0.6473
X3.2177 Y0.6489
X3.2216 Y0.6518
X3.2238 Y0.6539
X3.2255 Y0.6561
X3.2266 Y0.6578
X3.2283 Y0.6614
X3.2294 Y0.665
X3.2298 Y0.6672
X3.23 Y0.6694
Y0.7004
Y0.8625
G3 X3.2278 Y0.872 I-0.025 J-0.0009 F30
G1 X3.2261 Y0.8756 Z-0.1993
X3.2246 Y0.879 Z-0.1984
X3.2231 Y0.8823 Z-0.1969
X3.2217 Y0.8854 Z-0.1948
X3.2204 Y0.8881 Z-0.1923
X3.2194 Y0.8904 Z-0.1893
X3.2185 Y0.8923 Z-0.186
X3.2179 Y0.8936 Z-0.1823
X3.2175 Y0.8945 Z-0.1785
X3.2174 Y0.8948 Z-0.1746
G0 Z0.2
X0.801 Y1.2343
Z-0.1496
G1 Z-0.1746 F30
X0.8007 Y1.2342 Z-0.1785
X0.7998 Y1.234 Z-0.1823
X0.7984 Y1.2338 Z-0.186
X0.7963 Y1.2334 Z-0.1893
X0.7938 Y1.233 Z-0.1923
X0.7909 Y1.2324 Z-0.1948
X0.7876 Y1.2319 Z-0.1969
X0.784 Y1.2312 Z-0.1984
X0.7803 Y1.2305 Z-0.1993
X0.7764 Y1.2298 Z-0.1996
G3 X0.77 Y1.2224 I0.0014 J-0.0077
G1 Y1.0985 F39.37
X0.7707 Y1.0836
X0.7724 Y1.0708
X0.7755 Y1.0566
X0.7805 Y1.0398
X0.7875 Y1.0219
X0.7977 Y1.0009
X0.8116 Y0.9772
X0.8304 Y0.9504
X0.8553 Y0.9204
X0.8824 Y0.8924
X0.9112 Y0.8661
X0.9413 Y0.8413
X0.9723 Y0.8177
X1.0042 Y0.7952
X1.0367 Y0.7738
X1.0699 Y0.7533
X1.1036 Y0.7337
X1.1378 Y0.7149
X1.1724 Y0.6969
X1.2074 Y0.6798
X1.2428 Y0.6634
X1.2738 Y0.6499
X1.2814 Y0.6472
X1.2892 Y0.6455
X1.2972 Y0.645
X1.6094
G3 X1.6189 Y0.6472 I-0.0009 J0.025 F30
X1.6202 Y0.6921 I-0.0104 J0.0227 F39.37
G1 X0.8066 Y1.1198
G3 X0.7722 Y1.108 I-0.0116 J-0.0221
X0.77 Y1.0985 I0.0227 J-0.0104 F30
G1 Y0.9747 F39.37
X0.7706 Y0.9622
X0.7722 Y0.9504
X0.7752 Y0.9365
X0.7799 Y0.9207
X0.7866 Y0.9035
X0.7962 Y0.8837
X0.8092 Y0.8615
X0.8266 Y0.8368
X0.8504 Y0.8081
X0.8777 Y0.7802
X0.9067 Y0.7542
X0.9371 Y0.7297
X0.9685 Y0.7067
X1.0008 Y0.6848
X1.0337 Y0.664
X1.0522 Y0.6531
X1.0616 Y0.6486
X1.0715 Y0.6459
X1.0819 Y0.645
X1.2972
G3 X1.3067 Y0.6472 I-0.0009 J0.025 F30
X1.3093 Y0.6914 I-0.0104 J0.0227 F39.37
G1 X0.8079 Y0.9952
G3 X0.7722 Y0.9842 I-0.013 J-0.0214
X0.77 Y0.9747 I0.0227 J-0.0104 F30
G1 Y0.8596 F39.37
X0.7708 Y0.8445
X0.7723 Y0.833
X0.7752 Y0.8192
X0.7797 Y0.8044
X0.7862 Y0.7877
X0.7953 Y0.769
X0.8077 Y0.7477
X0.824 Y0.7245
X0.8462 Y0.6978
X0.8735 Y0.6699
X0.885 Y0.6597
X0.8935 Y0.6534
X0.903 Y0.6488
X0.9132 Y0.646
X0.9237 Y0.645
X1.0819
G3 X1.0913 Y0.6472 I-0.0009 J0.025 F30
X1.0948 Y0.6908 I-0.0104 J0.0227 F39.37
G1 X0.8088 Y0.8796
G3 X0.7722 Y0.8691 I-0.0138 J-0.0209
X0.77 Y0.8596 I0.0227 J-0.0104 F30
G1 Y0.7446 F39.37
X0.7707 Y0.73
X0.7722 Y0.7184
X0.7752 Y0.7047
X0.7794 Y0.6907
X0.7827 Y0.6822
X0.788 Y0.6718
X0.7952 Y0.6627
X0.8041 Y0.6552
X0.8144 Y0.6496
X0.8255 Y0.6462
X0.8371 Y0.645
G3 X0.8466 Y0.6472 I-0.0009 J0.025 F30
X0.858 Y0.6822 I-0.0104 J0.0227 F39.37
G1 X0.8168 Y0.7559
G3 X0.7722 Y0.7541 I-0.0218 J-0.0122
X0.77 Y0.7446 I0.0227 J-0.0104 F30
G1 Y0.6738 F39.37
Y0.6694
X0.7702 Y0.6672
X0.7706 Y0.665
X0.7714 Y0.6622
X0.7726 Y0.6594
X0.7745 Y0.6561
X0.7761 Y0.6541
X0.778 Y0.6521
X0.7797 Y0.6505
X0.7815 Y0.6493
X0.785 Y0.6473
X0.7877 Y0.6462
X0.7903 Y0.6455
X0.7925 Y0.6452
X0.7948 Y0.645
X0.9237
X0.9258 Y0.6455 Z-0.1994 F30
X0.9278 Y0.6459 Z-0.1986
X0.9296 Y0.6463 Z-0.1975
X0.9311 Y0.6466 Z-0.1959
X0.9323 Y0.6468 Z-0.1941
X0.9329 Y0.6471 Z-0.192
X0.9332 Y0.6472 Z-0.1898
G0 Z0.2
X1.8813 Y2.3719
Z-0.0746
G1 Z-0.0996 F30
G3 X2.1187 Y2.3736 Z-0.1126 I0.1187 J0.0009 F13.12
X1.8813 Y2.3719 Z-0.1257 I-0.1187 J-0.0009
X2.1187 Y2.3736 Z-0.1387 I0.1187 J0.0009
X1.8813 Y2.3719 Z-0.1517 I-0.1187 J-0.0009
X2.1187 Y2.3736 Z-0.1647 I0.1187 J0.0009
X1.8813 Y2.3719 Z-0.1778 I-0.1187 J-0.0009
X2.1187 Y2.3736 Z-0.1908 I0.1187 J0.0009
X1.8813 Y2.3719 Z-0.2038 I-0.1187 J-0.0009
X2.1187 Y2.3736 Z-0.2169 I0.1187 J0.0009
X1.8813 Y2.3719 Z-0.2299 I-0.1187 J-0.0009
X2.1187 Y2.3736 Z-0.2429 I0.1187 J0.0009
X1.8813 Y2.3719 Z-0.2559 I-0.1187 J-0.0009
X2.1187 Y2.3736 Z-0.269 I0.1187 J0.0009
X1.8813 Y2.3719 Z-0.282 I-0.1187 J-0.0009
X2.1187 Y2.3736 Z-0.295 I0.1187 J0.0009
X1.8813 Y2.3719 Z-0.308 I-0.1187 J-0.0009
X2.1187 Y2.3736 Z-0.3211 I0.1187 J0.0009
X1.8813 Y2.3719 Z-0.3341 I-0.1187 J-0.0009
X2.1187 Y2.3736 Z-0.3471 I0.1187 J0.0009
X1.8813 Y2.3719 Z-0.3602 I-0.1187 J-0.0009
X2.1187 Y2.3736 Z-0.3732 I0.1187 J0.0009
X1.8813 Y2.3719 Z-0.3862 I-0.1187 J-0.0009
X2.1187 Y2.3728 Z-0.3992 I0.1187 J0.0009
X1.8812 I-0.1188 J0
X2.1187 I0.1188 J0
G1 X2.1189 Y2.3825 F39.37
X2.126 Y2.4208
X2.1275 Y2.4255
X2.1287 Y2.4314
X2.1294 Y2.4373
X2.1295 Y2.4433
X2.1291 Y2.4498
X2.1281 Y2.4566
X2.1265 Y2.4637
X2.1242 Y2.4712
X2.1212 Y2.4789
X2.1173 Y2.4867
X2.1126 Y2.4945
X2.107 Y2.5023
X2.1005 Y2.51
X2.0932 Y2.5173
X2.0849 Y2.5244
X2.0759 Y2.5309
X2.066 Y2.5369
X2.0554 Y2.5423
X2.0441 Y2.5469
X2.0322 Y2.5507
X2.0197 Y2.5535
X2.0068 Y2.5554
X1.9936 Y2.5563
X1.9801 Y2.5561
X1.9665 Y2.5548
X1.9528 Y2.5523
X1.9393 Y2.5488
X1.9259 Y2.5441
X1.9128 Y2.5383
X1.9001 Y2.5314
X1.888 Y2.5235
X1.8764 Y2.5146
X1.8656 Y2.5047
X1.8555 Y2.4939
X1.8463 Y2.4823
X1.838 Y2.47
X1.8307 Y2.457
X1.8244 Y2.4434
X1.8193 Y2.4293
X1.8153 Y2.4148
X1.8124 Y2.4
X1.8108 Y2.385
X1.8103 Y2.3699
X1.8111 Y2.3547
X1.8131 Y2.3397
X1.8163 Y2.3249
X1.8207 Y2.3103
X1.8262 Y2.2962
X1.8329 Y2.2825
X1.8406 Y2.2694
X1.8494 Y2.257
X1.8591 Y2.2453
X1.8697 Y2.2344
X1.8812 Y2.2244
X1.8935 Y2.2153
X1.9065 Y2.2073
X1.92 Y2.2003
X1.9341 Y2.1945
X1.9486 Y2.1897
X1.9635 Y2.1862
X1.9785 Y2.1839
X1.9938 Y2.1827
X2.009 Y2.1829
X2.0242 Y2.1842
X2.0393 Y2.1867
X2.0541 Y2.1905
X2.0685 Y2.1954
X2.0825 Y2.2015
X2.096 Y2.2086
X2.1089 Y2.2169
X2.121 Y2.2261
X2.1324 Y2.2363
X2.1429 Y2.2474
X2.1525 Y2.2592
X2.1612 Y2.2719
X2.1738 Y2.294
X2.1877 Y2.3236
X2.1962 Y2.3462
X2.202 Y2.3665
X2.2058 Y2.3852
X2.2079 Y2.4033
X2.2085 Y2.4208
X2.2078 Y2.4378
X2.2058 Y2.4543
X2.2024 Y2.4705
X2.1978 Y2.4863
X2.1919 Y2.5016
X2.1848 Y2.5166
X2.1765 Y2.531
X2.1669 Y2.5447
X2.1562 Y2.5579
X2.1443 Y2.5702
X2.1314 Y2.5817
X2.1173 Y2.5922
X2.1023 Y2.6017
X2.0863 Y2.6101
X2.0694 Y2.6173
X2.0518 Y2.6232
X2.0336 Y2.6277
X2.0148 Y2.6308
X1.9956 Y2.6323
X1.9762 Y2.6324
X1.9566 Y2.6308
X1.937 Y2.6276
X1.9176 Y2.6229
X1.8985 Y2.6166
X1.8798 Y2.6087
X1.8617 Y2.5992
X1.8443 Y2.5883
X1.8278 Y2.5759
X1.8122 Y2.5622
X1.7977 Y2.5472
X1.7844 Y2.531
X1.7724 Y2.5138
X1.7618 Y2.4955
X1.7526 Y2.4765
X1.745 Y2.4567
X1.739 Y2.4362
X1.7346 Y2.4154
X1.7319 Y2.3942
X1.731 Y2.3728
X1.7317 Y2.3514
X1.7342 Y2.33
X1.7383 Y2.3089
X1.7442 Y2.2882
X1.7517 Y2.2681
X1.7608 Y2.2485
X1.7715 Y2.2298
X1.7836 Y2.2119
X1.7972 Y2.1951
X1.812 Y2.1794
X1.8281 Y2.165
X1.8453 Y2.1518
X1.8635 Y2.1401
X1.8825 Y2.1299
X1.9024 Y2.1213
X1.9229 Y2.1142
X1.9438 Y2.1089
X1.9652 Y2.1052
X1.9867 Y2.1033
X2.0084 Y2.1031
X2.03 Y2.1046
X2.0514 Y2.1079
X2.0725 Y2.1128
X2.0931 Y2.1195
X2.1131 Y2.1278
X2.1324 Y2.1376
X2.1509 Y2.149
X2.1683 Y2.1619
X2.1862 Y2.1774
X2.2048 Y2.1962
X2.2221 Y2.2169
X2.2382 Y2.2396
X2.2523 Y2.2635
X2.2643 Y2.2879
X2.274 Y2.3126
X2.2815 Y2.3374
X2.2869 Y2.3621
X2.2902 Y2.3867
X2.2916 Y2.4111
X2.2909 Y2.4353
X2.2883 Y2.4592
X2.2839 Y2.4826
X2.2776 Y2.5055
X2.2695 Y2.5278
X2.2597 Y2.5493
X2.2482 Y2.57
X2.2349 Y2.5898
X2.2201 Y2.6086
X2.2037 Y2.6262
X2.1858 Y2.6425
X2.1666 Y2.6575
X2.146 Y2.671
X2.1242 Y2.6828
X2.1014 Y2.693
X2.0776 Y2.7014
X2.053 Y2.7079
X2.0278 Y2.7125
X2.0021 Y2.715
X1.9761 Y2.7154
X1.95 Y2.7138
X1.9239 Y2.71
X1.898 Y2.7042
X1.8725 Y2.6962
X1.8476 Y2.6861
X1.8235 Y2.674
X1.8003 Y2.66
X1.7782 Y2.644
X1.7573 Y2.6263
X1.7379 Y2.6068
X1.72 Y2.5858
X1.7038 Y2.5633
X1.6894 Y2.5395
X1.677 Y2.5146
X1.6665 Y2.4887
X1.6582 Y2.462
X1.652 Y2.4346
X1.648 Y2.4068
X1.6462 Y2.3786
X1.6468 Y2.3504
X1.6495 Y2.3223
X1.6546 Y2.2945
X1.6618 Y2.2672
X1.6713 Y2.2405
X1.6828 Y2.2146
X1.6965 Y2.1897
X1.712 Y2.166
X1.7295 Y2.1436
X1.7487 Y2.1226
X1.7695 Y2.1033
X1.7918 Y2.0856
X1.8155 Y2.0698
X1.8403 Y2.056
X1.8662 Y2.0442
X1.893 Y2.0345
X1.9204 Y2.027
X1.9484 Y2.0217
X1.9767 Y2.0187
X2.0052 Y2.018
X2.0336 Y2.0195
X2.0619 Y2.0234
X2.0897 Y2.0294
X2.117 Y2.0377
X2.1435 Y2.0482
X2.1695 Y2.061
X2.1953 Y2.0763
X2.2205 Y2.0942
X2.245 Y2.1147
X2.2682 Y2.1375
X2.2898 Y2.1625
X2.3093 Y2.1892
X2.3267 Y2.2173
X2.3416 Y2.2466
X2.3541 Y2.2768
X2.364 Y2.3076
X2.3713 Y2.3388
X2.3761 Y2.3703
X2.3783 Y2.4017
X2.378 Y2.4331
X2.3752 Y2.4642
X2.3699 Y2.4948
X2.3622 Y2.5247
X2.3521 Y2.554
X2.3398 Y2.5823
X2.3251 Y2.6095
X2.3084 Y2.6355
X2.2895 Y2.6602
X2.2686 Y2.6834
X2.2459 Y2.7049
X2.2214 Y2.7246
X2.1952 Y2.7423
X2.1675 Y2.758
X2.1385 Y2.7716
X2.1083 Y2.7828
X2.0771 Y2.7916
X2.0451 Y2.7979
X2.0126 Y2.8016
X1.9796 Y2.8027
X1.9465 Y2.8012
X1.9135 Y2.797
X1.8807 Y2.7901
X1.8484 Y2.7806
X1.8168 Y2.7684
X1.7862 Y2.7537
X1.7568 Y2.7365
X1.7287 Y2.7169
X1.7021 Y2.6951
X1.6773 Y2.6711
X1.6545 Y2.6451
X1.6338 Y2.6173
X1.6153 Y2.5878
X1.5991 Y2.5568
X1.5855 Y2.5246
X1.5745 Y2.4914
X1.5662 Y2.4573
X1.5607 Y2.4225
X1.5579 Y2.3874
X1.558 Y2.3522
X1.5609 Y2.317
X1.5666 Y2.2821
X1.5751 Y2.2477
X1.5864 Y2.2142
X1.6003 Y2.1816
X1.6168 Y2.1502
X1.6358 Y2.1202
X1.6571 Y2.0918
X1.6807 Y2.0652
X1.7063 Y2.0406
X1.7338 Y2.0181
X1.7631 Y1.9979
X1.7939 Y1.9801
X1.826 Y1.9648
X1.8593 Y1.9521
X1.8934 Y1.9422
X1.9283 Y1.935
X1.9636 Y1.9307
X1.9992 Y1.9292
X2.0348 Y1.9305
X2.0702 Y1.9347
X2.1052 Y1.9418
X2.1397 Y1.9517
X2.1737 Y1.9644
X2.2071 Y1.9801
X2.2395 Y1.9987
X2.271 Y2.0203
X2.3011 Y2.0447
X2.3293 Y2.0716
X2.3553 Y2.1006
X2.379 Y2.1316
X2.4001 Y2.1644
X2.4186 Y2.1988
X2.4343 Y2.2344
X2.4471 Y2.2713
X2.457 Y2.309
X2.4638 Y2.3474
X2.4675 Y2.386
X2.4681 Y2.4246
X2.4656 Y2.463
X2.4601 Y2.501
X2.4515 Y2.5383
X2.44 Y2.5748
X2.4256 Y2.6102
X2.4084 Y2.6443
X2.3885 Y2.677
X2.366 Y2.7081
X2.341 Y2.7373
X2.3137 Y2.7645
X2.2842 Y2.7895
X2.2526 Y2.8121
X2.2192 Y2.8322
X2.1843 Y2.8496
X2.1481 Y2.8641
X2.1109 Y2.8757
X2.0728 Y2.8844
X2.0343 Y2.89
X1.9954 Y2.8926
X1.9564 Y2.8921
X1.9175 Y2.8886
X1.8791 Y2.8822
X1.8412 Y2.8728
X1.8042 Y2.8606
X1.7682 Y2.8455
X1.7335 Y2.8278
X1.7002 Y2.8076
X1.6685 Y2.7849
X1.6386 Y2.7598
X1.6108 Y2.7325
X1.585 Y2.7032
X1.5616 Y2.6721
X1.5405 Y2.6393
X1.5219 Y2.605
X1.5059 Y2.5695
X1.4926 Y2.5328
X1.482 Y2.4953
X1.4742 Y2.4571
X1.4691 Y2.4184
X1.467 Y2.3795
X1.4677 Y2.3405
X1.4713 Y2.3017
X1.4778 Y2.2632
X1.4871 Y2.2254
X1.4992 Y2.1883
X1.514 Y2.1522
X1.5313 Y2.1173
X1.5512 Y2.0838
X1.5734 Y2.0517
X1.5979 Y2.0214
X1.6246 Y1.9929
X1.6532 Y1.9665
X1.6837 Y1.9422
X1.7159 Y1.9202
X1.7497 Y1.9007
X1.7848 Y1.8838
X1.8211 Y1.8694
X1.8583 Y1.8577
X1.8962 Y1.8487
X1.9347 Y1.8425
X1.9735 Y1.8391
X2.0125 Y1.8386
X2.0515 Y1.8408
X2.0901 Y1.8459
X2.1283 Y1.8539
X2.1658 Y1.8646
X2.2024 Y1.878
X2.238 Y1.894
X2.2723 Y1.9124
X2.3054 Y1.933
X2.337 Y1.9559
X2.3668 Y1.981
X2.3949 Y2.008
X2.4211 Y2.0369
X2.4453 Y2.0675
X2.4675 Y2.0996
X2.4875 Y2.133
X2.5052 Y2.1678
X2.5205 Y2.2036
X2.5333 Y2.2405
X2.5436 Y2.2781
X2.5514 Y2.3163
X2.5567 Y2.3549
X2.5594 Y2.3938
X2.5593 Y2.4328
X2.5565 Y2.4717
X2.5511 Y2.5103
X2.5431 Y2.5484
X2.5325 Y2.586
X2.5194 Y2.6227
X2.5038 Y2.6585
X2.4858 Y2.693
X2.4654 Y2.7262
X2.4427 Y2.758
X2.418 Y2.7881
X2.3913 Y2.8165
X2.3627 Y2.8431
X2.3324 Y2.8676
X2.3005 Y2.89
X2.2671 Y2.9101
X2.2324 Y2.9279
X2.1966 Y2.9434
X2.1599 Y2.9566
X2.1224 Y2.9672
X2.0843 Y2.9753
X2.0457 Y2.9808
X2.0068 Y2.9837
X1.9678 Y2.9841
X1.9289 Y2.9819
X1.8901 Y2.9773
X1.8518 Y2.9701
X1.8141 Y2.9604
X1.777 Y2.9482
X1.7408 Y2.9337
X1.7056 Y2.9169
X1.6716 Y2.898
X1.6388 Y2.8769
X1.6075 Y2.8536
X1.5777 Y2.8284
X1.5497 Y2.8013
X1.5234 Y2.7725
X1.499 Y2.7421
X1.4765 Y2.7103
X1.4561 Y2.677
X1.4379 Y2.6425
X1.422 Y2.607
X1.4083 Y2.5705
X1.3969 Y2.5332
X1.3878 Y2.4952
X1.3811 Y2.4568
X1.3768 Y2.4181
X1.375 Y2.3791
X1.3757 Y2.3402
X1.3789 Y2.3013
X1.3844 Y2.2627
X1.3924 Y2.2245
X1.4026 Y2.1869
X1.4153 Y2.15
X1.4303 Y2.114
X1.4475 Y2.0791
X1.4669 Y2.0452
X1.4882 Y2.0126
X1.5116 Y1.9814
X1.5368 Y1.9516
X1.5638 Y1.9235
X1.5926 Y1.8972
X1.623 Y1.8728
X1.6549 Y1.8503
X1.688 Y1.8298
X1.7224 Y1.8114
X1.7578 Y1.7952
X1.7943 Y1.7813
X1.8315 Y1.7696
X1.8694 Y1.7604
X1.9077 Y1.7534
X1.9464 Y1.7488
X1.9854 Y1.7466
X2.0244 Y1.7468
X2.0633 Y1.7495
X2.1019 Y1.7547
X2.1402 Y1.7622
X2.1779 Y1.7721
X2.2149 Y1.7842
X2.2512 Y1.7986
X2.2865 Y1.8151
X2.3208 Y1.8337
X2.3538 Y1.8544
X2.3856 Y1.877
X2.416 Y1.9014
X2.4449 Y1.9276
X2.4723 Y1.9553
X2.498 Y1.9846
X2.522 Y2.0154
X2.5441 Y2.0475
X2.5643 Y2.0809
X2.5825 Y2.1153
X2.5988 Y2.1508
X2.6129 Y2.1871
X2.6251 Y2.2241
X2.6349 Y2.2619
X2.6426 Y2.3001
X2.648 Y2.3387
X2.6511 Y2.3776
X2.652 Y2.4165
X2.6506 Y2.4555
X2.647 Y2.4943
X2.641 Y2.5329
X2.6328 Y2.571
X2.6223 Y2.6085
X2.6097 Y2.6454
X2.5949 Y2.6815
X2.578 Y2.7166
X2.5591 Y2.7507
X2.5382 Y2.7836
X2.5153 Y2.8152
X2.4906 Y2.8454
X2.4643 Y2.8741
X2.4362 Y2.9013
X2.4067 Y2.9267
X2.3758 Y2.9504
X2.3434 Y2.9723
X2.3099 Y2.9921
X2.2752 Y3.01
X2.2396 Y3.0259
X2.2032 Y3.0396
X2.166 Y3.0513
X2.1282 Y3.0609
X2.0899 Y3.0682
X2.0512 Y3.0733
X2.0123 Y3.0762
X1.9733 Y3.0768
X1.9344 Y3.0753
X1.8956 Y3.0715
X1.857 Y3.0656
X1.8189 Y3.0576
X1.7812 Y3.0474
X1.7443 Y3.035
X1.708 Y3.0206
X1.6727 Y3.0042
X1.6382 Y2.9859
X1.6049 Y2.9657
X1.5727 Y2.9437
X1.5418 Y2.9199
X1.5123 Y2.8944
X1.4843 Y2.8673
X1.4578 Y2.8386
X1.433 Y2.8086
X1.4098 Y2.7772
X1.3884 Y2.7447
X1.3688 Y2.711
X1.351 Y2.6762
X1.3353 Y2.6406
X1.3216 Y2.6041
X1.3098 Y2.5669
X1.3001 Y2.5291
X1.2924 Y2.4909
X1.2868 Y2.4523
X1.2833 Y2.4135
X1.282 Y2.3745
X1.2829 Y2.3355
X1.2859 Y2.2967
X1.291 Y2.258
X1.2982 Y2.2197
X1.3074 Y2.1818
X1.3187 Y2.1445
X1.332 Y2.1078
X1.3473 Y2.072
X1.3645 Y2.037
X1.3837 Y2.003
X1.4046 Y1.9701
X1.4272 Y1.9384
X1.4516 Y1.9079
X1.4775 Y1.8788
X1.505 Y1.8511
X1.534 Y1.8251
X1.5643 Y1.8006
X1.596 Y1.7779
X1.6288 Y1.7568
X1.6627 Y1.7376
X1.6976 Y1.7202
X1.7334 Y1.7047
X1.77 Y1.6913
X1.8073 Y1.6798
X1.8451 Y1.6704
X1.8834 Y1.6631
X1.9221 Y1.6578
X1.9609 Y1.6546
X1.9999 Y1.6534
X2.0389 Y1.6544
X2.0777 Y1.6575
X2.1164 Y1.6628
X2.1547 Y1.6702
X2.1925 Y1.6795
X2.2298 Y1.6909
X2.2664 Y1.7042
X2.3024 Y1.7194
X2.3374 Y1.7365
X2.3715 Y1.7554
X2.4045 Y1.7761
X2.4364 Y1.7986
X2.4671 Y1.8226
X2.4966 Y1.8481
X2.5247 Y1.8752
X2.5514 Y1.9036
X2.5766 Y1.9333
X2.6003 Y1.9643
X2.6223 Y1.9965
X2.6426 Y2.0297
X2.6612 Y2.064
X2.6781 Y2.0992
X2.6932 Y2.1351
X2.7065 Y2.1718
X2.7179 Y2.209
X2.7273 Y2.2469
X2.7348 Y2.2851
X2.7403 Y2.3238
X2.7438 Y2.3626
X2.7453 Y2.4015
X2.7448 Y2.4405
X2.7424 Y2.4794
X2.738 Y2.5182
X2.7315 Y2.5566
X2.7231 Y2.5947
X2.7127 Y2.6323
X2.7003 Y2.6693
X2.6861 Y2.7056
X2.67 Y2.7411
X2.6522 Y2.7758
X2.6326 Y2.8095
X2.6112 Y2.8421
X2.5882 Y2.8736
X2.5636 Y2.9038
X2.5374 Y2.9327
X2.5098 Y2.9602
X2.4809 Y2.9864
X2.4506 Y3.011
X2.4192 Y3.034
X2.3866 Y3.0554
X2.3529 Y3.0751
X2.3183 Y3.093
X2.2827 Y3.1091
X2.2465 Y3.1234
X2.2095 Y3.1358
X2.172 Y3.1464
X2.134 Y3.1551
X2.0956 Y3.1619
X2.0569 Y3.1667
X2.018 Y3.1695
X1.979 Y3.1704
X1.9401 Y3.1693
X1.9012 Y3.1663
X1.8625 Y3.1614
X1.8241 Y3.1545
X1.7861 Y3.1459
X1.7486 Y3.1353
X1.7116 Y3.1228
X1.6754 Y3.1084
X1.6399 Y3.0924
X1.6052 Y3.0746
X1.5714 Y3.0551
X1.5386 Y3.034
X1.5068 Y3.0114
X1.4763 Y2.9872
X1.4469 Y2.9615
X1.4189 Y2.9343
X1.3923 Y2.9059
X1.3671 Y2.8761
X1.3433 Y2.8452
X1.3211 Y2.8132
X1.3004 Y2.7802
X1.2813 Y2.7462
X1.2639 Y2.7112
X1.2483 Y2.6755
X1.2345 Y2.6391
X1.2224 Y2.602
X1.2121 Y2.5644
X1.2037 Y2.5263
X1.197 Y2.4879
X1.1922 Y2.4492
X1.1893 Y2.4103
X1.1883 Y2.3713
X1.1892 Y2.3324
X1.192 Y2.2935
X1.1967 Y2.2548
X1.2032 Y2.2163
X1.2115 Y2.1782
X1.2217 Y2.1406
X1.2336 Y2.1035
X1.2473 Y2.067
X1.2628 Y2.0312
X1.2801 Y1.9962
X1.2989 Y1.9621
X1.3194 Y1.9289
X1.3415 Y1.8968
X1.365 Y1.8657
X1.39 Y1.8357
X1.4164 Y1.807
X1.4441 Y1.7796
X1.4732 Y1.7537
X1.5035 Y1.7291
X1.535 Y1.7061
X1.5675 Y1.6846
X1.601 Y1.6646
X1.6353 Y1.6462
X1.6706 Y1.6295
X1.7066 Y1.6145
X1.7433 Y1.6013
X1.7805 Y1.5899
X1.8183 Y1.5803
X1.8565 Y1.5726
X1.8951 Y1.5666
X1.9338 Y1.5625
X1.9728 Y1.5601
X2.0118 Y1.5597
X2.0507 Y1.5611
X2.0896 Y1.5645
X2.1282 Y1.5697
X2.1665 Y1.5768
X2.2045 Y1.5857
X2.242 Y1.5963
X2.279 Y1.6087
X2.3154 Y1.6227
X2.3511 Y1.6385
X2.3859 Y1.6559
X2.4199 Y1.6749
X2.453 Y1.6956
X2.4851 Y1.7177
X2.5161 Y1.7413
X2.5461 Y1.7663
X2.5749 Y1.7926
X2.6024 Y1.8202
X2.6287 Y1.849
X2.6537 Y1.879
X2.6772 Y1.9101
X2.6992 Y1.9422
X2.7198 Y1.9753
X2.7388 Y2.0094
X2.7564 Y2.0442
X2.7723 Y2.0798
X2.7866 Y2.116
X2.7993 Y2.1529
X2.8103 Y2.1903
X2.8196 Y2.2282
X2.827 Y2.2665
X2.8327 Y2.305
X2.8367 Y2.3438
X2.8389 Y2.3828
X2.8393 Y2.4217
X2.838 Y2.4607
X2.835 Y2.4996
X2.8301 Y2.5383
X2.8235 Y2.5767
X2.815 Y2.6147
X2.8048 Y2.6524
X2.7929 Y2.6895
X2.7793 Y2.726
X2.764 Y2.7619
X2.7472 Y2.7971
X2.7288 Y2.8315
X2.7088 Y2.865
X2.6873 Y2.8975
X2.6642 Y2.9289
X2.6398 Y2.9593
X2.614 Y2.9885
X2.5868 Y3.0165
X2.5585 Y3.0433
X2.529 Y3.0688
X2.4983 Y3.0929
X2.4666 Y3.1156
X2.4339 Y3.1368
X2.4002 Y3.1564
X2.3657 Y3.1745
X2.3303 Y3.191
X2.2943 Y3.2059
X2.2576 Y3.2191
X2.2204 Y3.2308
X2.1827 Y3.2408
X2.1446 Y3.249
X2.1062 Y3.2555
X2.0675 Y3.2603
X2.0286 Y3.2632
X1.9896 Y3.2645
X1.9506 Y3.264
X1.9117 Y3.2618
X1.8729 Y3.2579
X1.8343 Y3.2523
X1.796 Y3.245
X1.7581 Y3.236
X1.7206 Y3.2252
X1.6836 Y3.2128
X1.6473 Y3.1988
X1.6115 Y3.1832
X1.5765 Y3.166
X1.5423 Y3.1474
X1.5089 Y3.1273
X1.4764 Y3.1057
X1.4449 Y3.0828
X1.4144 Y3.0584
X1.3851 Y3.0327
X1.357 Y3.0057
X1.33 Y2.9775
X1.3043 Y2.9482
X1.2799 Y2.9178
X1.2568 Y2.8864
X1.2351 Y2.854
X1.2148 Y2.8207
X1.196 Y2.7866
X1.1787 Y2.7516
X1.163 Y2.7159
X1.1488 Y2.6796
X1.1363 Y2.6427
X1.1253 Y2.6053
X1.1159 Y2.5674
X1.1082 Y2.5292
X1.1021 Y2.4907
X1.0976 Y2.452
X1.0949 Y2.4131
X1.0939 Y2.3741
X1.0947 Y2.3351
X1.0971 Y2.2962
X1.1011 Y2.2574
X1.1069 Y2.2188
X1.1142 Y2.1806
X1.1232 Y2.1426
X1.1338 Y2.1051
X1.146 Y2.0681
X1.1598 Y2.0316
X1.1753 Y1.9958
X1.1922 Y1.9607
X1.2107 Y1.9263
X1.2306 Y1.8928
X1.2519 Y1.8602
X1.2745 Y1.8284
X1.2985 Y1.7977
X1.3238 Y1.768
X1.3504 Y1.7395
X1.3782 Y1.7121
X1.4071 Y1.686
X1.4372 Y1.6612
X1.4683 Y1.6377
X1.5004 Y1.6155
X1.5334 Y1.5947
X1.5672 Y1.5754
X1.6018 Y1.5574
X1.6372 Y1.541
X1.6733 Y1.5262
X1.7099 Y1.513
X1.7472 Y1.5013
X1.7848 Y1.4913
X1.8229 Y1.4829
X1.8613 Y1.4761
X1.8999 Y1.4709
X1.9388 Y1.4674
X1.9777 Y1.4655
X2.0167 Y1.4653
X2.0557 Y1.4668
X2.0945 Y1.4701
X2.1332 Y1.475
X2.1716 Y1.4816
X2.2098 Y1.4897
X2.2475 Y1.4995
X2.2848 Y1.5108
X2.3216 Y1.5236
X2.3579 Y1.538
X2.3935 Y1.5539
X2.4283 Y1.5714
X2.4624 Y1.5903
X2.4957 Y1.6106
X2.5281 Y1.6323
X2.5596 Y1.6553
X2.5901 Y1.6796
X2.6196 Y1.7051
X2.6481 Y1.7318
X2.6754 Y1.7595
X2.7016 Y1.7885
X2.7265 Y1.8185
X2.7501 Y1.8495
X2.7724 Y1.8814
X2.7935 Y1.9143
X2.8131 Y1.9479
X2.8314 Y1.9824
X2.8483 Y2.0175
X2.8638 Y2.0533
X2.8779 Y2.0897
X2.8904 Y2.1266
X2.9013 Y2.164
X2.9106 Y2.2019
X2.9184 Y2.2401
X2.9246 Y2.2786
X2.9293 Y2.3173
X2.9324 Y2.3562
X2.9339 Y2.3951
X2.9338 Y2.4341
X2.9322 Y2.4731
X2.9289 Y2.5119
X2.924 Y2.5506
X2.9174 Y2.589
X2.9093 Y2.6272
X2.8995 Y2.6649
X2.8883 Y2.7023
X2.8755 Y2.7391
X2.8613 Y2.7754
X2.8456 Y2.8111
X2.8285 Y2.8461
X2.8099 Y2.8804
X2.7898 Y2.9138
X2.7684 Y2.9464
X2.7457 Y2.9781
X2.7216 Y3.0088
X2.6963 Y3.0384
X2.6699 Y3.0671
X2.6423 Y3.0946
X2.6136 Y3.121
X2.5838 Y3.1463
X2.5531 Y3.1702
X2.5213 Y3.1928
X2.4887 Y3.2141
X2.4551 Y3.234
X2.4208 Y3.2526
X2.3858 Y3.2697
X2.3501 Y3.2854
X2.3138 Y3.2997
X2.277 Y3.3125
X2.2397 Y3.3238
X2.202 Y3.3336
X2.1638 Y3.3418
X2.1254 Y3.3484
X2.0867 Y3.3534
X2.0479 Y3.3569
X2.009 Y3.3588
X1.97 Y3.3591
X1.931 Y3.3579
X1.8921 Y3.3552
X1.8533 Y3.351
X1.8148 Y3.3451
X1.7765 Y3.3377
X1.7386 Y3.3288
X1.701 Y3.3183
X1.6639 Y3.3063
X1.6273 Y3.2928
X1.5913 Y3.278
X1.5559 Y3.2617
X1.5211 Y3.244
X1.487 Y3.225
X1.4538 Y3.2047
X1.4214 Y3.183
X1.3899 Y3.16
X1.3593 Y3.1358
X1.3297 Y3.1104
X1.3012 Y3.0838
X1.2738 Y3.0561
X1.2474 Y3.0274
X1.2222 Y2.9977
X1.1981 Y2.967
X1.1752 Y2.9354
X1.1537 Y2.9029
X1.1334 Y2.8696
X1.1145 Y2.8355
X1.097 Y2.8007
X1.0809 Y2.7652
X1.0661 Y2.7291
X1.0528 Y2.6924
X1.0409 Y2.6553
X1.0305 Y2.6177
X1.0214 Y2.5798
X1.0139 Y2.5415
X1.0079 Y2.503
X1.0035 Y2.4643
X1.0006 Y2.4254
X0.9992 Y2.3864
X0.9994 Y2.3474
X1.0011 Y2.3085
X1.0043 Y2.2696
X1.009 Y2.2309
X1.0151 Y2.1924
X1.0228 Y2.1542
X1.0319 Y2.1163
X1.0425 Y2.0788
X1.0547 Y2.0417
X1.0683 Y2.0052
X1.0833 Y1.9692
X1.0997 Y1.9338
X1.1174 Y1.8991
X1.1365 Y1.8651
X1.1568 Y1.8318
X1.1784 Y1.7993
X1.2013 Y1.7677
X1.2254 Y1.7371
X1.2507 Y1.7074
X1.2771 Y1.6788
X1.3047 Y1.6512
X1.3333 Y1.6247
X1.3629 Y1.5993
X1.3935 Y1.5751
X1.4249 Y1.5521
X1.4573 Y1.5303
X1.4904 Y1.5098
X1.5243 Y1.4905
X1.559 Y1.4727
X1.5943 Y1.4562
X1.6303 Y1.4411
X1.6668 Y1.4275
X1.7038 Y1.4153
X1.7413 Y1.4045
X1.7792 Y1.3952
X1.8174 Y1.3873
X1.8558 Y1.3809
X1.8945 Y1.3759
X1.9333 Y1.3725
X1.9723 Y1.3707
X2.0113 Y1.3703
X2.0502 Y1.3716
X2.0891 Y1.3743
X2.1279 Y1.3785
X2.1665 Y1.3842
X2.2048 Y1.3914
X2.2428 Y1.4
X2.2805 Y1.41
X2.3178 Y1.4215
X2.3545 Y1.4344
X2.3908 Y1.4488
X2.4265 Y1.4645
X2.4615 Y1.4816
X2.4959 Y1.5001
X2.5295 Y1.5198
X2.5624 Y1.5407
X2.5945 Y1.5629
X2.6257 Y1.5862
X2.6561 Y1.6107
X2.6855 Y1.6363
X2.7139 Y1.663
X2.7413 Y1.6908
X2.7676 Y1.7195
X2.7928 Y1.7493
X2.8169 Y1.78
X2.8398 Y1.8115
X2.8615 Y1.8439
X2.882 Y1.877
X2.9014 Y1.9109
X2.9194 Y1.9454
X2.9362 Y1.9806
X2.9516 Y2.0164
X2.9657 Y2.0528
X2.9784 Y2.0897
X2.9897 Y2.127
X2.9996 Y2.1647
X3.008 Y2.2028
X3.0151 Y2.2411
X3.0207 Y2.2797
X3.025 Y2.3185
X3.0278 Y2.3574
X3.0291 Y2.3963
X3.029 Y2.4353
X3.0274 Y2.4743
X3.0243 Y2.5131
X3.0198 Y2.5519
X3.0137 Y2.5904
X3.0063 Y2.6287
X2.9974 Y2.6666
X2.9872 Y2.7042
X2.9755 Y2.7415
X2.9625 Y2.7782
X2.9482 Y2.8145
X2.9324 Y2.8501
X2.9153 Y2.8852
X2.8969 Y2.9196
X2.8772 Y2.9532
X2.8563 Y2.9861
X2.8341 Y3.0182
X2.8107 Y3.0494
X2.7863 Y3.0797
X2.7607 Y3.1092
X2.734 Y3.1376
X2.7064 Y3.1651
X2.6776 Y3.1915
X2.6479 Y3.2167
X2.6173 Y3.2408
X2.5858 Y3.2638
X2.5534 Y3.2856
X2.5203 Y3.3061
X2.4864 Y3.3254
X2.4519 Y3.3435
X2.4167 Y3.3602
X2.3809 Y3.3757
X2.3446 Y3.3899
X2.3077 Y3.4027
X2.2704 Y3.414
X2.2327 Y3.424
X2.1947 Y3.4326
X2.1564 Y3.4397
X2.1178 Y3.4455
X2.079 Y3.4498
X2.0402 Y3.4527
X2.0012 Y3.4542
X1.9622 Y3.4543
X1.9232 Y3.453
X1.8844 Y3.4502
X1.8456 Y3.446
X1.807 Y3.4404
X1.7687 Y3.4333
X1.7306 Y3.4248
X1.6929 Y3.415
X1.6555 Y3.4038
X1.6186 Y3.3912
X1.5822 Y3.3774
X1.5462 Y3.3622
X1.5109 Y3.3458
X1.4761 Y3.3281
X1.4421 Y3.3091
X1.4087 Y3.2889
X1.3762 Y3.2675
X1.3444 Y3.2449
X1.3135 Y3.2211
X1.2834 Y3.1963
X1.2543 Y3.1704
X1.226 Y3.1435
X1.1988 Y3.1156
X1.1726 Y3.0867
X1.1474 Y3.0569
X1.1234 Y3.0263
X1.1004 Y2.9947
X1.0787 Y2.9624
X1.0581 Y2.9293
X1.0387 Y2.8954
X1.0205 Y2.8609
X1.0036 Y2.8258
X0.988 Y2.7901
X0.9736 Y2.7538
X0.9605 Y2.7171
X0.9487 Y2.68
X0.9383 Y2.6424
X0.9292 Y2.6045
X0.9215 Y2.5662
X0.9152 Y2.5278
X0.9103 Y2.4891
X0.9068 Y2.4503
X0.9046 Y2.4113
X0.9039 Y2.3723
X0.9045 Y2.3333
X0.9065 Y2.2944
X0.9098 Y2.2556
X0.9146 Y2.2169
X0.9207 Y2.1784
X0.9282 Y2.1401
X0.9371 Y2.1021
X0.9474 Y2.0645
X0.959 Y2.0273
X0.9719 Y1.9905
X0.9861 Y1.9542
X1.0016 Y1.9184
X1.0183 Y1.8832
X1.0363 Y1.8486
X1.0554 Y1.8146
X1.0758 Y1.7814
X1.0974 Y1.7489
X1.1201 Y1.7172
X1.1439 Y1.6863
X1.1688 Y1.6563
X1.1948 Y1.6272
X1.2218 Y1.5991
X1.2497 Y1.5719
X1.2786 Y1.5458
X1.3085 Y1.5206
X1.3391 Y1.4966
X1.3706 Y1.4736
X1.403 Y1.4518
X1.436 Y1.4311
X1.4698 Y1.4117
X1.5043 Y1.3935
X1.5394 Y1.3765
X1.5751 Y1.3608
X1.6113 Y1.3463
X1.648 Y1.3332
X1.6851 Y1.3213
X1.7227 Y1.3108
X1.7606 Y1.3015
X1.7987 Y1.2937
X1.8372 Y1.2872
X1.8758 Y1.2821
X1.9147 Y1.2783
X1.9536 Y1.276
X1.9926 Y1.275
X2.0315 Y1.2755
X2.0705 Y1.2773
X2.1094 Y1.2804
X2.1481 Y1.285
X2.1866 Y1.2908
X2.2249 Y1.2981
X2.263 Y1.3066
X2.3007 Y1.3166
X2.338 Y1.3278
X2.3749 Y1.3404
X2.4114 Y1.3542
X2.4473 Y1.3693
X2.4827 Y1.3857
X2.5175 Y1.4033
X2.5517 Y1.422
X2.5852 Y1.442
X2.618 Y1.463
X2.6501 Y1.4852
X2.6814 Y1.5085
X2.7118 Y1.5328
X2.7414 Y1.5582
X2.7701 Y1.5846
X2.7979 Y1.612
X2.8247 Y1.6403
X2.8505 Y1.6695
X2.8753 Y1.6996
X2.8991 Y1.7305
X2.9218 Y1.7622
X2.9435 Y1.7946
X2.964 Y1.8278
X2.9834 Y1.8616
X3.0016 Y1.8961
X3.0186 Y1.9312
X3.0344 Y1.9668
X3.049 Y2.003
X3.0623 Y2.0396
X3.0744 Y2.0767
X3.0852 Y2.1142
X3.0947 Y2.152
X3.1029 Y2.1901
X3.1099 Y2.2284
X3.1155 Y2.267
X3.1198 Y2.3058
X3.1228 Y2.3447
X3.1244 Y2.3836
X3.1247 Y2.4226
X3.1236 Y2.4616
X3.1212 Y2.5005
X3.1175 Y2.5393
X3.1124 Y2.578
X3.1061 Y2.6164
X3.0984 Y2.6547
X3.0894 Y2.6926
X3.0792 Y2.7302
X3.0676 Y2.7675
X3.0548 Y2.8043
X3.0407 Y2.8406
X3.0253 Y2.8765
X3.0087 Y2.9118
X2.9909 Y2.9465
X2.972 Y2.9805
X2.9519 Y3.0139
X2.9306 Y3.0466
X2.9083 Y3.0786
X2.8849 Y3.1098
X2.8604 Y3.1401
X2.8349 Y3.1696
X2.8084 Y3.1982
X2.7809 Y3.2258
X2.7525 Y3.2525
X2.7232 Y3.2783
X2.693 Y3.303
X2.662 Y3.3266
X2.6302 Y3.3492
X2.5977 Y3.3707
X2.5644 Y3.391
X2.5305 Y3.4103
X2.4959 Y3.4283
X2.4608 Y3.4452
X2.4251 Y3.4609
X2.3889 Y3.4753
X2.3522 Y3.4885
X2.3151 Y3.5004
X2.2775 Y3.5111
X2.2397 Y3.5205
X2.2016 Y3.5286
X2.1632 Y3.5354
X2.1246 Y3.541
X2.0858 Y3.5452
X2.0469 Y3.5481
X2.008 Y3.5497
X1.969 Y3.55
X1.93 Y3.549
X1.8911 Y3.5466
X1.8523 Y3.543
X1.8136 Y3.538
X1.7751 Y3.5318
X1.7369 Y3.5243
X1.6989 Y3.5155
X1.6612 Y3.5054
X1.6239 Y3.4941
X1.587 Y3.4816
X1.5505 Y3.4678
X1.5145 Y3.4528
X1.479 Y3.4366
X1.4441 Y3.4192
X1.4098 Y3.4007
X1.3761 Y3.3811
X1.3431 Y3.3603
X1.3108 Y3.3385
X1.2793 Y3.3156
X1.2485 Y3.2916
X1.2185 Y3.2667
X1.1894 Y3.2408
X1.1611 Y3.2139
X1.1338 Y3.1861
X1.1074 Y3.1574
X1.0819 Y3.1279
X1.0575 Y3.0975
X1.0341 Y3.0663
X1.0117 Y3.0344
X0.9904 Y3.0018
X0.9701 Y2.9684
X0.951 Y2.9344
X0.933 Y2.8999
X0.9161 Y2.8647
X0.9005 Y2.829
X0.886 Y2.7928
X0.8727 Y2.7562
X0.8606 Y2.7191
X0.8497 Y2.6816
X0.8401 Y2.6438
X0.8318 Y2.6058
X0.8247 Y2.5674
X0.8188 Y2.5289
X0.8142 Y2.4902
X0.8109 Y2.4513
X0.8089 Y2.4124
X0.8081 Y2.3734
X0.8086 Y2.3344
X0.8105 Y2.2955
X0.8135 Y2.2566
X0.8179 Y2.2178
X0.8235 Y2.1793
X0.8304 Y2.1409
X0.8386 Y2.1028
X0.848 Y2.0649
X0.8586 Y2.0274
X0.8705 Y1.9902
X0.8835 Y1.9535
X0.8978 Y1.9172
X0.9132 Y1.8814
X0.9298 Y1.8461
X0.9476 Y1.8114
X0.9664 Y1.7773
X0.9864 Y1.7438
X1.0075 Y1.711
X1.0296 Y1.6789
X1.0528 Y1.6475
X1.077 Y1.617
X1.1021 Y1.5872
X1.1283 Y1.5582
X1.1553 Y1.5301
X1.1833 Y1.503
X1.2121 Y1.4767
X1.2418 Y1.4515
X1.2723 Y1.4272
X1.3036 Y1.4039
X1.3356 Y1.3816
X1.3683 Y1.3605
X1.4017 Y1.3403
X1.4358 Y1.3213
X1.4704 Y1.3035
X1.5056 Y1.2867
X1.5414 Y1.2711
X1.5776 Y1.2567
X1.6143 Y1.2435
X1.6514 Y1.2315
X1.6889 Y1.2207
X1.7267 Y1.2111
X1.7648 Y1.2028
X1.8031 Y1.1957
X1.8416 Y1.1899
X1.8804 Y1.1854
X1.9192 Y1.1821
X1.9582 Y1.1801
X1.9971 Y1.1793
X2.0361 Y1.1798
X2.0751 Y1.1816
X2.114 Y1.1847
X2.1527 Y1.189
X2.1913 Y1.1946
X2.2297 Y1.2014
X2.2678 Y1.2095
X2.3057 Y1.2188
X2.3432 Y1.2293
X2.3804 Y1.241
X2.4172 Y1.2539
X2.4536 Y1.268
X2.4895 Y1.2832
X2.5248 Y1.2996
X2.5597 Y1.3172
X2.5939 Y1.3358
X2.6275 Y1.3555
X2.6605 Y1.3763
X2.6928 Y1.3981
X2.7245 Y1.421
X2.7553 Y1.4448
X2.7854 Y1.4696
X2.8147 Y1.4953
X2.8432 Y1.522
X2.8708 Y1.5495
X2.8975 Y1.5779
X2.9233 Y1.6071
X2.9482 Y1.6371
X2.9721 Y1.6679
X2.995 Y1.6995
X3.0169 Y1.7317
X3.0378 Y1.7646
X3.0577 Y1.7982
X3.0765 Y1.8324
X3.0942 Y1.8671
X3.1108 Y1.9024
X3.1263 Y1.9382
X3.1407 Y1.9744
X3.1539 Y2.0111
X3.1659 Y2.0482
X3.1768 Y2.0856
X3.1865 Y2.1234
X3.195 Y2.1614
X3.2022 Y2.1997
X3.2083 Y2.2383
X3.2132 Y2.2769
X3.2168 Y2.3158
X3.2192 Y2.3547
X3.2204 Y2.3937
Y2.4326
X3.2191 Y2.4716
X3.2166 Y2.5105
X3.2129 Y2.5493
X3.2079 Y2.588
X3.2017 Y2.6265
X3.1943 Y2.6648
X3.1856 Y2.7028
X3.1758 Y2.7405
X3.1648 Y2.7779
X3.1526 Y2.815
X3.1393 Y2.8516
X3.1248 Y2.8878
X3.1092 Y2.9235
X3.0924 Y2.9588
X3.0746 Y2.9934
X3.0556 Y3.0275
X3.0356 Y3.0609
X3.0145 Y3.0937
X2.9924 Y3.1258
X2.9692 Y3.1572
X2.9451 Y3.1879
X2.9201 Y3.2178
X2.8941 Y3.2468
X2.8672 Y3.2751
X2.8395 Y3.3025
X2.8109 Y3.3289
X2.7814 Y3.3545
X2.7512 Y3.3792
X2.7202 Y3.4028
X2.6885 Y3.4255
X2.6561 Y3.4471
X2.623 Y3.4677
X2.5892 Y3.4873
X2.5549 Y3.5058
X2.52 Y3.5232
X2.4846 Y3.5396
X2.4487 Y3.5548
X2.4124 Y3.5688
X2.3756 Y3.5818
X2.3384 Y3.5936
X2.3057 Y3.6028
X2.3005 Y3.604
X2.2952 Y3.6048
X2.2898 Y3.605
X1.7648
X1.7259 Y3.6031
X1.687 Y3.5999
X1.6485 Y3.5937
X1.6105 Y3.5851
X1.5729 Y3.5746
X1.5359 Y3.5625
X1.4994 Y3.5488
X1.4634 Y3.5339
X1.4279 Y3.5176
X1.393 Y3.5002
X1.3587 Y3.4817
X1.325 Y3.4621
X1.292 Y3.4414
X1.2596 Y3.4197
X1.2279 Y3.3969
X1.197 Y3.3732
X1.1667 Y3.3486
X1.1373 Y3.323
X1.1086 Y3.2966
X1.0808 Y3.2693
X1.0538 Y3.2411
X1.0277 Y3.2121
X1.0025 Y3.1824
X0.9782 Y3.1519
X0.9549 Y3.1207
X0.9325 Y3.0887
X0.9111 Y3.0561
X0.8908 Y3.0229
X0.8714 Y2.989
X0.8531 Y2.9546
X0.8359 Y2.9196
X0.8197 Y2.8841
X0.8046 Y2.8482
X0.7906 Y2.8118
X0.7778 Y2.775
X0.7727 Y2.7591
X0.7712 Y2.7533
X0.7703 Y2.7474
X0.77 Y2.7415
Y2.0896
X0.7719 Y2.0507
X0.7741 Y2.0313
X0.7799 Y1.9927
X0.7887 Y1.9547
X0.7996 Y1.9173
X0.8125 Y1.8805
X0.827 Y1.8443
X0.8429 Y1.8087
X0.86 Y1.7737
X0.8784 Y1.7393
X0.8979 Y1.7055
X0.9184 Y1.6724
X0.94 Y1.6399
X0.9626 Y1.6081
X0.9861 Y1.577
X1.0106 Y1.5467
X1.036 Y1.5171
X1.0622 Y1.4883
X1.0894 Y1.4603
X1.1174 Y1.4331
X1.1462 Y1.4069
X1.1758 Y1.3815
X1.2061 Y1.357
X1.2372 Y1.3335
X1.269 Y1.3109
X1.3014 Y1.2892
X1.3345 Y1.2686
X1.3682 Y1.249
X1.4025 Y1.2304
X1.4373 Y1.2128
X1.4726 Y1.1963
X1.5084 Y1.1808
X1.5446 Y1.1665
X1.5813 Y1.1532
X1.6184 Y1.1411
X1.6558 Y1.1302
X1.6935 Y1.1203
X1.7315 Y1.1117
X1.7698 Y1.1041
X1.8083 Y1.0977
X1.8469 Y1.0925
X1.8857 Y1.0884
X1.9246 Y1.0855
X1.9635 Y1.0838
X2.0025 Y1.0832
X2.0415 Y1.0839
X2.0804 Y1.0857
X2.1193 Y1.0887
X2.1581 Y1.0928
X2.1967 Y1.0982
X2.2351 Y1.1047
X2.2734 Y1.1123
X2.3114 Y1.1211
X2.3491 Y1.131
X2.3865 Y1.1421
X2.4235 Y1.1542
X2.4602 Y1.1674
X2.4965 Y1.1817
X2.5323 Y1.1971
X2.5677 Y1.2136
X2.6025 Y1.2311
X2.6368 Y1.2496
X2.6705 Y1.2692
X2.7037 Y1.2897
X2.7362 Y1.3113
X2.768 Y1.3337
X2.7992 Y1.3571
X2.8297 Y1.3814
X2.8595 Y1.4066
X2.8885 Y1.4326
X2.9168 Y1.4595
X2.9442 Y1.4872
X2.9709 Y1.5156
X2.9967 Y1.5449
X3.0216 Y1.5749
X3.0456 Y1.6056
X3.0686 Y1.6371
X3.0908 Y1.6691
X3.112 Y1.7019
X3.1323 Y1.7352
X3.1515 Y1.7691
X3.1698 Y1.8035
X3.1871 Y1.8385
X3.2034 Y1.8739
X3.2186 Y1.9098
X3.226 Y1.9288
X3.2282 Y1.9357
X3.2296 Y1.9428
X3.23 Y1.95
Y2.7798
X3.2281 Y2.8187
X3.2255 Y2.8381
X3.219 Y2.874
X3.209 Y2.9117
X3.1965 Y2.9486
X3.182 Y2.9848
X3.1658 Y3.0203
X3.1482 Y3.0551
X3.1293 Y3.0892
X3.1093 Y3.1226
X3.0881 Y3.1554
X3.066 Y3.1875
X3.0428 Y3.2189
X3.0188 Y3.2495
X2.9938 Y3.2794
X2.9679 Y3.3086
X2.9411 Y3.337
X2.9136 Y3.3645
X2.8852 Y3.3913
X2.856 Y3.4172
X2.8262 Y3.4422
X2.7955 Y3.4664
X2.7642 Y3.4896
X2.7323 Y3.512
X2.6997 Y3.5333
X2.6665 Y3.5538
X2.6327 Y3.5732
X2.5983 Y3.5917
X2.584 Y3.5988
X2.5757 Y3.6022
X2.5669 Y3.6043
X2.5579 Y3.605
X2.2898
G3 X2.2803 Y3.6028 I0.0009 J-0.025 F30
G1 X2.2767 Y3.6011 Z-0.3989
X2.2733 Y3.5996 Z-0.398
X2.27 Y3.5981 Z-0.3965
X2.2669 Y3.5967 Z-0.3944
X2.2642 Y3.5954 Z-0.3919
X2.2619 Y3.5944 Z-0.3889
X2.26 Y3.5935 Z-0.3856
X2.2587 Y3.5929 Z-0.3819
X2.2578 Y3.5925 Z-0.3781
X2.2576 Y3.5924 Z-0.3742
G0 Z0.2
X3.199 Y2.768
Z-0.3492
G1 Z-0.3742 F30
X3.1993 Z-0.3781
X3.2002 Y2.7682 Z-0.3819
X3.2016 Y2.7685 Z-0.3856
X3.2037 Y2.7688 Z-0.3889
X3.2062 Y2.7693 Z-0.3919
X3.2091 Y2.7698 Z-0.3944
X3.2124 Y2.7704 Z-0.3965
X3.216 Y2.771 Z-0.398
X3.2197 Y2.7717 Z-0.3989
X3.2236 Y2.7724 Z-0.3992
G3 X3.23 Y2.7798 I-0.0014 J0.0077
G1 Y3.001 F39.37
X3.2287 Y3.027
X3.2259 Y3.0481
X3.2205 Y3.0737
X3.2112 Y3.1046
X3.1971 Y3.1409
X3.1801 Y3.176
X3.161 Y3.21
X3.1402 Y3.243
X3.118 Y3.2751
X3.0946 Y3.3062
X3.0702 Y3.3366
X3.0447 Y3.3661
X3.0184 Y3.3949
X2.9912 Y3.4228
X2.9632 Y3.45
X2.9345 Y3.4763
X2.905 Y3.5019
X2.8749 Y3.5266
X2.844 Y3.5505
X2.8126 Y3.5735
X2.782 Y3.5947
X2.7717 Y3.6003
X2.7605 Y3.6038
X2.7488 Y3.605
X2.5579
G3 X2.5484 Y3.6028 I0.0009 J-0.025 F30
X2.5421 Y3.5614 I0.0104 J-0.0227 F39.37
G1 X3.1883 Y2.9833
G3 X3.2278 Y2.9915 I0.0167 J0.0186
X3.23 Y3.001 I-0.0227 J0.0104 F30
G1 Y3.178 F39.37
X3.2291 Y3.1968
X3.2268 Y3.2143
X3.2224 Y3.2346
X3.2152 Y3.2589
X3.2044 Y3.2866
X3.1881 Y3.3201
X3.1683 Y3.3537
X3.1464 Y3.3859
X3.1227 Y3.4169
X3.0977 Y3.4468
X3.0716 Y3.4758
X3.0445 Y3.5038
X3.0165 Y3.5309
X2.9877 Y3.5572
X2.9582 Y3.5827
X2.9469 Y3.5919
X2.9387 Y3.5975
X2.9296 Y3.6016
X2.92 Y3.6041
X2.9101 Y3.605
X2.7488
G3 X2.7393 Y3.6028 I0.0009 J-0.025 F30
X2.7332 Y3.5613 I0.0104 J-0.0227 F39.37
G1 X3.1885 Y3.1601
G3 X3.2278 Y3.1685 I0.0165 J0.0188
X3.23 Y3.178 I-0.0227 J0.0104 F30
G1 Y3.3284 F39.37
X3.2291 Y3.3473
X3.227 Y3.3628
X3.2232 Y3.3805
X3.2171 Y3.4011
X3.208 Y3.4245
X3.1945 Y3.4523
X3.1752 Y3.485
X3.1528 Y3.5169
X3.1284 Y3.5473
X3.1024 Y3.5764
X3.0916 Y3.5874
X3.0827 Y3.5949
X3.0725 Y3.6004
X3.0614 Y3.6038
X3.0499 Y3.605
X2.9101
G3 X2.9006 Y3.6028 I0.0009 J-0.025 F30
X2.8947 Y3.561 I0.0104 J-0.0227 F39.37
G1 X3.1888 Y3.3103
G3 X3.2278 Y3.3189 I0.0162 J0.019
X3.23 Y3.3284 I-0.0227 J0.0104 F30
G1 Y3.47 F39.37
X3.2292 Y3.4856
X3.2273 Y3.5002
X3.2239 Y3.516
X3.2183 Y3.5347
X3.2103 Y3.5554
X3.2009 Y3.5746
X3.2 Y3.5763
X3.1928 Y3.586
X3.1838 Y3.594
X3.1732 Y3.6
X3.1617 Y3.6037
X3.1497 Y3.605
G3 X3.1402 Y3.6028 I0.0009 J-0.025 F30
X3.1282 Y3.5689 I0.0104 J-0.0227 F39.37
G1 X3.1826 Y3.4597
G3 X3.2278 Y3.4605 I0.0224 J0.0112
X3.23 Y3.47 I-0.0227 J0.0104 F30
G1 Y3.5762 F39.37
Y3.5806
X3.2298 Y3.5828
X3.2294 Y3.585
X3.2283 Y3.5886
X3.2266 Y3.5922
X3.2255 Y3.5939
X3.2238 Y3.5961
X3.2216 Y3.5982
X3.2177 Y3.6011
X3.2147 Y3.6027
X3.2118 Y3.6039
X3.2089 Y3.6046
X3.2066 Y3.6049
X3.2044 Y3.605
X3.0499
G3 X3.0404 Y3.6028 I0.0009 J-0.025 F30
G1 X3.0368 Y3.6011 Z-0.3989
X3.0334 Y3.5996 Z-0.398
X3.0301 Y3.5981 Z-0.3965
X3.027 Y3.5967 Z-0.3944
X3.0243 Y3.5954 Z-0.3919
X3.022 Y3.5944 Z-0.3889
X3.0201 Y3.5935 Z-0.3856
X3.0187 Y3.5929 Z-0.3819
X3.0179 Y3.5925 Z-0.3781
X3.0176 Y3.5924 Z-0.3742
G0 Z0.2
X0.801 Y2.1014
Z-0.3492
G1 Z-0.3742 F30
X0.8007 Z-0.3781
X0.7998 Y2.1012 Z-0.3819
X0.7984 Y2.101 Z-0.3856
X0.7963 Y2.1006 Z-0.3889
X0.7938 Y2.1001 Z-0.3919
X0.7909 Y2.0996 Z-0.3944
X0.7876 Y2.099 Z-0.3965
X0.784 Y2.0984 Z-0.398
X0.7803 Y2.0977 Z-0.3989
X0.7764 Y2.097 Z-0.3992
G3 X0.77 Y2.0896 I0.0014 J-0.0077
G1 Y1.8418 F39.37
X0.7713 Y1.8157
X0.7744 Y1.7924
X0.7804 Y1.7642
X0.7905 Y1.7306
X0.8046 Y1.6943
X0.8213 Y1.6591
X0.84 Y1.6248
X0.8602 Y1.5915
X0.8818 Y1.5591
X0.9046 Y1.5274
X0.9284 Y1.4966
X0.9532 Y1.4665
X0.979 Y1.4372
X1.0056 Y1.4087
X1.033 Y1.381
X1.0613 Y1.3541
X1.0902 Y1.328
X1.12 Y1.3028
X1.1504 Y1.2784
X1.1815 Y1.2549
X1.2133 Y1.2323
X1.2457 Y1.2106
X1.2787 Y1.1898
X1.3122 Y1.17
X1.3464 Y1.1511
X1.381 Y1.1332
X1.4161 Y1.1162
X1.4517 Y1.1003
X1.4877 Y1.0854
X1.5241 Y1.0714
X1.5609 Y1.0585
X1.5981 Y1.0467
X1.6355 Y1.0359
X1.6733 Y1.0261
X1.7113 Y1.0175
X1.7495 Y1.0099
X1.788 Y1.0034
X1.8266 Y0.998
X1.8653 Y0.9936
X1.9042 Y0.9904
X1.9431 Y0.9882
X1.9821 Y0.9871
X2.0211
X2.0601 Y0.9882
X2.099 Y0.9904
X2.1378 Y0.9937
X2.1766 Y0.9981
X2.2152 Y1.0036
X2.2536 Y1.0101
X2.2919 Y1.0177
X2.3299 Y1.0264
X2.3676 Y1.0362
X2.4051 Y1.047
X2.4423 Y1.0588
X2.4791 Y1.0717
X2.5155 Y1.0855
X2.5515 Y1.1004
X2.5872 Y1.1163
X2.6223 Y1.1331
X2.657 Y1.151
X2.6912 Y1.1697
X2.7248 Y1.1894
X2.7579 Y1.21
X2.7904 Y1.2316
X2.8223 Y1.254
X2.8536 Y1.2773
X2.8842 Y1.3014
X2.9142 Y1.3264
X2.9434 Y1.3522
X2.9719 Y1.3788
X2.9997 Y1.4061
X3.0268 Y1.4342
X3.0531 Y1.463
X3.0785 Y1.4925
X3.1032 Y1.5227
X3.127 Y1.5536
X3.15 Y1.5851
X3.1721 Y1.6172
X3.1933 Y1.6499
X3.2136 Y1.6832
X3.2223 Y1.6984
X3.2265 Y1.7075
X3.2291 Y1.7173
X3.23 Y1.7274
Y1.95
G3 X3.2278 Y1.9595 I-0.025 J-0.0009 F30
G1 X3.2261 Y1.963 Z-0.3989
X3.2246 Y1.9665 Z-0.398
X3.2231 Y1.9698 Z-0.3965
X3.2217 Y1.9729 Z-0.3944
X3.2204 Y1.9756 Z-0.3919
X3.2194 Y1.9779 Z-0.3889
X3.2185 Y1.9798 Z-0.3856
X3.2179 Y1.9811 Z-0.3819
X3.2175 Y1.982 Z-0.3781
X3.2174 Y1.9822 Z-0.3742
G0 Z0.2
X1.7767 Y3.574
Z-0.3492
G1 Z-0.3742 F30
X1.7766 Y3.5743 Z-0.3781
X1.7764 Y3.5752 Z-0.3819
X1.7762 Y3.5766 Z-0.3856
X1.7758 Y3.5787 Z-0.3889
X1.7754 Y3.5812 Z-0.3919
X1.7748 Y3.5841 Z-0.3944
X1.7742 Y3.5874 Z-0.3965
X1.7736 Y3.591 Z-0.398
X1.7729 Y3.5947 Z-0.3989
X1.7722 Y3.5986 Z-0.3992
G3 X1.7648 Y3.605 I-0.0077 J-0.0014
G1 X1.4902 F39.37
X1.4627 Y3.6036
X1.4383 Y3.6004
X1.4085 Y3.5941
X1.3724 Y3.5832
X1.336 Y3.5691
X1.3007 Y3.5526
X1.2663 Y3.5342
X1.2327 Y3.5144
X1.2 Y3.4932
X1.1681 Y3.4708
X1.1369 Y3.4474
X1.1065 Y3.423
X1.0769 Y3.3976
X1.048 Y3.3714
X1.02 Y3.3443
X0.9927 Y3.3164
X0.9663 Y3.2878
X0.9407 Y3.2584
X0.9159 Y3.2283
X0.892 Y3.1974
X0.869 Y3.166
X0.8469 Y3.1338
X0.8257 Y3.1011
X0.8055 Y3.0678
X0.7862 Y3.0339
X0.7768 Y3.0162
X0.7731 Y3.0075
X0.7708 Y2.9983
X0.77 Y2.9888
Y2.7415
G3 X0.7722 Y2.732 I0.025 J0.0009 F30
X0.8142 Y2.7264 I0.0227 J0.0104 F39.37
G1 X1.5086 Y3.5641
G3 X1.4997 Y3.6028 I-0.0192 J0.016
X1.4902 Y3.605 I-0.0104 J-0.0227 F30
G1 X1.3041 F39.37
X1.2792 Y3.6038
X1.2601 Y3.6013
X1.2382 Y3.5966
X1.2119 Y3.5887
X1.1805 Y3.5765
X1.1454 Y3.5594
X1.1117 Y3.5398
X1.0793 Y3.5182
X1.0479 Y3.4951
X1.0175 Y3.4706
X0.9881 Y3.4451
X0.9595 Y3.4185
X0.9318 Y3.3911
X0.9049 Y3.3629
X0.8788 Y3.3339
X0.8536 Y3.3042
X0.8292 Y3.2738
X0.8056 Y3.2427
X0.7829 Y3.211
X0.78 Y3.2068
X0.7745 Y3.1967
X0.7711 Y3.1856
X0.77 Y3.1741
Y2.9888
G3 X0.7722 Y2.9793 I0.025 J0.0009 F30
X0.8139 Y2.9734 I0.0227 J0.0104 F39.37
G1 X1.3222 Y3.5637
G3 X1.3136 Y3.6028 I-0.0189 J0.0163
X1.3041 Y3.605 I-0.0104 J-0.0227 F30
G1 X1.1358 F39.37
X1.1221 Y3.6043
X1.1059 Y3.6022
X1.0872 Y3.5982
X1.0655 Y3.5917
X1.0405 Y3.5819
X1.0108 Y3.5675
X0.9772 Y3.5477
X0.9452 Y3.5255
X0.9146 Y3.5013
X0.8852 Y3.4757
X0.8569 Y3.4488
X0.8296 Y3.421
X0.8032 Y3.3923
X0.7842 Y3.3702
X0.7781 Y3.3618
X0.7737 Y3.3524
X0.7709 Y3.3424
X0.77 Y3.3321
Y3.1741
G3 X0.7722 Y3.1646 I0.025 J0.0009 F30
X0.8141 Y3.1589 I0.0227 J0.0104 F39.37
G1 X1.1541 Y3.5639
G3 X1.1453 Y3.6028 I-0.0191 J0.0161
X1.1358 Y3.605 I-0.0104 J-0.0227 F30
G1 X0.9941 F39.37
X0.9791 Y3.6043
X0.9643 Y3.6023
X0.9478 Y3.5988
X0.9284 Y3.593
X0.9067 Y3.5845
X0.8811 Y3.5721
X0.8512 Y3.5545
X0.8192 Y3.532
X0.7891 Y3.5074
X0.7887 Y3.5071
X0.7808 Y3.498
X0.7749 Y3.4876
X0.7712 Y3.4762
X0.77 Y3.4643
G3 X0.7722 Y3.4548 I0.025 J0.0009 F30
X0.8075 Y3.4435 I0.0227 J0.0104 F39.37
G1 X1.0057 Y3.5584
G3 X1.0036 Y3.6028 I-0.0125 J0.0216
X0.9941 Y3.605 I-0.0104 J-0.0227 F30
G1 X0.8612 F39.37
X0.8455 Y3.6042
X0.8314 Y3.6024
X0.8182 Y3.5995
X0.8116 Y3.5976
X0.8001 Y3.5927
X0.79 Y3.5856
X0.7815 Y3.5765
X0.7752 Y3.5658
X0.7713 Y3.554
X0.77 Y3.5417
G3 X0.7722 Y3.5322 I0.025 J0.0009 F30
X0.8074 Y3.5209 I0.0227 J0.0104 F39.37
G1 X0.8728 Y3.5583
G3 X0.8707 Y3.6028 I-0.0124 J0.0217
X0.8612 Y3.605 I-0.0104 J-0.0227 F30
G1 X0.7948 F39.37
X0.7925 Y3.6048
X0.7903 Y3.6045
X0.7877 Y3.6038
X0.785 Y3.6027
X0.7815 Y3.6007
X0.7797 Y3.5995
X0.778 Y3.5979
X0.7761 Y3.5959
X0.7745 Y3.5939
X0.7726 Y3.5906
X0.7714 Y3.5878
X0.7706 Y3.585
X0.7702 Y3.5828
X0.77 Y3.5806
Y3.5496
Y3.3321
G3 X0.7722 Y3.3226 I0.025 J0.0009 F30
G1 X0.7739 Y3.319 Z-0.3989
X0.7754 Y3.3156 Z-0.398
X0.7769 Y3.3123 Z-0.3965
X0.7783 Y3.3092 Z-0.3944
X0.7796 Y3.3065 Z-0.3919
X0.7806 Y3.3042 Z-0.3889
X0.7815 Y3.3023 Z-0.3856
X0.7821 Y3.301 Z-0.3819
X0.7825 Y3.3001 Z-0.3781
X0.7826 Y3.2998 Z-0.3742
G0 Z0.2
X0.801 Y1.8537
Z-0.3492
G1 Z-0.3742 F30
X0.8007 Y1.8536 Z-0.3781
X0.7998 Y1.8535 Z-0.3819
X0.7984 Y1.8532 Z-0.3856
X0.7963 Y1.8528 Z-0.3889
X0.7938 Y1.8524 Z-0.3919
X0.7909 Y1.8519 Z-0.3944
X0.7876 Y1.8513 Z-0.3965
X0.784 Y1.8506 Z-0.398
X0.7803 Y1.8499 Z-0.3989
X0.7764 Y1.8493 Z-0.3992
G3 X0.77 Y1.8418 I0.0014 J-0.0077
G1 Y1.656 F39.37
X0.7709 Y1.6381
X0.7733 Y1.6197
X0.7779 Y1.5985
X0.7855 Y1.5729
X0.7971 Y1.5431
X0.8141 Y1.508
X0.8339 Y1.4744
X0.8556 Y1.442
X0.879 Y1.4108
X0.9037 Y1.3806
X0.9295 Y1.3514
X0.9563 Y1.323
X0.9839 Y1.2956
X1.0124 Y1.2689
X1.0416 Y1.2431
X1.0716 Y1.2181
X1.1022 Y1.194
X1.1335 Y1.1707
X1.1653 Y1.1483
X1.1978 Y1.1267
X1.2308 Y1.106
X1.2644 Y1.0861
X1.2985 Y1.0672
X1.3331 Y1.0492
X1.3681 Y1.0321
X1.4036 Y1.0159
X1.4395 Y1.0007
X1.4758 Y0.9865
X1.5124 Y0.9731
X1.5494 Y0.9608
X1.5867 Y0.9494
X1.6243 Y0.939
X1.6621 Y0.9296
X1.7002 Y0.9212
X1.7385 Y0.9138
X1.777 Y0.9074
X1.8156 Y0.902
X1.8543 Y0.8977
X1.8932 Y0.8943
X1.9321 Y0.892
X1.9711 Y0.8907
X2.0101 Y0.8905
X2.049 Y0.8912
X2.088 Y0.893
X2.1269 Y0.8958
X2.1657 Y0.8996
X2.2044 Y0.9045
X2.2429 Y0.9103
X2.2813 Y0.9171
X2.3195 Y0.925
X2.3575 Y0.9338
X2.3952 Y0.9436
X2.4327 Y0.9544
X2.4699 Y0.9662
X2.5067 Y0.9789
X2.5432 Y0.9926
X2.5793 Y1.0073
X2.6151 Y1.0229
X2.6504 Y1.0394
X2.6853 Y1.0568
X2.7197 Y1.0751
X2.7537 Y1.0943
X2.7871 Y1.1143
X2.82 Y1.1352
X2.8524 Y1.157
X2.8842 Y1.1795
X2.9154 Y1.2029
X2.946 Y1.2271
X2.9759 Y1.2521
X3.0052 Y1.2778
X3.0339 Y1.3043
X3.0618 Y1.3315
X3.089 Y1.3594
X3.1155 Y1.3879
X3.1413 Y1.4172
X3.1663 Y1.4471
X3.1906 Y1.4777
X3.214 Y1.5088
X3.2191 Y1.5159
X3.2251 Y1.5264
X3.2288 Y1.5379
X3.23 Y1.5498
Y1.7274
G3 X3.2278 Y1.7369 I-0.025 J-0.0009 F30
G1 X3.2261 Y1.7404 Z-0.3989
X3.2246 Y1.7439 Z-0.398
X3.2231 Y1.7472 Z-0.3965
X3.2217 Y1.7502 Z-0.3944
X3.2204 Y1.753 Z-0.3919
X3.2194 Y1.7553 Z-0.3889
X3.2185 Y1.7571 Z-0.3856
X3.2179 Y1.7585 Z-0.3819
X3.2175 Y1.7593 Z-0.3781
X3.2174 Y1.7596 Z-0.3742
G0 Z0.2
X0.801 Y1.6678
Z-0.3492
G1 Z-0.3742 F30
X0.8007 Z-0.3781
X0.7998 Y1.6676 Z-0.3819
X0.7984 Y1.6674 Z-0.3856
X0.7963 Y1.667 Z-0.3889
X0.7938 Y1.6666 Z-0.3919
X0.7909 Y1.666 Z-0.3944
X0.7876 Y1.6654 Z-0.3965
X0.784 Y1.6648 Z-0.398
X0.7803 Y1.6641 Z-0.3989
X0.7764 Y1.6634 Z-0.3992
G3 X0.77 Y1.656 I0.0014 J-0.0077
G1 Y1.4967 F39.37
X0.7707 Y1.4835
X0.7727 Y1.4676
X0.7767 Y1.4493
X0.783 Y1.428
X0.7925 Y1.4037
X0.8066 Y1.3747
X0.8263 Y1.3411
X0.8487 Y1.3092
X0.873 Y1.2787
X0.8988 Y1.2494
X0.9258 Y1.2213
X0.9538 Y1.1942
X0.9827 Y1.168
X1.0124 Y1.1428
X1.0429 Y1.1184
X1.074 Y1.0949
X1.1057 Y1.0723
X1.138 Y1.0504
X1.1709 Y1.0295
X1.2043 Y1.0093
X1.2382 Y0.9901
X1.2725 Y0.9716
X1.3074 Y0.9541
X1.3426 Y0.9374
X1.3782 Y0.9216
X1.4143 Y0.9066
X1.4506 Y0.8926
X1.4873 Y0.8795
X1.5244 Y0.8672
X1.5617 Y0.8559
X1.5993 Y0.8455
X1.6371 Y0.8361
X1.6751 Y0.8276
X1.7134 Y0.82
X1.7518 Y0.8134
X1.7904 Y0.8077
X1.8291 Y0.803
X1.8679 Y0.7993
X1.9068 Y0.7965
X1.9458 Y0.7947
X1.9847 Y0.7938
X2.0237 Y0.7939
X2.0627 Y0.7949
X2.1016 Y0.7969
X2.1405 Y0.7999
X2.1793 Y0.8038
X2.218 Y0.8086
X2.2566 Y0.8144
X2.295 Y0.8212
X2.3332 Y0.8289
X2.3712 Y0.8375
X2.409 Y0.8471
X2.4466 Y0.8576
X2.4838 Y0.869
X2.5208 Y0.8813
X2.5575 Y0.8946
X2.5939 Y0.9087
X2.6299 Y0.9237
X2.6655 Y0.9395
X2.7007 Y0.9562
X2.7355 Y0.9738
X2.7699 Y0.9922
X2.8038 Y1.0114
X2.8372 Y1.0315
X2.8702 Y1.0523
X2.9026 Y1.074
X2.9345 Y1.0964
X2.9658 Y1.1196
X2.9966 Y1.1436
X3.0268 Y1.1683
X3.0563 Y1.1937
X3.0853 Y1.2198
X3.1136 Y1.2466
X3.1412 Y1.2741
X3.1682 Y1.3023
X3.1945 Y1.3311
X3.2157 Y1.3553
X3.2218 Y1.3637
X3.2263 Y1.3732
X3.2291 Y1.3832
X3.23 Y1.3936
Y1.5498
G3 X3.2278 Y1.5593 I-0.025 J-0.0009 F30
G1 X3.2261 Y1.5629 Z-0.3989
X3.2246 Y1.5664 Z-0.398
X3.2231 Y1.5697 Z-0.3965
X3.2217 Y1.5727 Z-0.3944
X3.2204 Y1.5754 Z-0.3919
X3.2194 Y1.5777 Z-0.3889
X3.2185 Y1.5796 Z-0.3856
X3.2179 Y1.581 Z-0.3819
X3.2175 Y1.5818 Z-0.3781
X3.2174 Y1.5821 Z-0.3742
G0 Z0.2
X0.801 Y1.5086
Z-0.3492
G1 Z-0.3742 F30
X0.8007 Y1.5085 Z-0.3781
X0.7998 Y1.5084 Z-0.3819
X0.7984 Y1.5081 Z-0.3856
X0.7963 Y1.5077 Z-0.3889
X0.7938 Y1.5073 Z-0.3919
X0.7909 Y1.5068 Z-0.3944
X0.7876 Y1.5062 Z-0.3965
X0.784 Y1.5055 Z-0.398
X0.7803 Y1.5048 Z-0.3989
X0.7764 Y1.5042 Z-0.3992
G3 X0.77 Y1.4967 I0.0014 J-0.0077
G1 Y1.3552 F39.37
X0.7706 Y1.3424
X0.7726 Y1.3276
X0.776 Y1.3114
X0.7818 Y1.2924
X0.7901 Y1.271
X0.8023 Y1.2458
X0.8195 Y1.2165
X0.842 Y1.1846
X0.8667 Y1.1545
X0.8932 Y1.1258
X0.921 Y1.0985
X0.9499 Y1.0724
X0.9798 Y1.0473
X1.0104 Y1.0232
X1.0418 Y1
X1.0737 Y0.9777
X1.1063 Y0.9562
X1.1394 Y0.9356
X1.173 Y0.9159
X1.2071 Y0.8969
X1.2416 Y0.8788
X1.2765 Y0.8615
X1.3119 Y0.845
X1.3476 Y0.8293
X1.3836 Y0.8145
X1.42 Y0.8006
X1.4568 Y0.7874
X1.4938 Y0.7752
X1.5311 Y0.7638
X1.5686 Y0.7534
X1.6064 Y0.7437
X1.6444 Y0.735
X1.6826 Y0.7272
X1.721 Y0.7203
X1.7595 Y0.7142
X1.7982 Y0.7091
X1.8369 Y0.7048
X1.8758 Y0.7015
X1.9147 Y0.699
X1.9536 Y0.6975
X1.9926 Y0.6968
X2.0316 Y0.6971
X2.0706 Y0.6982
X2.1095 Y0.7003
X2.1484 Y0.7032
X2.1872 Y0.7071
X2.2259 Y0.7118
X2.2645 Y0.7175
X2.3029 Y0.7241
X2.3412 Y0.7315
X2.3793 Y0.7399
X2.4172 Y0.7491
X2.4548 Y0.7592
X2.4923 Y0.7701
X2.5294 Y0.7819
X2.5663 Y0.7946
X2.6029 Y0.8081
X2.6391 Y0.8224
X2.6751 Y0.8376
X2.7106 Y0.8536
X2.7458 Y0.8703
X2.7806 Y0.8879
X2.815 Y0.9063
X2.849 Y0.9255
X2.8825 Y0.9454
X2.9155 Y0.9661
X2.948 Y0.9876
X2.9801 Y1.0098
X3.0116 Y1.0328
X3.0426 Y1.0564
X3.0731 Y1.0808
X3.103 Y1.1058
X3.1323 Y1.1315
X3.161 Y1.1579
X3.1891 Y1.1849
X3.213 Y1.2089
X3.2202 Y1.2177
X3.2256 Y1.2278
X3.2289 Y1.2387
X3.23 Y1.25
Y1.3936
G3 X3.2278 Y1.4031 I-0.025 J-0.0009 F30
G1 X3.2261 Y1.4067 Z-0.3989
X3.2246 Y1.4101 Z-0.398
X3.2231 Y1.4134 Z-0.3965
X3.2217 Y1.4165 Z-0.3944
X3.2204 Y1.4192 Z-0.3919
X3.2194 Y1.4215 Z-0.3889
X3.2185 Y1.4234 Z-0.3856
X3.2179 Y1.4247 Z-0.3819
X3.2175 Y1.4256 Z-0.3781
X3.2174 Y1.4259 Z-0.3742
G0 Z0.2
X0.801 Y1.367
Z-0.3492
G1 Z-0.3742 F30
X0.8007 Y1.3669 Z-0.3781
X0.7998 Y1.3668 Z-0.3819
X0.7984 Y1.3665 Z-0.3856
X0.7963 Y1.3661 Z-0.3889
X0.7938 Y1.3657 Z-0.3919
X0.7909 Y1.3652 Z-0.3944
X0.7876 Y1.3646 Z-0.3965
X0.784 Y1.3639 Z-0.398
X0.7803 Y1.3633 Z-0.3989
X0.7764 Y1.3626 Z-0.3992
G3 X0.77 Y1.3552 I0.0014 J-0.0077
G1 Y1.2224 F39.37
X0.7706 Y1.21
X0.7725 Y1.196
X0.7756 Y1.1812
X0.781 Y1.1634
X0.7884 Y1.1442
X0.7995 Y1.1214
X0.8147 Y1.0955
X0.8356 Y1.0658
X0.8605 Y1.0358
X0.8874 Y1.0076
X0.9158 Y0.9809
X0.9453 Y0.9554
X0.9759 Y0.9312
X1.0072 Y0.908
X1.0392 Y0.8857
X1.0719 Y0.8644
X1.1051 Y0.8439
X1.1387 Y0.8243
X1.1729 Y0.8055
X1.2075 Y0.7875
X1.2425 Y0.7703
X1.2779 Y0.754
X1.3136 Y0.7384
X1.3497 Y0.7236
X1.3861 Y0.7096
X1.4228 Y0.6965
X1.4598 Y0.6841
X1.4971 Y0.6727
X1.5346 Y0.662
X1.5723 Y0.6522
X1.596 Y0.6466
X1.6004 Y0.6457
X1.6049 Y0.6452
X1.6094 Y0.645
X2.2964
X2.3353 Y0.6469
X2.3742 Y0.6498
X2.4128 Y0.6551
X2.4511 Y0.6624
X2.4891 Y0.6712
X2.5268 Y0.6814
X2.5641 Y0.6926
X2.6011 Y0.7049
X2.6378 Y0.7181
X2.6741 Y0.7322
X2.7101 Y0.7472
X2.7458 Y0.763
X2.7811 Y0.7796
X2.816 Y0.797
X2.8505 Y0.8151
X2.8846 Y0.834
X2.9183 Y0.8536
X2.9515 Y0.874
X2.9843 Y0.8951
X3.0166 Y0.9169
X3.0485 Y0.9394
X3.0798 Y0.9626
X3.1107 Y0.9864
X3.141 Y1.0109
X3.1708 Y1.036
X3.2001 Y1.0618
X3.2112 Y1.0721
X3.2192 Y1.0811
X3.2251 Y1.0916
X3.2288 Y1.103
X3.23 Y1.115
Y1.25
G3 X3.2278 Y1.2595 I-0.025 J-0.0009 F30
X3.1916 Y1.2702 I-0.0227 J-0.0104 F39.37
G1 X2.2838 Y0.6911
G3 X2.2869 Y0.6472 I0.0134 J-0.0211
X2.2964 Y0.645 I0.0104 J0.0227 F30
G1 X2.6153 F39.37
X2.6469 Y0.6466
X2.6782 Y0.6507
X2.7163 Y0.6588
X2.7537 Y0.6699
X2.7904 Y0.6832
X2.8264 Y0.6981
X2.8618 Y0.7143
X2.8967 Y0.7317
X2.9311 Y0.75
X2.9651 Y0.7693
X2.9985 Y0.7893
X3.0315 Y0.8102
X3.064 Y0.8317
X3.096 Y0.854
X3.1275 Y0.8769
X3.1586 Y0.9005
X3.1891 Y0.9247
X3.2089 Y0.941
X3.2178 Y0.9502
X3.2245 Y0.9611
X3.2286 Y0.9732
X3.23 Y0.9859
Y1.115
G3 X3.2278 Y1.1245 I-0.025 J-0.0009 F30
X3.19 Y1.1341 I-0.0227 J-0.0104 F39.37
G1 X2.6011 Y0.6899
G3 X2.6058 Y0.6472 I0.0151 J-0.02
X2.6153 Y0.645 I0.0104 J0.0227 F30
G1 X2.8368 F39.37
X2.8608 Y0.6462
X2.8838 Y0.6492
X2.9122 Y0.6553
X2.9473 Y0.6658
X2.9836 Y0.6799
X3.0189 Y0.6964
X3.0534 Y0.7146
X3.0871 Y0.7342
X3.1201 Y0.755
X3.1526 Y0.7766
X3.1844 Y0.7991
X3.2067 Y0.8159
X3.2147 Y0.8231
X3.2212 Y0.8317
X3.226 Y0.8414
X3.229 Y0.8518
X3.23 Y0.8625
Y0.9859
G3 X3.2278 Y0.9954 I-0.025 J-0.0009 F30
X3.1887 Y1.004 I-0.0227 J-0.0104 F39.37
G1 X2.8214 Y0.689
G3 X2.8273 Y0.6472 I0.0163 J-0.019
X2.8368 Y0.645 I0.0104 J0.0227 F30
G1 X3.0228 F39.37
X3.0429 Y0.646
X3.0627 Y0.6486
X3.0856 Y0.6535
X3.1135 Y0.6619
X3.1476 Y0.6752
X3.1827 Y0.6922
X3.2012 Y0.7031
X3.211 Y0.7102
X3.219 Y0.7193
X3.225 Y0.7298
X3.2287 Y0.7413
X3.23 Y0.7533
G3 X3.2278 Y0.7628 I-0.025 J-0.0009 F30
X3.1947 Y0.7752 I-0.0227 J-0.0104 F39.37
G1 X3.0133 Y0.6927
G3 Y0.6472 I0.0104 J-0.0228
X3.0228 Y0.645 I0.0104 J0.0227 F30
G1 X3.1823 F39.37
X3.1883 Y0.6453
X3.1994 Y0.6482
X3.2095 Y0.6536
X3.2181 Y0.6613
X3.2246 Y0.6708
X3.2286 Y0.6816
X3.23 Y0.693
G3 X3.2286 Y0.7027 I-0.0461 J-0.0016 F30
X3.172 Y0.736 I-0.0448 J-0.0113 F39.37
X3.1726 Y0.6464 I0.0119 J-0.0448
X3.1823 Y0.645 I0.0113 J0.0449 F30
G1 X3.2044 F39.37
X3.2066 Y0.6451
X3.2089 Y0.6454
X3.2118 Y0.6461
X3.2147 Y0.6473
X3.2177 Y0.6489
X3.2216 Y0.6518
X3.2238 Y0.6539
X3.2255 Y0.6561
X3.2266 Y0.6578
X3.2283 Y0.6614
X3.2294 Y0.665
X3.2298 Y0.6672
X3.23 Y0.6694
Y0.7004
Y0.8625
G3 X3.2278 Y0.872 I-0.025 J-0.0009 F30
G1 X3.2261 Y0.8756 Z-0.3989
X3.2246 Y0.879 Z-0.398
X3.2231 Y0.8823 Z-0.3965
X3.2217 Y0.8854 Z-0.3944
X3.2204 Y0.8881 Z-0.3919
X3.2194 Y0.8904 Z-0.3889
X3.2185 Y0.8923 Z-0.3856
X3.2179 Y0.8936 Z-0.3819
X3.2175 Y0.8945 Z-0.3781
X3.2174 Y0.8948 Z-0.3742
G0 Z0.2
X0.801 Y1.2343
Z-0.3492
G1 Z-0.3742 F30
X0.8007 Y1.2342 Z-0.3781
X0.7998 Y1.234 Z-0.3819
X0.7984 Y1.2338 Z-0.3856
X0.7963 Y1.2334 Z-0.3889
X0.7938 Y1.233 Z-0.3919
X0.7909 Y1.2324 Z-0.3944
X0.7876 Y1.2319 Z-0.3965
X0.784 Y1.2312 Z-0.398
X0.7803 Y1.2305 Z-0.3989
X0.7764 Y1.2298 Z-0.3992
G3 X0.77 Y1.2224 I0.0014 J-0.0077
G1 Y1.0985 F39.37
X0.7707 Y1.0836
X0.7724 Y1.0708
X0.7755 Y1.0566
X0.7805 Y1.0398
X0.7875 Y1.0219
X0.7977 Y1.0009
X0.8116 Y0.9772
X0.8304 Y0.9504
X0.8553 Y0.9204
X0.8824 Y0.8924
X0.9112 Y0.8661
X0.9413 Y0.8413
X0.9723 Y0.8177
X1.0042 Y0.7952
X1.0367 Y0.7738
X1.0699 Y0.7533
X1.1036 Y0.7337
X1.1378 Y0.7149
X1.1724 Y0.6969
X1.2074 Y0.6798
X1.2428 Y0.6634
X1.2738 Y0.6499
X1.2814 Y0.6472
X1.2892 Y0.6455
X1.2972 Y0.645
X1.6094
G3 X1.6189 Y0.6472 I-0.0009 J0.025 F30
X1.6202 Y0.6921 I-0.0104 J0.0227 F39.37
G1 X0.8066 Y1.1198
G3 X0.7722 Y1.108 I-0.0116 J-0.0221
X0.77 Y1.0985 I0.0227 J-0.0104 F30
G1 Y0.9747 F39.37
X0.7706 Y0.9622
X0.7722 Y0.9504
X0.7752 Y0.9365
X0.7799 Y0.9207
X0.7866 Y0.9035
X0.7962 Y0.8837
X0.8092 Y0.8615
X0.8266 Y0.8368
X0.8504 Y0.8081
X0.8777 Y0.7802
X0.9067 Y0.7542
X0.9371 Y0.7297
X0.9685 Y0.7067
X1.0008 Y0.6848
X1.0337 Y0.664
X1.0522 Y0.6531
X1.0616 Y0.6486
X1.0715 Y0.6459
X1.0819 Y0.645
X1.2972
G3 X1.3067 Y0.6472 I-0.0009 J0.025 F30
X1.3093 Y0.6914 I-0.0104 J0.0227 F39.37
G1 X0.8079 Y0.9952
G3 X0.7722 Y0.9842 I-0.013 J-0.0214
X0.77 Y0.9747 I0.0227 J-0.0104 F30
G1 Y0.8596 F39.37
X0.7708 Y0.8445
X0.7723 Y0.833
X0.7752 Y0.8192
X0.7797 Y0.8044
X0.7862 Y0.7877
X0.7953 Y0.769
X0.8077 Y0.7477
X0.824 Y0.7245
X0.8462 Y0.6978
X0.8735 Y0.6699
X0.885 Y0.6597
X0.8935 Y0.6534
X0.903 Y0.6488
X0.9132 Y0.646
X0.9237 Y0.645
X1.0819
G3 X1.0913 Y0.6472 I-0.0009 J0.025 F30
X1.0948 Y0.6908 I-0.0104 J0.0227 F39.37
G1 X0.8088 Y0.8796
G3 X0.7722 Y0.8691 I-0.0138 J-0.0209
X0.77 Y0.8596 I0.0227 J-0.0104 F30
G1 Y0.7446 F39.37
X0.7707 Y0.73
X0.7722 Y0.7184
X0.7752 Y0.7047
X0.7794 Y0.6907
X0.7827 Y0.6822
X0.788 Y0.6718
X0.7952 Y0.6627
X0.8041 Y0.6552
X0.8144 Y0.6496
X0.8255 Y0.6462
X0.8371 Y0.645
G3 X0.8466 Y0.6472 I-0.0009 J0.025 F30
X0.858 Y0.6822 I-0.0104 J0.0227 F39.37
G1 X0.8168 Y0.7559
G3 X0.7722 Y0.7541 I-0.0218 J-0.0122
X0.77 Y0.7446 I0.0227 J-0.0104 F30
G1 Y0.6738 F39.37
Y0.6694
X0.7702 Y0.6672
X0.7706 Y0.665
X0.7714 Y0.6622
X0.7726 Y0.6594
X0.7745 Y0.6561
X0.7761 Y0.6541
X0.778 Y0.6521
X0.7797 Y0.6505
X0.7815 Y0.6493
X0.785 Y0.6473
X0.7877 Y0.6462
X0.7903 Y0.6455
X0.7925 Y0.6452
X0.7948 Y0.645
X0.9237
X0.9258 Y0.6455 Z-0.399 F30
X0.9278 Y0.6459 Z-0.3982
X0.9296 Y0.6463 Z-0.3971
X0.9311 Y0.6466 Z-0.3955
X0.9323 Y0.6468 Z-0.3937
X0.9329 Y0.6471 Z-0.3916
X0.9332 Y0.6472 Z-0.3894
G0 Z0.2
X1.8813 Y2.3719
Z-0.2742
G1 Z-0.2992 F30
G3 X2.1187 Y2.3736 Z-0.3122 I0.1187 J0.0009 F13.12
X1.8813 Y2.3719 Z-0.3253 I-0.1187 J-0.0009
X2.1187 Y2.3736 Z-0.3383 I0.1187 J0.0009
X1.8813 Y2.3719 Z-0.3513 I-0.1187 J-0.0009
X2.1187 Y2.3736 Z-0.3644 I0.1187 J0.0009
X1.8813 Y2.3719 Z-0.3774 I-0.1187 J-0.0009
X2.1187 Y2.3736 Z-0.3904 I0.1187 J0.0009
X1.8813 Y2.3719 Z-0.4034 I-0.1187 J-0.0009
X2.1187 Y2.3736 Z-0.4165 I0.1187 J0.0009
X1.8813 Y2.3719 Z-0.4295 I-0.1187 J-0.0009
X2.1187 Y2.3736 Z-0.4425 I0.1187 J0.0009
X1.8813 Y2.3719 Z-0.4555 I-0.1187 J-0.0009
X2.1187 Y2.3736 Z-0.4686 I0.1187 J0.0009
X1.8813 Y2.3719 Z-0.4816 I-0.1187 J-0.0009
X2.1187 Y2.3736 Z-0.4946 I0.1187 J0.0009
X1.8813 Y2.3719 Z-0.5077 I-0.1187 J-0.0009
X2.1187 Y2.3736 Z-0.5207 I0.1187 J0.0009
X1.8813 Y2.3719 Z-0.5337 I-0.1187 J-0.0009
X2.1187 Y2.3736 Z-0.5467 I0.1187 J0.0009
X1.8813 Y2.3719 Z-0.5598 I-0.1187 J-0.0009
X2.1187 Y2.3736 Z-0.5728 I0.1187 J0.0009
X1.8813 Y2.3719 Z-0.5858 I-0.1187 J-0.0009
X2.1187 Y2.3728 Z-0.5988 I0.1187 J0.0009
X1.8812 I-0.1188 J0
X2.1187 I0.1188 J0
G1 X2.1189 Y2.3825 F39.37
X2.126 Y2.4208
X2.1275 Y2.4255
X2.1287 Y2.4314
X2.1294 Y2.4373
X2.1295 Y2.4433
X2.1291 Y2.4498
X2.1281 Y2.4566
X2.1265 Y2.4637
X2.1242 Y2.4712
X2.1212 Y2.4789
X2.1173 Y2.4867
X2.1126 Y2.4945
X2.107 Y2.5023
X2.1005 Y2.51
X2.0932 Y2.5173
X2.0849 Y2.5244
X2.0759 Y2.5309
X2.066 Y2.5369
X2.0554 Y2.5423
X2.0441 Y2.5469
X2.0322 Y2.5507
X2.0197 Y2.5535
X2.0068 Y2.5554
X1.9936 Y2.5563
X1.9801 Y2.5561
X1.9665 Y2.5548
X1.9528 Y2.5523
X1.9393 Y2.5488
X1.9259 Y2.5441
X1.9128 Y2.5383
X1.9001 Y2.5314
X1.888 Y2.5235
X1.8764 Y2.5146
X1.8656 Y2.5047
X1.8555 Y2.4939
X1.8463 Y2.4823
X1.838 Y2.47
X1.8307 Y2.457
X1.8244 Y2.4434
X1.8193 Y2.4293
X1.8153 Y2.4148
X1.8124 Y2.4
X1.8108 Y2.385
X1.8103 Y2.3699
X1.8111 Y2.3547
X1.8131 Y2.3397
X1.8163 Y2.3249
X1.8207 Y2.3103
X1.8262 Y2.2962
X1.8329 Y2.2825
X1.8406 Y2.2694
X1.8494 Y2.257
X1.8591 Y2.2453
X1.8697 Y2.2344
X1.8812 Y2.2244
X1.8935 Y2.2153
X1.9065 Y2.2073
X1.92 Y2.2003
X1.9341 Y2.1945
X1.9486 Y2.1897
X1.9635 Y2.1862
X1.9785 Y2.1839
X1.9938 Y2.1827
X2.009 Y2.1829
X2.0242 Y2.1842
X2.0393 Y2.1867
X2.0541 Y2.1905
X2.0685 Y2.1954
X2.0825 Y2.2015
X2.096 Y2.2086
X2.1089 Y2.2169
X2.121 Y2.2261
X2.1324 Y2.2363
X2.1429 Y2.2474
X2.1525 Y2.2592
X2.1612 Y2.2719
X2.1738 Y2.294
X2.1877 Y2.3236
X2.1962 Y2.3462
X2.202 Y2.3665
X2.2058 Y2.3852
X2.2079 Y2.4033
X2.2085 Y2.4208
X2.2078 Y2.4378
X2.2058 Y2.4543
X2.2024 Y2.4705
X2.1978 Y2.4863
X2.1919 Y2.5016
X2.1848 Y2.5166
X2.1765 Y2.531
X2.1669 Y2.5447
X2.1562 Y2.5579
X2.1443 Y2.5702
X2.1314 Y2.5817
X2.1173 Y2.5922
X2.1023 Y2.6017
X2.0863 Y2.6101
X2.0694 Y2.6173
X2.0518 Y2.6232
X2.0336 Y2.6277
X2.0148 Y2.6308
X1.9956 Y2.6323
X1.9762 Y2.6324
X1.9566 Y2.6308
X1.937 Y2.6276
X1.9176 Y2.6229
X1.8985 Y2.6166
X1.8798 Y2.6087
X1.8617 Y2.5992
X1.8443 Y2.5883
X1.8278 Y2.5759
X1.8122 Y2.5622
X1.7977 Y2.5472
X1.7844 Y2.531
X1.7724 Y2.5138
X1.7618 Y2.4955
X1.7526 Y2.4765
X1.745 Y2.4567
X1.739 Y2.4362
X1.7346 Y2.4154
X1.7319 Y2.3942
X1.731 Y2.3728
X1.7317 Y2.3514
