%
(Top)
(T1  D=0.25 CR=0 - ZMIN=-0.5 - flat end mill)
G90
G17
G20
G28 G91 Z0
G90

(2D Adaptive2)
M9
T1 M6
S1600 M3
G54
M9
G0 X6.2563 Y2.1241
Z0.6
Z0.2
Z0.125
G1 Z0.1 F30
G3 X6.4937 Y2.1259 Z0.087 I0.1187 J0.0009 F13.12
X6.2563 Y2.1241 Z0.0739 I-0.1187 J-0.0009
X6.4937 Y2.1259 Z0.0609 I0.1187 J0.0009
X6.2563 Y2.1241 Z0.0479 I-0.1187 J-0.0009
X6.4937 Y2.1259 Z0.0349 I0.1187 J0.0009
X6.2563 Y2.1241 Z0.0218 I-0.1187 J-0.0009
X6.4937 Y2.1259 Z0.0088 I0.1187 J0.0009
X6.2563 Y2.1241 Z-0.0042 I-0.1187 J-0.0009
X6.4937 Y2.1259 Z-0.0172 I0.1187 J0.0009
X6.2563 Y2.1241 Z-0.0303 I-0.1187 J-0.0009
X6.4937 Y2.1259 Z-0.0433 I0.1187 J0.0009
X6.2563 Y2.1241 Z-0.0563 I-0.1187 J-0.0009
X6.4937 Y2.1259 Z-0.0694 I0.1187 J0.0009
X6.2563 Y2.1241 Z-0.0824 I-0.1187 J-0.0009
X6.4937 Y2.1259 Z-0.0954 I0.1187 J0.0009
X6.2563 Y2.1241 Z-0.1084 I-0.1187 J-0.0009
X6.4937 Y2.1259 Z-0.1215 I0.1187 J0.0009
X6.2563 Y2.1241 Z-0.1345 I-0.1187 J-0.0009
X6.4937 Y2.1259 Z-0.1475 I0.1187 J0.0009
X6.2563 Y2.1241 Z-0.1606 I-0.1187 J-0.0009
X6.4937 Y2.1259 Z-0.1736 I0.1187 J0.0009
X6.2563 Y2.1241 Z-0.1866 I-0.1187 J-0.0009
X6.4938 Y2.125 Z-0.1996 I0.1187 J0.0009
X6.2563 I-0.1188 J0
X6.4895 Y2.0936 I0.1187 J0
X6.4938 Y2.125 I-0.1145 J0.0314
G1 X6.4939 Y2.1347 F39.37
X6.501 Y2.1731
X6.5028 Y2.1788
X6.5039 Y2.1847
X6.5045 Y2.1907
Y2.1967
X6.504 Y2.2032
X6.5029 Y2.2101
X6.5012 Y2.2174
X6.4987 Y2.2249
X6.4955 Y2.2326
X6.4915 Y2.2404
X6.4866 Y2.2483
X6.4808 Y2.256
X6.4742 Y2.2636
X6.4667 Y2.271
X6.4583 Y2.2779
X6.4491 Y2.2844
X6.439 Y2.2903
X6.4283 Y2.2955
X6.4169 Y2.2999
X6.4048 Y2.3035
X6.3923 Y2.3062
X6.3793 Y2.3079
X6.366 Y2.3086
X6.3525 Y2.3082
X6.3388 Y2.3066
X6.3252 Y2.304
X6.3117 Y2.3002
X6.2983 Y2.2953
X6.2853 Y2.2893
X6.2728 Y2.2822
X6.2607 Y2.2741
X6.2493 Y2.265
X6.2386 Y2.2549
X6.2286 Y2.244
X6.2196 Y2.2322
X6.2115 Y2.2198
X6.2044 Y2.2066
X6.1983 Y2.1929
X6.1934 Y2.1787
X6.1896 Y2.1642
X6.187 Y2.1493
X6.1856 Y2.1343
X6.1854 Y2.1192
X6.1864 Y2.1041
X6.1886 Y2.0891
X6.192 Y2.0743
X6.1966 Y2.0598
X6.2024 Y2.0458
X6.2093 Y2.0322
X6.2172 Y2.0192
X6.2262 Y2.0069
X6.2361 Y1.9953
X6.2469 Y1.9846
X6.2586 Y1.9748
X6.271 Y1.9659
X6.284 Y1.9581
X6.2977 Y1.9513
X6.3119 Y1.9457
X6.3265 Y1.9412
X6.3414 Y1.9379
X6.3565 Y1.9358
X6.3717 Y1.9349
X6.387 Y1.9352
X6.4022 Y1.9368
X6.4172 Y1.9396
X6.4319 Y1.9436
X6.4463 Y1.9487
X6.4602 Y1.955
X6.4736 Y1.9624
X6.4863 Y1.9708
X6.4983 Y1.9803
X6.5095 Y1.9906
X6.5199 Y2.0018
X6.5293 Y2.0139
X6.5377 Y2.0266
X6.5523 Y2.053
X6.5647 Y2.0805
X6.5726 Y2.1026
X6.5779 Y2.1225
X6.5813 Y2.141
X6.5832 Y2.159
X6.5835 Y2.1763
X6.5825 Y2.1932
X6.5802 Y2.2097
X6.5767 Y2.2258
X6.5718 Y2.2415
X6.5657 Y2.2568
X6.5583 Y2.2716
X6.5498 Y2.2859
X6.54 Y2.2996
X6.529 Y2.3125
X6.5169 Y2.3247
X6.5038 Y2.336
X6.4895 Y2.3464
X6.4743 Y2.3557
X6.4581 Y2.3638
X6.4411 Y2.3708
X6.4234 Y2.3764
X6.405 Y2.3806
X6.3861 Y2.3834
X6.3669 Y2.3847
X6.3474 Y2.3844
X6.3278 Y2.3826
X6.3082 Y2.3791
X6.2889 Y2.374
X6.2698 Y2.3674
X6.2513 Y2.3592
X6.2333 Y2.3495
X6.216 Y2.3383
X6.1997 Y2.3256
X6.1843 Y2.3117
X6.17 Y2.2964
X6.157 Y2.28
X6.1452 Y2.2626
X6.1349 Y2.2442
X6.126 Y2.2249
X6.1187 Y2.205
X6.113 Y2.1845
X6.109 Y2.1635
X6.1066 Y2.1423
X6.106 Y2.1209
X6.107 Y2.0995
X6.1098 Y2.0782
X6.1143 Y2.0572
X6.1205 Y2.0365
X6.1284 Y2.0165
X6.1378 Y1.9971
X6.1487 Y1.9785
X6.1611 Y1.9608
X6.1749 Y1.9442
X6.19 Y1.9288
X6.2063 Y1.9146
X6.2237 Y1.9017
X6.2421 Y1.8903
X6.2613 Y1.8804
X6.2813 Y1.872
X6.3019 Y1.8653
X6.3229 Y1.8603
X6.3443 Y1.8569
X6.3659 Y1.8553
X6.3876 Y1.8555
X6.4092 Y1.8573
X6.4305 Y1.8609
X6.4515 Y1.8662
X6.472 Y1.8732
X6.4919 Y1.8818
X6.5111 Y1.892
X6.5293 Y1.9036
X6.5466 Y1.9167
X6.5649 Y1.9331
X6.5832 Y1.9523
X6.6004 Y1.9735
X6.6161 Y1.9965
X6.6299 Y2.0205
X6.6414 Y2.0449
X6.6507 Y2.0696
X6.6578 Y2.0944
X6.6627 Y2.1191
X6.6657 Y2.1437
X6.6666 Y2.1681
X6.6656 Y2.1922
X6.6627 Y2.216
X6.6579 Y2.2393
X6.6512 Y2.2621
X6.6428 Y2.2842
X6.6326 Y2.3056
X6.6208 Y2.3262
X6.6072 Y2.3458
X6.5921 Y2.3643
X6.5754 Y2.3817
X6.5573 Y2.3978
X6.5377 Y2.4124
X6.5169 Y2.4256
X6.4949 Y2.4372
X6.4719 Y2.447
X6.4479 Y2.4551
X6.4232 Y2.4612
X6.3979 Y2.4654
X6.3721 Y2.4675
X6.3461
X6.3199 Y2.4655
X6.2939 Y2.4613
X6.268 Y2.455
X6.2427 Y2.4466
X6.2179 Y2.4362
X6.1939 Y2.4237
X6.1709 Y2.4093
X6.149 Y2.393
X6.1285 Y2.3749
X6.1093 Y2.3551
X6.0917 Y2.3338
X6.0759 Y2.3111
X6.0619 Y2.287
X6.0498 Y2.2619
X6.0397 Y2.2358
X6.0318 Y2.209
X6.026 Y2.1815
X6.0225 Y2.1536
X6.0212 Y2.1254
X6.0221 Y2.0972
X6.0253 Y2.0692
X6.0308 Y2.0414
X6.0385 Y2.0142
X6.0484 Y1.9876
X6.0603 Y1.9619
X6.0743 Y1.9373
X6.0903 Y1.9138
X6.108 Y1.8916
X6.1276 Y1.871
X6.1487 Y1.8519
X6.1713 Y1.8347
X6.1952 Y1.8193
X6.2202 Y1.8058
X6.2463 Y1.7944
X6.2732 Y1.7851
X6.3008 Y1.7781
X6.3289 Y1.7732
X6.3572 Y1.7706
X6.3857 Y1.7703
X6.4141 Y1.7723
X6.4423 Y1.7766
X6.47 Y1.7831
X6.4971 Y1.7918
X6.5235 Y1.8027
X6.5495 Y1.816
X6.5752 Y1.8318
X6.6004 Y1.8502
X6.6246 Y1.8712
X6.6475 Y1.8945
X6.6687 Y1.9198
X6.6879 Y1.9468
X6.7048 Y1.9752
X6.7192 Y2.0046
X6.7312 Y2.0349
X6.7406 Y2.0658
X6.7475 Y2.0971
X6.7517 Y2.1286
X6.7535 Y2.1601
X6.7527 Y2.1914
X6.7494 Y2.2223
X6.7436 Y2.2528
X6.7355 Y2.2827
X6.7249 Y2.3117
X6.7121 Y2.3398
X6.6971 Y2.3669
X6.6799 Y2.3926
X6.6607 Y2.417
X6.6394 Y2.4399
X6.6163 Y2.461
X6.5915 Y2.4804
X6.565 Y2.4978
X6.537 Y2.5131
X6.5078 Y2.5261
X6.4774 Y2.5369
X6.446 Y2.5452
X6.4139 Y2.551
X6.3813 Y2.5543
X6.3483 Y2.5549
X6.3151 Y2.5528
X6.2821 Y2.5481
X6.2494 Y2.5407
X6.2173 Y2.5307
X6.1859 Y2.518
X6.1554 Y2.5028
X6.1262 Y2.4852
X6.0984 Y2.4651
X6.0722 Y2.4428
X6.0478 Y2.4184
X6.0253 Y2.3921
X6.005 Y2.3639
X5.987 Y2.3342
X5.9713 Y2.303
X5.9582 Y2.2705
X5.9477 Y2.2371
X5.9399 Y2.2028
X5.9349 Y2.168
X5.9327 Y2.1329
X5.9333 Y2.0976
X5.9368 Y2.0624
X5.943 Y2.0276
X5.9521 Y1.9934
X5.9638 Y1.96
X5.9783 Y1.9276
X5.9953 Y1.8965
X6.0147 Y1.8668
X6.0365 Y1.8388
X6.0605 Y1.8125
X6.0865 Y1.7883
X6.1143 Y1.7663
X6.1439 Y1.7465
X6.175 Y1.7292
X6.2073 Y1.7144
X6.2408 Y1.7022
X6.2751 Y1.6928
X6.3101 Y1.6862
X6.3455 Y1.6824
X6.3811 Y1.6814
X6.4166 Y1.6833
X6.4519 Y1.6881
X6.4869 Y1.6957
X6.5213 Y1.7061
X6.5552 Y1.7195
X6.5884 Y1.7357
X6.6207 Y1.7549
X6.6519 Y1.777
X6.6818 Y1.8019
X6.7096 Y1.8293
X6.7351 Y1.8587
X6.7583 Y1.8901
X6.7789 Y1.9232
X6.7968 Y1.9578
X6.812 Y1.9937
X6.8243 Y2.0307
X6.8336 Y2.0686
X6.8398 Y2.1071
X6.8429 Y2.1457
Y2.1843
X6.8398 Y2.2227
X6.8337 Y2.2605
X6.8246 Y2.2977
X6.8125 Y2.334
X6.7975 Y2.3691
X6.7798 Y2.403
X6.7594 Y2.4354
X6.7364 Y2.4661
X6.711 Y2.4949
X6.6832 Y2.5217
X6.6532 Y2.5463
X6.6213 Y2.5685
X6.5876 Y2.588
X6.5524 Y2.6049
X6.516 Y2.6188
X6.4786 Y2.6299
X6.4405 Y2.6379
X6.4018 Y2.643
X6.3628 Y2.645
X6.3239 Y2.6439
X6.2851 Y2.6399
X6.2467 Y2.6329
X6.209 Y2.6229
X6.1722 Y2.6101
X6.1364 Y2.5946
X6.102 Y2.5764
X6.0689 Y2.5556
X6.0376 Y2.5324
X6.0081 Y2.5069
X5.9806 Y2.4793
X5.9553 Y2.4496
X5.9323 Y2.4181
X5.9117 Y2.385
X5.8936 Y2.3505
X5.8781 Y2.3147
X5.8653 Y2.2779
X5.8552 Y2.2402
X5.848 Y2.2019
X5.8435 Y2.1632
X5.8419 Y2.1242
X5.8432 Y2.0853
X5.8473 Y2.0465
X5.8544 Y2.0081
X5.8642 Y1.9704
X5.8769 Y1.9335
X5.8921 Y1.8976
X5.91 Y1.863
X5.9303 Y1.8297
X5.953 Y1.798
X5.9779 Y1.768
X6.0049 Y1.7399
X6.0339 Y1.7139
X6.0648 Y1.69
X6.0973 Y1.6685
X6.1314 Y1.6495
X6.1667 Y1.633
X6.2031 Y1.6192
X6.2405 Y1.608
X6.2786 Y1.5996
X6.3171 Y1.5939
X6.356 Y1.5911
X6.395 Y1.591
X6.4339 Y1.5938
X6.4725 Y1.5995
X6.5105 Y1.608
X6.5479 Y1.6192
X6.5843 Y1.6331
X6.6197 Y1.6496
X6.6538 Y1.6684
X6.6866 Y1.6895
X6.7178 Y1.7128
X6.7474 Y1.7383
X6.7751 Y1.7657
X6.8009 Y1.7949
X6.8247 Y1.8258
X6.8465 Y1.8581
X6.8661 Y1.8918
X6.8833 Y1.9268
X6.8981 Y1.9629
X6.9105 Y1.9999
X6.9203 Y2.0376
X6.9277 Y2.0759
X6.9324 Y2.1146
X6.9346 Y2.1535
X6.934 Y2.1925
X6.9307 Y2.2314
X6.9248 Y2.2699
X6.9163 Y2.3079
X6.9052 Y2.3453
X6.8917 Y2.3819
X6.8756 Y2.4174
X6.8571 Y2.4517
X6.8362 Y2.4847
X6.8132 Y2.5161
X6.788 Y2.5459
X6.761 Y2.574
X6.7321 Y2.6002
X6.7014 Y2.6243
X6.6692 Y2.6462
X6.6355 Y2.6659
X6.6006 Y2.6833
X6.5647 Y2.6984
X6.5278 Y2.711
X6.4902 Y2.7212
X6.4519 Y2.7288
X6.4132 Y2.7338
X6.3743 Y2.7362
X6.3353 Y2.7361
X6.2964 Y2.7335
X6.2578 Y2.7284
X6.2196 Y2.7207
X6.1819 Y2.7105
X6.145 Y2.6979
X6.109 Y2.6829
X6.074 Y2.6657
X6.0402 Y2.6463
X6.0077 Y2.6248
X5.9767 Y2.6012
X5.9472 Y2.5756
X5.9195 Y2.5482
X5.8936 Y2.5191
X5.8695 Y2.4884
X5.8475 Y2.4563
X5.8275 Y2.4228
X5.8097 Y2.3881
X5.7942 Y2.3523
X5.7809 Y2.3156
X5.77 Y2.2782
X5.7613 Y2.2402
X5.755 Y2.2017
X5.7512 Y2.1629
X5.7499 Y2.1239
X5.7511 Y2.085
X5.7547 Y2.0461
X5.7608 Y2.0076
X5.7691 Y1.9695
X5.7799 Y1.9321
X5.793 Y1.8953
X5.8084 Y1.8595
X5.826 Y1.8248
X5.8458 Y1.7911
X5.8675 Y1.7588
X5.8912 Y1.7278
X5.9168 Y1.6984
X5.9442 Y1.6706
X5.9733 Y1.6447
X6.004 Y1.6206
X6.0361 Y1.5985
X6.0695 Y1.5784
X6.1041 Y1.5604
X6.1397 Y1.5446
X6.1763 Y1.5311
X6.2137 Y1.5199
X6.2516 Y1.5111
X6.2901 Y1.5046
X6.3289 Y1.5004
X6.3678 Y1.4987
X6.4068 Y1.4993
X6.4456 Y1.5025
X6.4842 Y1.5082
X6.5224 Y1.5162
X6.56 Y1.5265
X6.5969 Y1.539
X6.633 Y1.5538
X6.6681 Y1.5707
X6.7022 Y1.5897
X6.735 Y1.6108
X6.7665 Y1.6337
X6.7966 Y1.6585
X6.8253 Y1.685
X6.8523 Y1.713
X6.8777 Y1.7426
X6.9013 Y1.7736
X6.9231 Y1.806
X6.9429 Y1.8396
X6.9608 Y1.8742
X6.9766 Y1.9098
X6.9904 Y1.9463
X7.0021 Y1.9835
X7.0116 Y2.0213
X7.0188 Y2.0596
X7.0238 Y2.0983
X7.0265 Y2.1372
X7.0269 Y2.1762
X7.0251 Y2.2151
X7.0211 Y2.2539
X7.0147 Y2.2924
X7.006 Y2.3304
X6.9951 Y2.3678
X6.982 Y2.4046
X6.9668 Y2.4405
X6.9496 Y2.4754
X6.9303 Y2.5093
X6.909 Y2.542
X6.8858 Y2.5733
X6.8608 Y2.6032
X6.8341 Y2.6317
X6.8058 Y2.6585
X6.776 Y2.6836
X6.7447 Y2.707
X6.7122 Y2.7284
X6.6784 Y2.7479
X6.6436 Y2.7654
X6.6078 Y2.7809
X6.5712 Y2.7943
X6.5338 Y2.8056
X6.4959 Y2.8147
X6.4576 Y2.8216
X6.4189 Y2.8263
X6.3799 Y2.8287
X6.341 Y2.8289
X6.302 Y2.827
X6.2632 Y2.8228
X6.2248 Y2.8165
X6.1867 Y2.8081
X6.1492 Y2.7975
X6.1123 Y2.7847
X6.0763 Y2.7699
X6.0411 Y2.7531
X6.0068 Y2.7345
X5.9737 Y2.7139
X5.9418 Y2.6916
X5.9111 Y2.6674
X5.8819 Y2.6416
X5.8542 Y2.6142
X5.828 Y2.5853
X5.8035 Y2.555
X5.7806 Y2.5234
X5.7595 Y2.4906
X5.7403 Y2.4567
X5.7229 Y2.4218
X5.7075 Y2.386
X5.6942 Y2.3493
X5.6828 Y2.312
X5.6735 Y2.2742
X5.6662 Y2.2359
X5.661 Y2.1972
X5.6579 Y2.1584
X5.657 Y2.1194
X5.6583 Y2.0804
X5.6617 Y2.0416
X5.6672 Y2.003
X5.6748 Y1.9647
X5.6844 Y1.9269
X5.696 Y1.8897
X5.7097 Y1.8532
X5.7254 Y1.8175
X5.743 Y1.7827
X5.7625 Y1.749
X5.7837 Y1.7163
X5.8067 Y1.6848
X5.8313 Y1.6545
X5.8576 Y1.6257
X5.8853 Y1.5983
X5.9146 Y1.5726
X5.9452 Y1.5484
X5.9771 Y1.526
X6.0102 Y1.5053
X6.0443 Y1.4864
X6.0793 Y1.4694
X6.1153 Y1.4543
X6.152 Y1.4412
X6.1894 Y1.4301
X6.2273 Y1.4211
X6.2657 Y1.4142
X6.3044 Y1.4092
X6.3433 Y1.4064
X6.3823 Y1.4057
X6.4212 Y1.407
X6.4601 Y1.4106
X6.4986 Y1.4163
X6.5368 Y1.424
X6.5746 Y1.4338
X6.6118 Y1.4455
X6.6483 Y1.4592
X6.6841 Y1.4747
X6.7189 Y1.4921
X6.7528 Y1.5114
X6.7856 Y1.5325
X6.8173 Y1.5552
X6.8478 Y1.5795
X6.877 Y1.6054
X6.9049 Y1.6327
X6.9313 Y1.6613
X6.9562 Y1.6913
X6.9796 Y1.7225
X7.0013 Y1.7549
X7.0213 Y1.7884
X7.0396 Y1.8228
X7.0561 Y1.8581
X7.0709 Y1.8942
X7.0838 Y1.931
X7.0949 Y1.9684
X7.1039 Y2.0063
X7.111 Y2.0446
X7.1161 Y2.0833
X7.1192 Y2.1222
X7.1204 Y2.1611
X7.1195 Y2.2001
X7.1167 Y2.239
X7.1119 Y2.2777
X7.1051 Y2.3161
X7.0963 Y2.3541
X7.0855 Y2.3915
X7.0728 Y2.4284
X7.0582 Y2.4646
X7.0418 Y2.4999
X7.0236 Y2.5344
X7.0037 Y2.5679
X6.9821 Y2.6004
X6.9587 Y2.6316
X6.9338 Y2.6616
X6.9073 Y2.6902
X6.8795 Y2.7175
X6.8503 Y2.7434
X6.8198 Y2.7677
X6.7881 Y2.7904
X6.7553 Y2.8115
X6.7215 Y2.8308
X6.6867 Y2.8484
X6.651 Y2.8641
X6.6146 Y2.8781
X6.5775 Y2.8902
X6.5399 Y2.9005
X6.5018 Y2.9088
X6.4634 Y2.9152
X6.4246 Y2.9196
X6.3857 Y2.9221
X6.3467 Y2.9226
X6.3078 Y2.9211
X6.2689 Y2.9177
X6.2303 Y2.9125
X6.1919 Y2.9053
X6.154 Y2.8963
X6.1166 Y2.8853
X6.0798 Y2.8725
X6.0437 Y2.8578
X6.0083 Y2.8414
X5.9738 Y2.8233
X5.9401 Y2.8035
X5.9075 Y2.7821
X5.876 Y2.7592
X5.8457 Y2.7347
X5.8166 Y2.7087
X5.7888 Y2.6814
X5.7625 Y2.6526
X5.7375 Y2.6227
X5.714 Y2.5915
X5.6921 Y2.5593
X5.6717 Y2.5261
X5.6529 Y2.4919
X5.6359 Y2.4568
X5.6206 Y2.421
X5.6071 Y2.3844
X5.5954 Y2.3472
X5.5854 Y2.3095
X5.5773 Y2.2714
X5.571 Y2.2329
X5.5665 Y2.1942
X5.5639 Y2.1553
X5.5633 Y2.1163
X5.5646 Y2.0773
X5.5677 Y2.0384
X5.5728 Y1.9998
X5.5796 Y1.9614
X5.5883 Y1.9234
X5.5988 Y1.8858
X5.611 Y1.8488
X5.6251 Y1.8124
X5.6409 Y1.7768
X5.6585 Y1.742
X5.6777 Y1.708
X5.6985 Y1.6751
X5.7208 Y1.6431
X5.7446 Y1.6122
X5.7698 Y1.5825
X5.7965 Y1.554
X5.8245 Y1.5269
X5.8538 Y1.5012
X5.8843 Y1.4769
X5.916 Y1.4542
X5.9487 Y1.4329
X5.9823 Y1.4133
X6.0169 Y1.3952
X6.0523 Y1.3788
X6.0884 Y1.3641
X6.1252 Y1.3513
X6.1626 Y1.3402
X6.2005 Y1.331
X6.2387 Y1.3235
X6.2773 Y1.3179
X6.3161 Y1.3141
X6.3551 Y1.3122
X6.3941 Y1.312
X6.433 Y1.3138
X6.4718 Y1.3176
X6.5104 Y1.3231
X6.5487 Y1.3306
X6.5866 Y1.3398
X6.624 Y1.3507
X6.6609 Y1.3634
X6.6971 Y1.3778
X6.7327 Y1.3938
X6.7674 Y1.4115
X6.8012 Y1.4309
X6.8341 Y1.4519
X6.866 Y1.4743
X6.8968 Y1.4982
X6.9266 Y1.5234
X6.9551 Y1.5499
X6.9825 Y1.5777
X7.0085 Y1.6067
X7.0332 Y1.6369
X7.0564 Y1.6682
X7.0782 Y1.7006
X7.0985 Y1.7339
X7.1173 Y1.7681
X7.1345 Y1.803
X7.1501 Y1.8388
X7.1642 Y1.8751
X7.1766 Y1.9121
X7.1872 Y1.9496
X7.1961 Y1.9876
X7.2033 Y2.0259
X7.2086 Y2.0645
X7.2123 Y2.1033
X7.2141 Y2.1423
X7.2143 Y2.1813
X7.2126 Y2.2202
X7.2092 Y2.2591
X7.204 Y2.2977
X7.197 Y2.3361
X7.1882 Y2.3741
X7.1777 Y2.4116
X7.1655 Y2.4486
X7.1516 Y2.485
X7.136 Y2.5208
X7.1189 Y2.5558
X7.1002 Y2.59
X7.0799 Y2.6234
X7.0581 Y2.6557
X7.0348 Y2.6869
X7.0101 Y2.7171
X6.984 Y2.7461
X6.9567 Y2.7739
X6.9281 Y2.8004
X6.8984 Y2.8256
X6.8675 Y2.8495
X6.8356 Y2.8719
X6.8027 Y2.8928
X6.7689 Y2.9121
X6.7342 Y2.9299
X6.6987 Y2.9461
X6.6625 Y2.9607
X6.6258 Y2.9737
X6.5884 Y2.985
X6.5507 Y2.9947
X6.5125 Y3.0026
X6.474 Y3.0088
X6.4353 Y3.0132
X6.3964 Y3.0158
X6.3574 Y3.0168
X6.3184 Y3.0159
X6.2795 Y3.0134
X6.2407 Y3.0092
X6.2022 Y3.0033
X6.1639 Y2.9957
X6.1261 Y2.9863
X6.0887 Y2.9753
X6.0518 Y2.9626
X6.0156 Y2.9483
X5.98 Y2.9324
X5.9451 Y2.9149
X5.911 Y2.896
X5.8778 Y2.8756
X5.8454 Y2.8538
X5.8141 Y2.8306
X5.7839 Y2.806
X5.7548 Y2.78
X5.7269 Y2.7528
X5.7001 Y2.7244
X5.6747 Y2.6949
X5.6505 Y2.6643
X5.6277 Y2.6327
X5.6062 Y2.6001
X5.5862 Y2.5667
X5.5676 Y2.5324
X5.5507 Y2.4973
X5.5352 Y2.4615
X5.5214 Y2.425
X5.5091 Y2.388
X5.4984 Y2.3505
X5.4894 Y2.3126
X5.4819 Y2.2743
X5.4761 Y2.2358
X5.472 Y2.197
X5.4696 Y2.1581
X5.4689 Y2.1191
X5.47 Y2.0801
X5.4727 Y2.0412
X5.4771 Y2.0025
X5.4831 Y1.9639
X5.4908 Y1.9257
X5.5 Y1.8878
X5.5109 Y1.8504
X5.5234 Y1.8135
X5.5376 Y1.7771
X5.5533 Y1.7415
X5.5705 Y1.7065
X5.5893 Y1.6723
X5.6094 Y1.6389
X5.631 Y1.6064
X5.6539 Y1.5749
X5.6781 Y1.5443
X5.7036 Y1.5148
X5.7304 Y1.4865
X5.7585 Y1.4594
X5.7876 Y1.4336
X5.8179 Y1.409
X5.8492 Y1.3857
X5.8814 Y1.3638
X5.9146 Y1.3433
X5.9486 Y1.3242
X5.9833 Y1.3065
X6.0188 Y1.2904
X6.055 Y1.2758
X6.0918 Y1.2629
X6.1291 Y1.2516
X6.1669 Y1.2419
X6.205 Y1.2337
X6.2435 Y1.2272
X6.2821 Y1.2224
X6.321 Y1.2191
X6.36 Y1.2175
X6.3989 Y1.2177
X6.4379 Y1.2196
X6.4767 Y1.2231
X6.5154 Y1.2283
X6.5537 Y1.2352
X6.5918 Y1.2436
X6.6295 Y1.2537
X6.6667 Y1.2653
X6.7034 Y1.2784
X6.7396 Y1.2931
X6.775 Y1.3093
X6.8097 Y1.327
X6.8437 Y1.3462
X6.8768 Y1.3668
X6.909 Y1.3887
X6.9403 Y1.412
X6.9707 Y1.4365
X7 Y1.4622
X7.0282 Y1.4891
X7.0554 Y1.5171
X7.0813 Y1.5462
X7.106 Y1.5764
X7.1294 Y1.6076
X7.1515 Y1.6397
X7.1722 Y1.6727
X7.1916 Y1.7065
X7.2097 Y1.7411
X7.2263 Y1.7763
X7.2416 Y1.8122
X7.2553 Y1.8487
X7.2675 Y1.8857
X7.2782 Y1.9232
X7.2872 Y1.9612
X7.2947 Y1.9994
X7.3007 Y2.038
X7.305 Y2.0767
X7.3078 Y2.1156
X7.309 Y2.1546
X7.3087 Y2.1936
X7.3067 Y2.2325
X7.3031 Y2.2713
X7.2979 Y2.31
X7.291 Y2.3484
X7.2826 Y2.3864
X7.2726 Y2.4241
X7.2611 Y2.4614
X7.2481 Y2.4981
X7.2335 Y2.5343
X7.2176 Y2.5699
X7.2002 Y2.6048
X7.1813 Y2.6389
X7.161 Y2.6722
X7.1393 Y2.7046
X7.1163 Y2.7361
X7.092 Y2.7666
X7.0665 Y2.7961
X7.0399 Y2.8245
X7.0121 Y2.8518
X6.9832 Y2.878
X6.9533 Y2.903
X6.9223 Y2.9267
X6.8904 Y2.9491
X6.8576 Y2.9702
X6.8239 Y2.9898
X6.7894 Y3.0081
X6.7543 Y3.025
X6.7185 Y3.0404
X6.6821 Y3.0544
X6.6452 Y3.0669
X6.6078 Y3.078
X6.57 Y3.0875
X6.5318 Y3.0954
X6.4933 Y3.1017
X6.4546 Y3.1064
X6.4157 Y3.1096
X6.3768 Y3.1112
X6.3378 Y3.1113
X6.2988 Y3.1098
X6.26 Y3.1068
X6.2212 Y3.1023
X6.1827 Y3.0961
X6.1445 Y3.0885
X6.1066 Y3.0792
X6.0691 Y3.0684
X6.0321 Y3.0562
X5.9956 Y3.0424
X5.9597 Y3.0273
X5.9244 Y3.0108
X5.8898 Y2.9928
X5.8559 Y2.9736
X5.8227 Y2.953
X5.7905 Y2.9311
X5.7592 Y2.9079
X5.7288 Y2.8834
X5.6994 Y2.8578
X5.6711 Y2.831
X5.6438 Y2.8031
X5.6177 Y2.7742
X5.5926 Y2.7443
X5.5688 Y2.7135
X5.5462 Y2.6817
X5.5248 Y2.6491
X5.5048 Y2.6156
X5.4862 Y2.5814
X5.4689 Y2.5464
X5.4531 Y2.5108
X5.4386 Y2.4746
X5.4255 Y2.4378
X5.4139 Y2.4006
X5.4037 Y2.363
X5.3949 Y2.325
X5.3877 Y2.2867
X5.382 Y2.2481
X5.3778 Y2.2094
X5.3752 Y2.1705
X5.3741 Y2.1315
X5.3746 Y2.0925
X5.3766 Y2.0535
X5.38 Y2.0147
X5.385 Y1.976
X5.3914 Y1.9376
X5.3993 Y1.8994
X5.4087 Y1.8616
X5.4197 Y1.8241
X5.4321 Y1.7872
X5.4459 Y1.7507
X5.4612 Y1.7148
X5.4778 Y1.6796
X5.4958 Y1.645
X5.5151 Y1.6111
X5.5357 Y1.578
X5.5576 Y1.5457
X5.5806 Y1.5143
X5.6049 Y1.4838
X5.6304 Y1.4543
X5.6571 Y1.4258
X5.6848 Y1.3984
X5.7136 Y1.3722
X5.7434 Y1.347
X5.7742 Y1.323
X5.8058 Y1.3002
X5.8383 Y1.2787
X5.8716 Y1.2584
X5.9056 Y1.2394
X5.9404 Y1.2218
X5.9759 Y1.2056
X6.012 Y1.1908
X6.0486 Y1.1774
X6.0857 Y1.1654
X6.1233 Y1.1549
X6.1612 Y1.1459
X6.1994 Y1.1382
X6.2379 Y1.1321
X6.2766 Y1.1274
X6.3155 Y1.1243
X6.3545 Y1.1227
X6.3934
X6.4324 Y1.1242
X6.4713 Y1.1272
X6.51 Y1.1317
X6.5485 Y1.1377
X6.5868 Y1.1451
X6.6248 Y1.154
X6.6624 Y1.1643
X6.6996 Y1.176
X6.7363 Y1.1892
X6.7724 Y1.2038
X6.808 Y1.2198
X6.8429 Y1.2372
X6.8771 Y1.2558
X6.9106 Y1.2758
X6.9434 Y1.297
X6.9753 Y1.3193
X7.0064 Y1.3429
X7.0365 Y1.3676
X7.0658 Y1.3934
X7.094 Y1.4203
X7.1212 Y1.4482
X7.1473 Y1.4772
X7.1723 Y1.5071
X7.1962 Y1.5379
X7.2189 Y1.5696
X7.2404 Y1.6021
X7.2607 Y1.6354
X7.2798 Y1.6694
X7.2976 Y1.7041
X7.3142 Y1.7394
X7.3294 Y1.7753
X7.3432 Y1.8118
X7.3556 Y1.8487
X7.3666 Y1.8861
X7.3762 Y1.9239
X7.3845 Y1.962
X7.3913 Y2.0004
X7.3966 Y2.039
X7.4006 Y2.0778
X7.4032 Y2.1167
X7.4043 Y2.1557
X7.4039 Y2.1947
X7.402 Y2.2336
X7.3986 Y2.2725
X7.3938 Y2.3112
X7.3875 Y2.3497
X7.3798 Y2.3879
X7.3707 Y2.4258
X7.3602 Y2.4633
X7.3483 Y2.5005
X7.335 Y2.5371
X7.3204 Y2.5733
X7.3044 Y2.6089
X7.2871 Y2.6438
X7.2684 Y2.678
X7.2485 Y2.7115
X7.2273 Y2.7443
X7.2049 Y2.7762
X7.1814 Y2.8073
X7.1567 Y2.8374
X7.1309 Y2.8667
X7.1041 Y2.895
X7.0762 Y2.9222
X7.0473 Y2.9484
X7.0174 Y2.9735
X6.9866 Y2.9974
X6.955 Y3.0201
X6.9225 Y3.0417
X6.8892 Y3.062
X6.8552 Y3.0811
X6.8205 Y3.0989
X6.7852 Y3.1154
X6.7493 Y3.1307
X6.7129 Y3.1446
X6.6759 Y3.1571
X6.6386 Y3.1682
X6.6008 Y3.1779
X6.5627 Y3.1862
X6.5243 Y3.1931
X6.4857 Y3.1986
X6.447 Y3.2027
X6.4081 Y3.2053
X6.3691 Y3.2066
X6.3301 Y3.2064
X6.2911 Y3.2048
X6.2523 Y3.2018
X6.2135 Y3.1973
X6.175 Y3.1914
X6.1367 Y3.1841
X6.0987 Y3.1754
X6.061 Y3.1653
X6.0238 Y3.1538
X5.9869 Y3.1411
X5.9506 Y3.127
X5.9147 Y3.1116
X5.8795 Y3.0949
X5.8449 Y3.077
X5.8109 Y3.0578
X5.7777 Y3.0373
X5.7453 Y3.0157
X5.7137 Y2.9929
X5.6829 Y2.9689
X5.653 Y2.9439
X5.624 Y2.9178
X5.596 Y2.8907
X5.5689 Y2.8626
X5.5429 Y2.8336
X5.5179 Y2.8037
X5.4941 Y2.7728
X5.4714 Y2.7411
X5.4498 Y2.7086
X5.4294 Y2.6754
X5.4103 Y2.6414
X5.3924 Y2.6068
X5.3757 Y2.5716
X5.3603 Y2.5357
X5.3461 Y2.4994
X5.3332 Y2.4626
X5.3217 Y2.4254
X5.3115 Y2.3877
X5.3027 Y2.3497
X5.2953 Y2.3115
X5.2892 Y2.273
X5.2845 Y2.2342
X5.2813 Y2.1954
X5.2794 Y2.1564
X5.2789 Y2.1175
X5.2797 Y2.0785
X5.282 Y2.0396
X5.2856 Y2.0007
X5.2906 Y1.9621
X5.297 Y1.9236
X5.3048 Y1.8854
X5.3139 Y1.8475
X5.3244 Y1.8099
X5.3362 Y1.7728
X5.3494 Y1.7361
X5.3638 Y1.6999
X5.3795 Y1.6642
X5.3965 Y1.6291
X5.4147 Y1.5946
X5.4341 Y1.5607
X5.4546 Y1.5276
X5.4764 Y1.4953
X5.4993 Y1.4637
X5.5233 Y1.433
X5.5485 Y1.4032
X5.5746 Y1.3743
X5.6018 Y1.3463
X5.6299 Y1.3193
X5.659 Y1.2934
X5.689 Y1.2684
X5.7198 Y1.2445
X5.7515 Y1.2218
X5.7839 Y1.2002
X5.8171 Y1.1797
X5.8511 Y1.1605
X5.8857 Y1.1425
X5.9209 Y1.1258
X5.9566 Y1.1103
X5.993 Y1.0961
X6.0297 Y1.0832
X6.067 Y1.0715
X6.1046 Y1.0612
X6.1425 Y1.0522
X6.1807 Y1.0446
X6.2192 Y1.0384
X6.2579 Y1.0335
X6.2967 Y1.03
X6.3357 Y1.028
X6.3747 Y1.0273
X6.4137 Y1.0279
X6.4526 Y1.03
X6.4914 Y1.0334
X6.5301 Y1.0382
X6.5686 Y1.0443
X6.6069 Y1.0518
X6.6449 Y1.0606
X6.6825 Y1.0707
X6.7198 Y1.0822
X6.7566 Y1.095
X6.793 Y1.1091
X6.8288 Y1.1245
X6.8641 Y1.141
X6.8988 Y1.1588
X6.9329 Y1.1778
X6.9663 Y1.1979
X6.9989 Y1.2192
X7.0309 Y1.2416
X7.062 Y1.2651
X7.0923 Y1.2896
X7.1217 Y1.3152
X7.1502 Y1.3418
X7.1778 Y1.3693
X7.2045 Y1.3978
X7.2301 Y1.4272
X7.2547 Y1.4574
X7.2783 Y1.4884
X7.3009 Y1.5203
X7.3223 Y1.5528
X7.3426 Y1.5861
X7.3618 Y1.6201
X7.3798 Y1.6547
X7.3966 Y1.6898
X7.4122 Y1.7256
X7.4265 Y1.7618
X7.4396 Y1.7986
X7.4514 Y1.8357
X7.462 Y1.8732
X7.4713 Y1.9111
X7.4793 Y1.9493
X7.486 Y1.9877
X7.4914 Y2.0263
X7.4955 Y2.0651
X7.4982 Y2.104
X7.4996 Y2.1429
Y2.1819
X7.4983 Y2.2209
X7.4957 Y2.2598
X7.4917 Y2.2986
X7.4864 Y2.3372
X7.4798 Y2.3756
X7.4719 Y2.4138
X7.4627 Y2.4517
X7.4522 Y2.4893
X7.4404 Y2.5264
X7.4273 Y2.5632
X7.413 Y2.5994
X7.3974 Y2.6352
X7.3806 Y2.6704
X7.3626 Y2.7049
X7.3434 Y2.7389
X7.3231 Y2.7722
X7.3017 Y2.8047
X7.2791 Y2.8366
X7.2555 Y2.8676
X7.2309 Y2.8978
X7.2052 Y2.9271
X7.1785 Y2.9555
X7.1508 Y2.983
X7.1222 Y3.0095
X7.0928 Y3.0351
X7.0624 Y3.0596
X7.0313 Y3.083
X6.9994 Y3.1054
X6.9667 Y3.1267
X6.9333 Y3.1469
X6.8993 Y3.1659
X6.8646 Y3.1837
X6.8294 Y3.2004
X6.7936 Y3.2158
X6.7573 Y3.23
X6.7205 Y3.243
X6.6833 Y3.2547
X6.6457 Y3.2651
X6.6078 Y3.2743
X6.5696 Y3.2822
X6.5312 Y3.2888
X6.4926 Y3.2941
X6.4538 Y3.2981
X6.4149 Y3.3007
X6.3759 Y3.3021
X6.3369 Y3.3022
X6.298 Y3.3009
X6.2591 Y3.2983
X6.2203 Y3.2944
X6.1816 Y3.2892
X6.1432 Y3.2828
X6.105 Y3.275
X6.067 Y3.266
X6.0294 Y3.2557
X5.9922 Y3.2442
X5.9553 Y3.2314
X5.9189 Y3.2174
X5.883 Y3.2022
X5.8477 Y3.1858
X5.8129 Y3.1682
X5.7787 Y3.1495
X5.7451 Y3.1296
X5.7122 Y3.1087
X5.6801 Y3.0867
X5.6486 Y3.0636
X5.618 Y3.0394
X5.5882 Y3.0143
X5.5592 Y2.9882
X5.5311 Y2.9612
X5.5039 Y2.9332
X5.4777 Y2.9044
X5.4525 Y2.8747
X5.4282 Y2.8442
X5.4049 Y2.8128
X5.3828 Y2.7808
X5.3616 Y2.748
X5.3416 Y2.7146
X5.3227 Y2.6805
X5.3049 Y2.6458
X5.2882 Y2.6105
X5.2728 Y2.5747
X5.2585 Y2.5385
X5.2454 Y2.5017
X5.2335 Y2.4646
X5.2229 Y2.4271
X5.2135 Y2.3892
X5.2054 Y2.3511
X5.1985 Y2.3127
X5.1929 Y2.2741
X5.1885 Y2.2354
X5.1854 Y2.1965
X5.1836 Y2.1576
X5.1831 Y2.1186
X5.1839 Y2.0796
X5.1859 Y2.0407
X5.1892 Y2.0018
X5.1938 Y1.9631
X5.1997 Y1.9245
X5.2068 Y1.8862
X5.2152 Y1.8481
X5.2248 Y1.8103
X5.2357 Y1.7729
X5.2477 Y1.7358
X5.261 Y1.6991
X5.2755 Y1.6629
X5.2911 Y1.6272
X5.3079 Y1.5921
X5.3259 Y1.5574
X5.345 Y1.5234
X5.3652 Y1.4901
X5.3864 Y1.4574
X5.4087 Y1.4254
X5.4321 Y1.3942
X5.4564 Y1.3638
X5.4818 Y1.3341
X5.5081 Y1.3053
X5.5353 Y1.2774
X5.5634 Y1.2504
X5.5924 Y1.2243
X5.6223 Y1.1992
X5.6529 Y1.1751
X5.6843 Y1.152
X5.7165 Y1.13
X5.7493 Y1.109
X5.7828 Y1.0891
X5.817 Y1.0703
X5.8518 Y1.0526
X5.8871 Y1.036
X5.9229 Y1.0206
X5.9592 Y1.0065
X5.996 Y0.9935
X6.0331 Y0.9817
X6.0707 Y0.9711
X6.1085 Y0.9618
X6.1467 Y0.9537
X6.185 Y0.9468
X6.2236 Y0.9412
X6.2624 Y0.9369
X6.3013 Y0.9339
X6.3402 Y0.9321
X6.3792 Y0.9315
X6.4182 Y0.9323
X6.4571 Y0.9343
X6.496 Y0.9376
X6.5347 Y0.9421
X6.5732 Y0.9479
X6.6116 Y0.955
X6.6497 Y0.9633
X6.6875 Y0.9728
X6.725 Y0.9835
X6.7621 Y0.9955
X6.7988 Y1.0086
X6.8351 Y1.0229
X6.8709 Y1.0383
X6.9062 Y1.0549
X6.9409 Y1.0727
X6.975 Y1.0915
X7.0086 Y1.1114
X7.0414 Y1.1324
X7.0736 Y1.1544
X7.1051 Y1.1774
X7.1358 Y1.2014
X7.1658 Y1.2264
X7.1949 Y1.2523
X7.2232 Y1.2791
X7.2507 Y1.3068
X7.2772 Y1.3353
X7.3029 Y1.3647
X7.3276 Y1.3949
X7.3513 Y1.4258
X7.3741 Y1.4575
X7.3958 Y1.4898
X7.4165 Y1.5229
X7.4362 Y1.5566
X7.4548 Y1.5908
X7.4723 Y1.6257
X7.4887 Y1.661
X7.504 Y1.6969
X7.5182 Y1.7332
X7.5312 Y1.77
X7.543 Y1.8071
X7.5537 Y1.8446
X7.5631 Y1.8825
X7.5714 Y1.9206
X7.5785 Y1.9589
X7.5843 Y1.9975
X7.5889 Y2.0362
X7.5924 Y2.075
X7.5946 Y2.1139
X7.5955 Y2.1529
X7.5953 Y2.1919
X7.5938 Y2.2309
X7.5911 Y2.2698
X7.5871 Y2.3086
X7.5819 Y2.3472
X7.5755 Y2.3857
X7.5678 Y2.4239
X7.559 Y2.4619
X7.549 Y2.4995
X7.5377 Y2.5369
X7.5254 Y2.5739
X7.5118 Y2.6104
X7.4971 Y2.6465
X7.4813 Y2.6822
X7.4643 Y2.7173
X7.4463 Y2.7518
X7.4271 Y2.7858
X7.4069 Y2.8191
X7.3856 Y2.8518
X7.3633 Y2.8838
X7.34 Y2.915
X7.3157 Y2.9456
X7.2905 Y2.9753
X7.2644 Y3.0042
X7.2373 Y3.0323
X7.2094 Y3.0595
X7.1806 Y3.0859
X7.1511 Y3.1113
X7.1207 Y3.1357
X7.0896 Y3.1592
X7.0577 Y3.1817
X7.0252 Y3.2032
X6.992 Y3.2236
X6.9581 Y3.243
X6.9237 Y3.2613
X6.8887 Y3.2785
X6.8532 Y3.2946
X6.8172 Y3.3096
X6.7808 Y3.3235
X6.7439 Y3.3362
X6.7067 Y3.3478
X6.6691 Y3.3582
X6.6312 Y3.3674
X6.5931 Y3.3754
X6.5547 Y3.3822
X6.5161 Y3.3878
X6.4773 Y3.3922
X6.4385 Y3.3954
X6.3996 Y3.3974
X6.3606 Y3.3981
X6.3216 Y3.3977
X6.2826 Y3.3961
X6.2437 Y3.3933
X6.205 Y3.3892
X6.1663 Y3.384
X6.1279 Y3.3775
X6.0896 Y3.3699
X6.0517 Y3.3611
X6.014 Y3.3511
X5.9766 Y3.3399
X5.9396 Y3.3276
X5.903 Y3.3142
X5.8668 Y3.2996
X5.8311 Y3.284
X5.7959 Y3.2672
X5.7612 Y3.2494
X5.7271 Y3.2306
X5.6936 Y3.2107
X5.6607 Y3.1897
X5.6285 Y3.1677
X5.5969 Y3.1448
X5.5661 Y3.1209
X5.5361 Y3.0961
X5.5068 Y3.0703
X5.4783 Y3.0437
X5.4506 Y3.0162
X5.4238 Y2.9879
X5.3979 Y2.9588
X5.3728 Y2.9289
X5.3487 Y2.8983
X5.3256 Y2.8669
X5.3034 Y2.8348
X5.2822 Y2.8021
X5.262 Y2.7687
X5.2429 Y2.7348
X5.2248 Y2.7002
X5.2077 Y2.6652
X5.1918 Y2.6296
X5.1769 Y2.5936
X5.1631 Y2.5571
X5.1504 Y2.5202
X5.1389 Y2.483
X5.1285 Y2.4454
X5.1192 Y2.4075
X5.1111 Y2.3694
X5.1042 Y2.331
X5.0984 Y2.2925
X5.0939 Y2.2537
X5.0905 Y2.2149
X5.0883 Y2.176
X5.0872 Y2.137
X5.0874 Y2.098
X5.0887 Y2.059
X5.0912 Y2.0201
X5.0949 Y1.9813
X5.0998 Y1.9426
X5.1058 Y1.9041
X5.113 Y1.8658
X5.1213 Y1.8277
X5.1309 Y1.7899
X5.1415 Y1.7524
X5.1533 Y1.7152
X5.1663 Y1.6784
X5.1803 Y1.6421
X5.1954 Y1.6061
X5.2116 Y1.5706
X5.2289 Y1.5357
X5.2472 Y1.5013
X5.2665 Y1.4674
X5.2869 Y1.4341
X5.3082 Y1.4015
X5.3306 Y1.3696
X5.3539 Y1.3383
X5.3781 Y1.3078
X5.4033 Y1.278
X5.4293 Y1.249
X5.4563 Y1.2208
X5.484 Y1.1934
X5.5126 Y1.1668
X5.5419 Y1.1412
X5.5721 Y1.1164
X5.6029 Y1.0926
X5.6345 Y1.0697
X5.6667 Y1.0477
X5.6996 Y1.0268
X5.7331 Y1.0069
X5.7672 Y0.988
X5.8019 Y0.9701
X5.837 Y0.9533
X5.8727 Y0.9376
X5.9089 Y0.9229
X5.9454 Y0.9094
X5.9824 Y0.8969
X6.0197 Y0.8856
X6.0573 Y0.8754
X6.0952 Y0.8663
X6.1334 Y0.8584
X6.1718 Y0.8517
X6.2104 Y0.8461
X6.2491 Y0.8417
X6.288 Y0.8385
X6.3269 Y0.8364
X6.3659 Y0.8355
X6.4049 Y0.8358
X6.4439 Y0.8373
X6.4828 Y0.84
X6.5216 Y0.8438
X6.5603 Y0.8488
X6.5988 Y0.8549
X6.6371 Y0.8622
X6.6751 Y0.8706
X6.7129 Y0.8801
X6.7504 Y0.8908
X6.7876 Y0.9027
X6.8244 Y0.9156
X6.8608 Y0.9296
X6.8967 Y0.9447
X6.9322 Y0.9609
X6.9672 Y0.9781
X7.0016 Y0.9963
X7.0355 Y1.0156
X7.0689 Y1.0358
X7.1016 Y1.057
X7.1337 Y1.0792
X7.1651 Y1.1023
X7.1958 Y1.1263
X7.2258 Y1.1512
X7.255 Y1.177
X7.2835 Y1.2036
X7.3112 Y1.2311
X7.338 Y1.2594
X7.364 Y1.2884
X7.3892 Y1.3182
X7.4135 Y1.3487
X7.4368 Y1.3799
X7.4593 Y1.4118
X7.4808 Y1.4443
X7.5014 Y1.4774
X7.521 Y1.5111
X7.5396 Y1.5454
X7.5572 Y1.5802
X7.5737 Y1.6155
X7.5892 Y1.6513
X7.6037 Y1.6875
X7.6171 Y1.7241
X7.6294 Y1.7611
X7.6406 Y1.7985
X7.6507 Y1.8361
X7.6598 Y1.874
X7.6677 Y1.9122
X7.6745 Y1.9506
X7.6802 Y1.9892
X7.6848 Y2.0279
X7.6882 Y2.0667
X7.6905 Y2.1057
X7.6916 Y2.1446
Y2.1836
X7.6904 Y2.2226
X7.6881 Y2.2615
X7.6847 Y2.3004
X7.6801 Y2.3391
X7.6744 Y2.3777
X7.6675 Y2.416
X7.6596 Y2.4542
X7.6505 Y2.4921
X7.6403 Y2.5298
X7.6291 Y2.5671
X7.6167 Y2.6041
X7.6032 Y2.6407
X7.5887 Y2.6768
X7.5731 Y2.7126
X7.5564 Y2.7478
X7.5388 Y2.7826
X7.5201 Y2.8168
X7.5004 Y2.8505
X7.4798 Y2.8835
X7.4581 Y2.916
X7.4356 Y2.9478
X7.4121 Y2.9789
X7.3878 Y3.0094
X7.3625 Y3.0391
X7.3364 Y3.068
X7.3094 Y3.0962
X7.2816 Y3.1236
X7.2531 Y3.1501
X7.2237 Y3.1758
X7.1936 Y3.2006
X7.1628 Y3.2245
X7.1314 Y3.2475
X7.0992 Y3.2696
X7.0665 Y3.2907
X7.0331 Y3.3109
X6.9992 Y3.3301
X6.9647 Y3.3484
X6.9297 Y3.3655
X6.8942 Y3.3817
X6.8583 Y3.3968
X6.8219 Y3.4109
X6.7852 Y3.4239
X6.748 Y3.4358
X6.7106 Y3.4466
X6.6728 Y3.4563
X6.6348 Y3.465
X6.5965 Y3.4725
X6.5581 Y3.479
X6.5195 Y3.4843
X6.4807 Y3.4885
X6.4418 Y3.4916
X6.4029 Y3.4936
X6.3639 Y3.4944
X6.3249 Y3.4941
X6.286 Y3.4926
X6.2471 Y3.4901
X6.2082 Y3.4864
X6.1695 Y3.4816
X6.131 Y3.4757
X6.0926 Y3.4687
X6.0545 Y3.4606
X6.0166 Y3.4514
X5.979 Y3.4411
X5.9417 Y3.4298
X5.9047 Y3.4174
X5.8681 Y3.4039
X5.8319 Y3.3894
X5.7962 Y3.3739
X5.7609 Y3.3573
X5.7261 Y3.3397
X5.6918 Y3.3211
X5.6581 Y3.3016
X5.6249 Y3.2811
X5.5923 Y3.2597
X5.5604 Y3.2373
X5.5291 Y3.2141
X5.4985 Y3.1899
X5.4685 Y3.1649
X5.4393 Y3.1391
X5.4109 Y3.1125
X5.3832 Y3.085
X5.3563 Y3.0567
X5.3302 Y3.0277
X5.305 Y2.998
X5.2806 Y2.9676
X5.2571 Y2.9365
X5.2345 Y2.9047
X5.2129 Y2.8723
X5.1921 Y2.8393
X5.1723 Y2.8057
X5.1534 Y2.7716
X5.1355 Y2.737
X5.1186 Y2.7018
X5.1027 Y2.6662
X5.0878 Y2.6302
X5.0739 Y2.5937
X5.0611 Y2.5569
X5.0494 Y2.5197
X5.0387 Y2.4823
X5.029 Y2.4445
X5.0204 Y2.4064
X5.013 Y2.3682
X5.0066 Y2.3297
X5.0012 Y2.2911
X4.997 Y2.2523
X4.9939 Y2.2135
X4.9918 Y2.1745
X4.9909 Y2.1355
X4.9911 Y2.0965
X4.9923 Y2.0576
X4.9947 Y2.0187
X4.9982 Y1.9798
X5.0028 Y1.9411
X5.0084 Y1.9025
X5.0152 Y1.8641
X5.023 Y1.8259
X5.032 Y1.788
X5.0419 Y1.7503
X5.053 Y1.7129
X5.065 Y1.6758
X5.0782 Y1.6391
X5.0923 Y1.6028
X5.1075 Y1.5668
X5.1236 Y1.5314
X5.1408 Y1.4964
X5.159 Y1.4618
X5.1781 Y1.4279
X5.1982 Y1.3944
X5.2192 Y1.3616
X5.2411 Y1.3293
X5.2639 Y1.2977
X5.2876 Y1.2668
X5.3122 Y1.2365
X5.3376 Y1.2069
X5.3638 Y1.1781
X5.3908 Y1.15
X5.4186 Y1.1226
X5.4472 Y1.0961
X5.4765 Y1.0704
X5.5065 Y1.0455
X5.5373 Y1.0215
X5.5686 Y0.9983
X5.6006 Y0.9761
X5.6333 Y0.9547
X5.6665 Y0.9343
X5.7003 Y0.9149
X5.7346 Y0.8963
X5.7694 Y0.8788
X5.8047 Y0.8622
X5.8405 Y0.8467
X5.8766 Y0.8321
X5.9132 Y0.8186
X5.9501 Y0.8061
X5.9874 Y0.7947
X6.025 Y0.7843
X6.0629 Y0.7749
X6.101 Y0.7667
X6.1393 Y0.7595
X6.1778 Y0.7534
X6.2165 Y0.7484
X6.2553 Y0.7445
X6.2941 Y0.7416
X6.3331 Y0.7399
X6.3721 Y0.7392
X6.4111 Y0.7396
X6.45 Y0.7412
X6.4889 Y0.7438
X6.5277 Y0.7475
X6.5664 Y0.7523
X6.605 Y0.7582
X6.6433 Y0.7652
X6.6815 Y0.7732
X6.7194 Y0.7823
X6.7571 Y0.7925
X6.7944 Y0.8036
X6.8314 Y0.8159
X6.8681 Y0.8291
X6.9044 Y0.8434
X6.9403 Y0.8586
X6.9757 Y0.8749
X7.0107 Y0.8921
X7.0452 Y0.9103
X7.0792 Y0.9294
X7.1126 Y0.9495
X7.1455 Y0.9705
X7.1777 Y0.9923
X7.2094 Y1.0151
X7.2404 Y1.0387
X7.2708 Y1.0632
X7.3005 Y1.0884
X7.3295 Y1.1145
X7.3577 Y1.1414
X7.3852 Y1.169
X7.412 Y1.1974
X7.438 Y1.2265
X7.4631 Y1.2563
X7.4875 Y1.2867
X7.5109 Y1.3178
X7.5336 Y1.3496
X7.5553 Y1.382
X7.5762 Y1.4149
X7.5962 Y1.4484
X7.6152 Y1.4824
X7.6333 Y1.5169
X7.6505 Y1.5519
X7.6667 Y1.5874
X7.6819 Y1.6233
X7.6962 Y1.6596
X7.7095 Y1.6962
X7.7217 Y1.7333
X7.733 Y1.7706
X7.7432 Y1.8082
X7.7523 Y1.8461
X7.7605 Y1.8843
X7.7676 Y1.9226
X7.7737 Y1.9611
X7.7787 Y1.9998
X7.7826 Y2.0386
X7.7855 Y2.0775
X7.7873 Y2.1164
X7.7881 Y2.1554
X7.7878 Y2.1944
X7.7864 Y2.2333
X7.784 Y2.2723
X7.7805 Y2.3111
X7.776 Y2.3498
X7.7703 Y2.3884
X7.7636 Y2.4268
X7.7559 Y2.465
X7.7471 Y2.503
X7.7373 Y2.5408
X7.7265 Y2.5782
X7.7147 Y2.6154
X7.7018 Y2.6522
X7.6879 Y2.6886
X7.6731 Y2.7247
X7.6572 Y2.7603
X7.6404 Y2.7955
X7.6227 Y2.8302
X7.604 Y2.8644
X7.5843 Y2.8981
X7.5638 Y2.9312
X7.5423 Y2.9637
X7.5199 Y2.9957
X7.4967 Y3.027
X7.4727 Y3.0577
X7.4478 Y3.0877
X7.4221 Y3.1171
X7.3956 Y3.1457
X7.3684 Y3.1736
X7.3403 Y3.2007
X7.3116 Y3.227
X7.2822 Y3.2526
X7.252 Y3.2774
X7.2212 Y3.3013
X7.1898 Y3.3243
X7.1577 Y3.3465
X7.1251 Y3.3678
X7.0919 Y3.3882
X7.0581 Y3.4077
X7.0238 Y3.4263
X6.989 Y3.4439
X6.9538 Y3.4606
X6.9181 Y3.4763
X6.882 Y3.4911
X6.8455 Y3.5049
X6.8087 Y3.5176
X6.7715 Y3.5294
X6.7341 Y3.5402
X6.6963 Y3.5499
X6.6583 Y3.5586
X6.6201 Y3.5663
X6.5817 Y3.5729
X6.5431 Y3.5785
X6.5043 Y3.5831
X6.4655 Y3.5866
X6.4266 Y3.589
X6.3876 Y3.5904
X6.3486 Y3.5908
X6.3097 Y3.5901
X6.2707 Y3.5884
X6.2318 Y3.5856
X6.193 Y3.5818
X6.1543 Y3.5769
X6.1158 Y3.571
X6.0774 Y3.5641
X6.0393 Y3.5561
X6.0013 Y3.5471
X5.9636 Y3.5371
X5.9262 Y3.526
X5.8891 Y3.514
X5.8524 Y3.501
X5.816 Y3.487
X5.78 Y3.4721
X5.7444 Y3.4562
X5.7092 Y3.4393
X5.6745 Y3.4216
X5.6403 Y3.4029
X5.6066 Y3.3833
X5.5734 Y3.3628
X5.5408 Y3.3414
X5.5088 Y3.3191
X5.4774 Y3.296
X5.4466 Y3.2721
X5.4165 Y3.2473
X5.387 Y3.2218
X5.3582 Y3.1955
X5.3302 Y3.1684
X5.3028 Y3.1406
X5.2762 Y3.1121
X5.2504 Y3.0829
X5.2254 Y3.053
X5.2011 Y3.0225
X5.1777 Y2.9913
X5.1551 Y2.9595
X5.1334 Y2.9272
X5.1125 Y2.8942
X5.0926 Y2.8607
X5.0735 Y2.8267
X5.0553 Y2.7922
X5.038 Y2.7573
X5.0217 Y2.7218
X5.0063 Y2.686
X4.9919 Y2.6498
X4.9784 Y2.6132
X4.966 Y2.5763
X4.9544 Y2.539
X4.9439 Y2.5015
X4.9344 Y2.4637
X4.9258 Y2.4256
X4.9183 Y2.3874
X4.9118 Y2.3489
X4.9064 Y2.3103
X4.9019 Y2.2716
X4.8985 Y2.2327
X4.8961 Y2.1938
X4.8947 Y2.1549
X4.8944 Y2.1159
X4.8951 Y2.0769
X4.8968 Y2.0379
X4.8995 Y1.999
X4.9033 Y1.9602
X4.908 Y1.9215
X4.9138 Y1.883
X4.9206 Y1.8446
X4.9285 Y1.8064
X4.9373 Y1.7684
X4.9472 Y1.7307
X4.958 Y1.6932
X4.9698 Y1.6561
X4.9826 Y1.6192
X4.9964 Y1.5828
X5.0111 Y1.5467
X5.0268 Y1.5109
X5.0434 Y1.4757
X5.0609 Y1.4408
X5.0793 Y1.4065
X5.0986 Y1.3726
X5.1188 Y1.3392
X5.1399 Y1.3064
X5.1618 Y1.2742
X5.1846 Y1.2426
X5.2082 Y1.2115
X5.2327 Y1.1811
X5.2579 Y1.1514
X5.2839 Y1.1223
X5.3106 Y1.094
X5.3381 Y1.0663
X5.3663 Y1.0394
X5.3952 Y1.0132
X5.4248 Y0.9878
X5.455 Y0.9632
X5.4859 Y0.9394
X5.5173 Y0.9164
X5.5494 Y0.8942
X5.5821 Y0.8729
X5.6153 Y0.8524
X5.649 Y0.8329
X5.6833 Y0.8142
X5.718 Y0.7965
X5.7531 Y0.7797
X5.7887 Y0.7638
X5.8248 Y0.7488
X5.8611 Y0.7348
X5.8979 Y0.7218
X5.935 Y0.7097
X5.9723 Y0.6986
X6.01 Y0.6885
X6.0479 Y0.6793
X6.086 Y0.6712
X6.1244 Y0.6641
X6.1629 Y0.658
X6.2015 Y0.6529
X6.2403 Y0.6489
X6.2792 Y0.6458
X6.2945 Y0.645
X6.2965
X6.3883
X6.4272 Y0.6469
X6.4662 Y0.6477
X6.5051 Y0.6499
X6.544 Y0.6532
X6.5827 Y0.6578
X6.6213 Y0.6635
X6.6597 Y0.6703
X6.6979 Y0.6781
X6.7358 Y0.687
X6.7736 Y0.6969
X6.811 Y0.7078
X6.8481 Y0.7196
X6.885 Y0.7324
X6.9214 Y0.7462
X6.9576 Y0.7609
X6.9933 Y0.7766
X7.0286 Y0.7931
X7.0634 Y0.8106
X7.0978 Y0.829
X7.1317 Y0.8482
X7.1651 Y0.8684
X7.198 Y0.8893
X7.2303 Y0.9112
X7.262 Y0.9338
X7.2932 Y0.9573
X7.3237 Y0.9816
X7.3536 Y1.0066
X7.3828 Y1.0324
X7.4114 Y1.0589
X7.4393 Y1.0862
X7.4664 Y1.1141
X7.4929 Y1.1428
X7.5186 Y1.1721
X7.5436 Y1.202
X7.5678 Y1.2326
X7.5912 Y1.2638
X7.6137 Y1.2956
X7.6355 Y1.3279
X7.6564 Y1.3608
X7.6765 Y1.3943
X7.6957 Y1.4282
X7.7141 Y1.4626
X7.7315 Y1.4975
X7.7481 Y1.5328
X7.7637 Y1.5685
X7.7785 Y1.6046
X7.7923 Y1.641
X7.8052 Y1.6778
X7.8172 Y1.7149
X7.8282 Y1.7523
X7.8382 Y1.79
X7.8473 Y1.8279
X7.8554 Y1.8661
X7.8626 Y1.9044
X7.8687 Y1.9429
X7.8738 Y1.9816
X7.878 Y2.0203
X7.8811 Y2.0592
X7.8833 Y2.0981
X7.8845 Y2.1371
X7.8847 Y2.1761
X7.8838 Y2.2151
X7.882 Y2.254
X7.8792 Y2.2929
X7.8754 Y2.3317
X7.8706 Y2.3704
X7.8649 Y2.409
X7.8581 Y2.4474
X7.8504 Y2.4856
X7.8416 Y2.5236
X7.8319 Y2.5613
X7.8212 Y2.5988
X7.8096 Y2.6361
X7.797 Y2.673
X7.7835 Y2.7095
X7.769 Y2.7457
X7.7536 Y2.7816
X7.7373 Y2.817
X7.7201 Y2.852
X7.7021 Y2.8865
X7.6831 Y2.9206
X7.6633 Y2.9542
X7.6426 Y2.9872
X7.6211 Y3.0198
X7.5987 Y3.0517
X7.5756 Y3.0831
X7.5516 Y3.1138
X7.5268 Y3.1439
X7.5013 Y3.1734
X7.4751 Y3.2022
X7.4481 Y3.2304
X7.4204 Y3.2578
X7.392 Y3.2846
X7.3629 Y3.3106
X7.3332 Y3.3358
X7.3029 Y3.3603
X7.2719 Y3.384
X7.2404 Y3.4069
X7.2082 Y3.429
X7.1756 Y3.4503
X7.1423 Y3.4707
X7.1086 Y3.4902
X7.0744 Y3.5089
X7.0397 Y3.5267
X7.0046 Y3.5436
X6.969 Y3.5596
X6.9331 Y3.5747
X6.8968 Y3.5889
X6.862 Y3.6015
X6.8555 Y3.6034
X6.8489 Y3.6046
X6.8422 Y3.605
X5.9631
X5.9242 Y3.6031
X5.9048 Y3.6009
X5.8662 Y3.595
X5.8283 Y3.5861
X5.7909 Y3.5749
X5.7542 Y3.562
X5.718 Y3.5475
X5.6823 Y3.5318
X5.6471 Y3.5149
X5.6125 Y3.497
X5.5784 Y3.4782
X5.5448 Y3.4584
X5.5117 Y3.4377
X5.4792 Y3.4162
X5.4473 Y3.3938
X5.4159 Y3.3706
X5.3851 Y3.3467
X5.355 Y3.322
X5.3255 Y3.2965
X5.2966 Y3.2703
X5.2684 Y3.2433
X5.2409 Y3.2157
X5.2141 Y3.1874
X5.188 Y3.1584
X5.1626 Y3.1288
X5.138 Y3.0986
X5.1141 Y3.0678
X5.091 Y3.0364
X5.0687 Y3.0044
X5.0472 Y2.9719
X5.0265 Y2.9388
X5.0066 Y2.9053
X4.9876 Y2.8713
X4.9694 Y2.8368
X4.9521 Y2.8018
X4.9357 Y2.7665
X4.9202 Y2.7307
X4.9055 Y2.6945
X4.8918 Y2.6581
X4.8789 Y2.6212
X4.867 Y2.5841
X4.856 Y2.5467
X4.846 Y2.509
X4.8368 Y2.4711
X4.8286 Y2.433
X4.8214 Y2.3947
X4.8151 Y2.3562
X4.8098 Y2.3176
X4.8054 Y2.2789
X4.802 Y2.24
X4.7996 Y2.2011
X4.7981 Y2.1621
X4.7976 Y2.1231
X4.7981 Y2.0842
X4.7995 Y2.0452
X4.8019 Y2.0063
X4.8053 Y1.9674
X4.8096 Y1.9287
X4.8149 Y1.89
X4.8211 Y1.8516
X4.8283 Y1.8132
X4.8364 Y1.7751
X4.8455 Y1.7372
X4.8554 Y1.6995
X4.8664 Y1.6621
X4.8782 Y1.6249
X4.891 Y1.5881
X4.9047 Y1.5516
X4.9193 Y1.5154
X4.9348 Y1.4796
X4.9511 Y1.4442
X4.9684 Y1.4093
X4.9864 Y1.3747
X5.0054 Y1.3406
X5.0251 Y1.307
X5.0457 Y1.2739
X5.0671 Y1.2413
X5.0893 Y1.2092
X5.1123 Y1.1778
X5.1361 Y1.1468
X5.1606 Y1.1165
X5.1858 Y1.0868
X5.2118 Y1.0577
X5.2385 Y1.0293
X5.2659 Y1.0016
X5.294 Y0.9745
X5.3227 Y0.9482
X5.3521 Y0.9225
X5.3821 Y0.8976
X5.4127 Y0.8735
X5.4439 Y0.8501
X5.4757 Y0.8275
X5.508 Y0.8056
X5.5408 Y0.7846
X5.5741 Y0.7644
X5.608 Y0.745
X5.6423 Y0.7265
X5.677 Y0.7088
X5.7122 Y0.692
X5.7478 Y0.676
X5.7838 Y0.661
X5.8201 Y0.6468
X5.8235 Y0.6458
X5.8271 Y0.6452
X5.8307 Y0.645
X6.2965
G3 X6.306 Y0.6472 I-0.0009 J0.025 F30
X6.308 Y0.6483 I-0.0104 J0.0227 F39.37
G1 X6.3439 Y0.6687
G2 X6.3809 Y0.6514 I0.0124 J-0.0217
G3 X6.381 Y0.6507 I0.0077 J0.0014
X6.3883 Y0.645 I0.0075 J0.0022 F30
G1 X6.8223 F39.37
X6.8613 Y0.6469
X6.8806 Y0.6494
X6.9186 Y0.6559
X6.9563 Y0.6656
X6.9935 Y0.6776
X7.0299 Y0.6914
X7.0658 Y0.7067
X7.1011 Y0.7232
X7.1358 Y0.7409
X7.1701 Y0.7596
X7.2038 Y0.7792
X7.2369 Y0.7997
X7.2695 Y0.8211
X7.3016 Y0.8433
X7.3331 Y0.8662
X7.364 Y0.89
X7.3944 Y0.9145
X7.4241 Y0.9397
X7.4532 Y0.9656
X7.4817 Y0.9922
X7.5096 Y1.0195
X7.5367 Y1.0475
X7.5632 Y1.0761
X7.589 Y1.1054
X7.6141 Y1.1352
X7.6384 Y1.1657
X7.662 Y1.1967
X7.6848 Y1.2283
X7.7069 Y1.2605
X7.7282 Y1.2931
X7.7487 Y1.3263
X7.7684 Y1.3599
X7.7873 Y1.3941
X7.8054 Y1.4286
X7.8226 Y1.4636
X7.8391 Y1.4989
X7.8546 Y1.5347
X7.8693 Y1.5708
X7.8831 Y1.6073
X7.8961 Y1.644
X7.9081 Y1.6811
X7.9193 Y1.7185
X7.9295 Y1.7561
X7.9389 Y1.794
X7.9473 Y1.832
X7.9548 Y1.8703
X7.9614 Y1.9087
X7.967 Y1.9473
X7.9718 Y1.986
X7.9756 Y2.0248
X7.9784 Y2.0637
X7.9804 Y2.1026
X7.9814 Y2.1416
X7.9815 Y2.1806
X7.9806 Y2.2196
X7.9788 Y2.2585
X7.9761 Y2.2974
X7.9724 Y2.3363
X7.9677 Y2.375
X7.9622 Y2.4136
X7.9557 Y2.452
X7.9483 Y2.4903
X7.9399 Y2.5284
X7.9307 Y2.5663
X7.9205 Y2.6039
X7.9095 Y2.6413
X7.8975 Y2.6784
X7.8847 Y2.7152
X7.8709 Y2.7517
X7.8563 Y2.7879
X7.8409 Y2.8237
X7.8246 Y2.8591
X7.8074 Y2.8941
X7.7894 Y2.9287
X7.7705 Y2.9628
X7.7509 Y2.9965
X7.7304 Y3.0296
X7.7091 Y3.0623
X7.6871 Y3.0945
X7.6643 Y3.1261
X7.6407 Y3.1571
X7.6164 Y3.1876
X7.5913 Y3.2175
X7.5656 Y3.2468
X7.5391 Y3.2754
X7.512 Y3.3034
X7.4842 Y3.3308
X7.4558 Y3.3575
X7.4267 Y3.3835
X7.397 Y3.4088
X7.3667 Y3.4333
X7.3359 Y3.4571
X7.3044 Y3.4802
X7.2724 Y3.5025
X7.2399 Y3.524
X7.2069 Y3.5447
X7.1734 Y3.5647
X7.1394 Y3.5838
X7.1124 Y3.5982
X7.1037 Y3.6019
X7.0945 Y3.6042
X7.085 Y3.605
X6.8422
G3 X6.8327 Y3.6028 I0.0009 J-0.025 F30
G1 X6.8291 Y3.6011 Z-0.1993
X6.8256 Y3.5996 Z-0.1984
X6.8223 Y3.5981 Z-0.1969
X6.8193 Y3.5967 Z-0.1948
X6.8166 Y3.5954 Z-0.1923
X6.8143 Y3.5944 Z-0.1893
X6.8124 Y3.5935 Z-0.186
X6.811 Y3.5929 Z-0.1823
X6.8102 Y3.5925 Z-0.1785
X6.8099 Y3.5924 Z-0.1746
G0 Z0.2
X6.8105 Y0.676
Z-0.1496
G1 Z-0.1746 F30
Y0.6757 Z-0.1785
X6.8107 Y0.6748 Z-0.1823
X6.811 Y0.6734 Z-0.186
X6.8113 Y0.6713 Z-0.1893
X6.8118 Y0.6688 Z-0.1923
X6.8123 Y0.6659 Z-0.1948
X6.8129 Y0.6626 Z-0.1969
X6.8135 Y0.659 Z-0.1984
X6.8142 Y0.6553 Z-0.1993
X6.8149 Y0.6514 Z-0.1996
G3 X6.8223 Y0.645 I0.0077 J0.0014
G1 X7.0526 F39.37
X7.0829 Y0.6465
X7.1066 Y0.6496
X7.1347 Y0.6556
X7.1694 Y0.666
X7.2057 Y0.6802
X7.241 Y0.6967
X7.2754 Y0.7151
X7.309 Y0.7349
X7.3419 Y0.7559
X7.3741 Y0.7779
X7.4056 Y0.8008
X7.4365 Y0.8246
X7.4667 Y0.8492
X7.4964 Y0.8745
X7.5254 Y0.9006
X7.5538 Y0.9273
X7.5816 Y0.9546
X7.6088 Y0.9826
X7.6352 Y1.0112
X7.6611 Y1.0404
X7.6862 Y1.0702
X7.7106 Y1.1006
X7.7344 Y1.1316
X7.7574 Y1.163
X7.7797 Y1.195
X7.8013 Y1.2275
X7.8221 Y1.2604
X7.8422 Y1.2938
X7.8616 Y1.3277
X7.8801 Y1.362
X7.8979 Y1.3967
X7.9149 Y1.4318
X7.9311 Y1.4672
X7.9465 Y1.5031
X7.9611 Y1.5392
X7.9749 Y1.5757
X7.9878 Y1.6125
X7.9999 Y1.6495
X8.0111 Y1.6869
X8.0215 Y1.7245
X8.031 Y1.7623
X8.0397 Y1.8003
X8.0475 Y1.8385
X8.0544 Y1.8769
X8.0605 Y1.9154
X8.0657 Y1.954
X8.07 Y1.9928
X8.0734 Y2.0316
X8.076 Y2.0705
X8.0777 Y2.1095
X8.0785 Y2.1485
X8.0784 Y2.1875
X8.0774 Y2.2264
X8.0756 Y2.2654
X8.0728 Y2.3043
X8.0692 Y2.3431
X8.0647 Y2.3818
X8.0593 Y2.4204
X8.053 Y2.4589
X8.0458 Y2.4972
X8.0378 Y2.5354
X8.0289 Y2.5734
X8.0191 Y2.6111
X8.0085 Y2.6486
X7.9971 Y2.6859
X7.9848 Y2.7229
X7.9717 Y2.7596
X7.9577 Y2.796
X7.943 Y2.8321
X7.9274 Y2.8679
X7.911 Y2.9032
X7.8938 Y2.9382
X7.8758 Y2.9728
X7.857 Y3.007
X7.8374 Y3.0407
X7.8171 Y3.074
X7.796 Y3.1068
X7.7742 Y3.1391
X7.7516 Y3.1709
X7.7284 Y3.2022
X7.7044 Y3.2329
X7.6797 Y3.2631
X7.6544 Y3.2928
X7.6284 Y3.3218
X7.6018 Y3.3503
X7.5745 Y3.3782
X7.5466 Y3.4054
X7.5181 Y3.432
X7.489 Y3.4579
X7.4593 Y3.4832
X7.429 Y3.5078
X7.3982 Y3.5317
X7.3668 Y3.5548
X7.3349 Y3.5773
X7.3083 Y3.5951
X7.2982 Y3.6005
X7.2872 Y3.6039
X7.2758 Y3.605
X7.085
G3 X7.0755 Y3.6028 I0.0009 J-0.025 F30
G1 X7.072 Y3.6011 Z-0.1993
X7.0685 Y3.5996 Z-0.1984
X7.0652 Y3.5981 Z-0.1969
X7.0622 Y3.5967 Z-0.1948
X7.0594 Y3.5954 Z-0.1923
X7.0571 Y3.5944 Z-0.1893
X7.0553 Y3.5935 Z-0.186
X7.0539 Y3.5929 Z-0.1823
X7.0531 Y3.5925 Z-0.1785
X7.0528 Y3.5924 Z-0.1746
G0 Z0.2
X7.0408 Y0.676
Z-0.1496
G1 Z-0.1746 F30
Y0.6757 Z-0.1785
X7.041 Y0.6748 Z-0.1823
X7.0413 Y0.6734 Z-0.186
X7.0416 Y0.6713 Z-0.1893
X7.0421 Y0.6688 Z-0.1923
X7.0426 Y0.6659 Z-0.1948
X7.0432 Y0.6626 Z-0.1969
X7.0438 Y0.659 Z-0.1984
X7.0445 Y0.6553 Z-0.1993
X7.0452 Y0.6514 Z-0.1996
G3 X7.0526 Y0.645 I0.0077 J0.0014
G1 X7.2386 F39.37
X7.264 Y0.6463
X7.2834 Y0.6488
X7.3056 Y0.6536
X7.3327 Y0.6617
X7.3654 Y0.6744
X7.4005 Y0.6914
X7.4343 Y0.7109
X7.467 Y0.7321
X7.4987 Y0.7547
X7.5297 Y0.7785
X7.5598 Y0.8032
X7.5892 Y0.8288
X7.6179 Y0.8552
X7.6459 Y0.8823
X7.6733 Y0.9101
X7.7 Y0.9385
X7.7261 Y0.9675
X7.7515 Y0.9971
X7.7762 Y1.0272
X7.8003 Y1.0579
X7.8237 Y1.089
X7.8464 Y1.1207
X7.8684 Y1.1529
X7.8898 Y1.1855
X7.9104 Y1.2186
X7.9303 Y1.2521
X7.9496 Y1.2861
X7.968 Y1.3204
X7.9858 Y1.3551
X8.0028 Y1.3902
X8.019 Y1.4256
X8.0345 Y1.4614
X8.0492 Y1.4976
X8.0631 Y1.534
X8.0762 Y1.5707
X8.0885 Y1.6077
X8.1001 Y1.6449
X8.1108 Y1.6824
X8.1207 Y1.7201
X8.1298 Y1.758
X8.1381 Y1.7961
X8.1455 Y1.8344
X8.1522 Y1.8728
X8.158 Y1.9114
X8.163 Y1.9501
X8.1672 Y1.9888
X8.1706 Y2.0277
X8.1731 Y2.0666
X8.1748 Y2.1055
X8.1756 Y2.1445
Y2.1835
X8.1748 Y2.2225
X8.1731 Y2.2614
X8.1706 Y2.3003
X8.1672 Y2.3392
X8.163 Y2.378
X8.158 Y2.4166
X8.1521 Y2.4552
X8.1454 Y2.4936
X8.1379 Y2.5318
X8.1295 Y2.5699
X8.1204 Y2.6078
X8.1104 Y2.6455
X8.0997 Y2.683
X8.0881 Y2.7202
X8.0758 Y2.7572
X8.0626 Y2.7939
X8.0487 Y2.8303
X8.034 Y2.8665
X8.0185 Y2.9022
X8.0022 Y2.9377
X7.9852 Y2.9727
X7.9674 Y3.0074
X7.9488 Y3.0417
X7.9296 Y3.0756
X7.9096 Y3.1091
X7.8889 Y3.1421
X7.8674 Y3.1747
X7.8453 Y3.2068
X7.8225 Y3.2385
X7.7991 Y3.2696
X7.7749 Y3.3002
X7.7502 Y3.3303
X7.7248 Y3.3599
X7.6987 Y3.3889
X7.6721 Y3.4174
X7.6448 Y3.4453
X7.617 Y3.4726
X7.5885 Y3.4992
X7.5595 Y3.5253
X7.53 Y3.5507
X7.4998 Y3.5755
X7.4782 Y3.5925
X7.4672 Y3.5993
X7.455 Y3.6036
X7.4422 Y3.605
X7.2758
G3 X7.2663 Y3.6028 I0.0009 J-0.025 F30
G1 X7.2628 Y3.6011 Z-0.1993
X7.2593 Y3.5996 Z-0.1984
X7.256 Y3.5981 Z-0.1969
X7.253 Y3.5967 Z-0.1948
X7.2503 Y3.5954 Z-0.1923
X7.2479 Y3.5944 Z-0.1893
X7.2461 Y3.5935 Z-0.186
X7.2447 Y3.5929 Z-0.1823
X7.2439 Y3.5925 Z-0.1785
X7.2436 Y3.5924 Z-0.1746
G0 Z0.2
X7.2268 Y0.676
Z-0.1496
G1 Z-0.1746 F30
X7.2269 Y0.6757 Z-0.1785
X7.227 Y0.6748 Z-0.1823
X7.2273 Y0.6734 Z-0.186
X7.2277 Y0.6713 Z-0.1893
X7.2281 Y0.6688 Z-0.1923
X7.2286 Y0.6659 Z-0.1948
X7.2292 Y0.6626 Z-0.1969
X7.2299 Y0.659 Z-0.1984
X7.2305 Y0.6553 Z-0.1993
X7.2312 Y0.6514 Z-0.1996
G3 X7.2386 Y0.645 I0.0077 J0.0014
G1 X7.4069 F39.37
X7.4243 Y0.6459
X7.4412 Y0.6481
X7.4607 Y0.6522
X7.484 Y0.6592
X7.5108 Y0.6697
X7.5433 Y0.6855
X7.5769 Y0.7052
X7.6091 Y0.7272
X7.6401 Y0.7509
X7.6701 Y0.7758
X7.6991 Y0.8018
X7.7273 Y0.8287
X7.7548 Y0.8564
X7.7815 Y0.8848
X7.8075 Y0.9139
X7.8329 Y0.9435
X7.8576 Y0.9737
X7.8816 Y1.0044
X7.9049 Y1.0356
X7.9277 Y1.0673
X7.9497 Y1.0994
X7.9711 Y1.1321
X7.9918 Y1.1651
X8.0118 Y1.1986
X8.0311 Y1.2324
X8.0497 Y1.2667
X8.0677 Y1.3013
X8.0849 Y1.3363
X8.1014 Y1.3716
X8.1172 Y1.4073
X8.1322 Y1.4432
X8.1465 Y1.4795
X8.1601 Y1.5161
X8.1729 Y1.5529
X8.185 Y1.59
X8.1963 Y1.6273
X8.2068 Y1.6648
X8.2166 Y1.7026
X8.2256 Y1.7405
X8.2338 Y1.7786
X8.2413 Y1.8169
X8.248 Y1.8553
X8.2539 Y1.8938
X8.259 Y1.9325
X8.2633 Y1.9712
X8.2668 Y2.0101
X8.2696 Y2.049
X8.2715 Y2.0879
X8.2727 Y2.1269
X8.273 Y2.1659
X8.2726 Y2.2049
X8.2713 Y2.2438
X8.2693 Y2.2828
X8.2665 Y2.3217
X8.2628 Y2.3605
X8.2584 Y2.3992
X8.2532 Y2.4379
X8.2472 Y2.4764
X8.2404 Y2.5148
X8.2329 Y2.553
X8.2246 Y2.5911
X8.2154 Y2.629
X8.2056 Y2.6668
X8.1949 Y2.7043
X8.1835 Y2.7415
X8.1713 Y2.7786
X8.1584 Y2.8154
X8.1447 Y2.8519
X8.1303 Y2.8881
X8.1151 Y2.924
X8.0992 Y2.9596
X8.0826 Y2.9949
X8.0653 Y3.0298
X8.0472 Y3.0644
X8.0285 Y3.0986
X8.0091 Y3.1324
X7.9889 Y3.1658
X7.9681 Y3.1988
X7.9467 Y3.2313
X7.9245 Y3.2634
X7.9018 Y3.2951
X7.8783 Y3.3262
X7.8543 Y3.3569
X7.8296 Y3.3871
X7.8043 Y3.4168
X7.7784 Y3.446
X7.752 Y3.4746
X7.7249 Y3.5027
X7.6973 Y3.5302
X7.6691 Y3.5571
X7.6404 Y3.5835
X7.6326 Y3.5904
X7.6241 Y3.5966
X7.6146 Y3.6012
X7.6045 Y3.6041
X7.594 Y3.605
X7.4422
G3 X7.4327 Y3.6028 I0.0009 J-0.025 F30
G1 X7.4291 Y3.6011 Z-0.1993
X7.4256 Y3.5996 Z-0.1984
X7.4223 Y3.5981 Z-0.1969
X7.4193 Y3.5967 Z-0.1948
X7.4166 Y3.5954 Z-0.1923
X7.4143 Y3.5944 Z-0.1893
X7.4124 Y3.5935 Z-0.186
X7.411 Y3.5929 Z-0.1823
X7.4102 Y3.5925 Z-0.1785
X7.4099 Y3.5924 Z-0.1746
G0 Z0.2
X7.3951 Y0.676
Z-0.1496
G1 Z-0.1746 F30
X7.3952 Y0.6757 Z-0.1785
X7.3953 Y0.6748 Z-0.1823
X7.3956 Y0.6734 Z-0.186
X7.3959 Y0.6713 Z-0.1893
X7.3964 Y0.6688 Z-0.1923
X7.3969 Y0.6659 Z-0.1948
X7.3975 Y0.6626 Z-0.1969
X7.3982 Y0.659 Z-0.1984
X7.3988 Y0.6553 Z-0.1993
X7.3995 Y0.6514 Z-0.1996
G3 X7.4069 Y0.645 I0.0077 J0.0014
G1 X7.5575 F39.37
X7.5721 Y0.6457
X7.5876 Y0.6478
X7.6051 Y0.6515
X7.6258 Y0.6577
X7.6492 Y0.6668
X7.6773 Y0.6805
X7.7108 Y0.7002
X7.7427 Y0.7226
X7.7732 Y0.747
X7.8024 Y0.7728
X7.8306 Y0.7997
X7.8579 Y0.8276
X7.8843 Y0.8563
X7.9099 Y0.8857
X7.9348 Y0.9157
X7.959 Y0.9462
X7.9825 Y0.9773
X8.0054 Y1.0089
X8.0276 Y1.041
X8.0491 Y1.0735
X8.07 Y1.1064
X8.0902 Y1.1398
X8.1097 Y1.1735
X8.1286 Y1.2076
X8.1468 Y1.2421
X8.1643 Y1.2769
X8.1812 Y1.3121
X8.1974 Y1.3476
X8.2128 Y1.3834
X8.2276 Y1.4194
X8.2417 Y1.4558
X8.2551 Y1.4924
X8.2677 Y1.5293
X8.2797 Y1.5664
X8.2909 Y1.6038
X8.3014 Y1.6413
X8.3112 Y1.6791
X8.3202 Y1.717
X8.3285 Y1.7551
X8.3361 Y1.7933
X8.3429 Y1.8317
X8.3489 Y1.8703
X8.3542 Y1.9089
X8.3588 Y1.9476
X8.3626 Y1.9864
X8.3656 Y2.0253
X8.3679 Y2.0642
X8.3695 Y2.1032
X8.3703 Y2.1421
Y2.1811
X8.3696 Y2.2201
X8.3681 Y2.2591
X8.3659 Y2.298
X8.3629 Y2.3369
X8.3592 Y2.3757
X8.3547 Y2.4144
X8.3495 Y2.4531
X8.3435 Y2.4916
X8.3368 Y2.53
X8.3293 Y2.5683
X8.321 Y2.6064
X8.312 Y2.6443
X8.3023 Y2.6821
X8.2919 Y2.7196
X8.2807 Y2.757
X8.2688 Y2.7941
X8.2562 Y2.831
X8.2429 Y2.8677
X8.2289 Y2.9041
X8.2141 Y2.9402
X8.1987 Y2.976
X8.1826 Y3.0115
X8.1658 Y3.0466
X8.1483 Y3.0815
X8.1301 Y3.116
X8.1113 Y3.1501
X8.0918 Y3.1839
X8.0717 Y3.2173
X8.0509 Y3.2503
X8.0294 Y3.2829
X8.0074 Y3.315
X7.9847 Y3.3467
X7.9614 Y3.378
X7.9375 Y3.4088
X7.913 Y3.4391
X7.8879 Y3.469
X7.8623 Y3.4984
X7.8361 Y3.5272
X7.8093 Y3.5556
X7.782 Y3.5834
X7.777 Y3.5883
X7.7682 Y3.5954
X7.7582 Y3.6007
X7.7474 Y3.6039
X7.7361 Y3.605
X7.594
G3 X7.5845 Y3.6028 I0.0009 J-0.025 F30
G1 X7.5809 Y3.6011 Z-0.1993
X7.5775 Y3.5996 Z-0.1984
X7.5742 Y3.5981 Z-0.1969
X7.5711 Y3.5967 Z-0.1948
X7.5684 Y3.5954 Z-0.1923
X7.5661 Y3.5944 Z-0.1893
X7.5642 Y3.5935 Z-0.186
X7.5629 Y3.5929 Z-0.1823
X7.562 Y3.5925 Z-0.1785
X7.5617 Y3.5924 Z-0.1746
G0 Z0.2
X7.5457 Y0.676
Z-0.1496
G1 Z-0.1746 F30
Y0.6757 Z-0.1785
X7.5459 Y0.6748 Z-0.1823
X7.5462 Y0.6734 Z-0.186
X7.5465 Y0.6713 Z-0.1893
X7.547 Y0.6688 Z-0.1923
X7.5475 Y0.6659 Z-0.1948
X7.5481 Y0.6626 Z-0.1969
X7.5487 Y0.659 Z-0.1984
X7.5494 Y0.6553 Z-0.1993
X7.5501 Y0.6514 Z-0.1996
G3 X7.5575 Y0.645 I0.0077 J0.0014
G1 X7.6992 F39.37
X7.7108 Y0.6456
X7.7254 Y0.6475
X7.7415 Y0.6509
X7.7606 Y0.6566
X7.7819 Y0.6649
X7.8071 Y0.6772
X7.8368 Y0.6947
X7.8687 Y0.7171
X7.8989 Y0.7418
X7.9277 Y0.7681
X7.9553 Y0.7956
X7.9818 Y0.8242
X8.0074 Y0.8537
X8.0321 Y0.8838
X8.0561 Y0.9146
X8.0793 Y0.9459
X8.1018 Y0.9777
X8.1236 Y1.01
X8.1448 Y1.0428
X8.1653 Y1.0759
X8.1852 Y1.1095
X8.2044 Y1.1434
X8.223 Y1.1776
X8.241 Y1.2123
X8.2583 Y1.2472
X8.2749 Y1.2825
X8.2909 Y1.318
X8.3062 Y1.3539
X8.3209 Y1.39
X8.3348 Y1.4264
X8.3482 Y1.4631
X8.3608 Y1.5
X8.3727 Y1.5371
X8.384 Y1.5744
X8.3945 Y1.6119
X8.4044 Y1.6497
X8.4136 Y1.6876
X8.422 Y1.7256
X8.4297 Y1.7638
X8.4368 Y1.8022
X8.4431 Y1.8407
X8.4487 Y1.8793
X8.4536 Y1.9179
X8.4578 Y1.9567
X8.4612 Y1.9955
X8.464 Y2.0344
X8.466 Y2.0734
X8.4673 Y2.1123
X8.4679 Y2.1513
X8.4678 Y2.1903
X8.4669 Y2.2293
X8.4654 Y2.2683
X8.4631 Y2.3072
X8.4601 Y2.3461
X8.4564 Y2.3849
X8.4519 Y2.4236
X8.4467 Y2.4623
X8.4408 Y2.5008
X8.4342 Y2.5392
X8.4269 Y2.5775
X8.4189 Y2.6157
X8.4101 Y2.6537
X8.4007 Y2.6915
X8.3906 Y2.7292
X8.3797 Y2.7666
X8.3682 Y2.8039
X8.356 Y2.8409
X8.3431 Y2.8777
X8.3295 Y2.9142
X8.3153 Y2.9505
X8.3004 Y2.9866
X8.2848 Y3.0223
X8.2686 Y3.0578
X8.2517 Y3.0929
X8.2342 Y3.1278
X8.216 Y3.1623
X8.1972 Y3.1964
X8.1778 Y3.2302
X8.1577 Y3.2636
X8.137 Y3.2967
X8.1157 Y3.3293
X8.0938 Y3.3616
X8.0713 Y3.3934
X8.0482 Y3.4249
X8.0246 Y3.4558
X8.0003 Y3.4864
X7.9755 Y3.5165
X7.9502 Y3.5461
X7.9243 Y3.5753
X7.9141 Y3.5863
X7.9051 Y3.5942
X7.8947 Y3.6001
X7.8832 Y3.6038
X7.8713 Y3.605
X7.7361
G3 X7.7267 Y3.6028 I0.0009 J-0.025 F30
G1 X7.7231 Y3.6011 Z-0.1993
X7.7196 Y3.5996 Z-0.1984
X7.7163 Y3.5981 Z-0.1969
X7.7133 Y3.5967 Z-0.1948
X7.7106 Y3.5954 Z-0.1923
X7.7082 Y3.5944 Z-0.1893
X7.7064 Y3.5935 Z-0.186
X7.705 Y3.5929 Z-0.1823
X7.7042 Y3.5925 Z-0.1785
X7.7039 Y3.5924 Z-0.1746
G0 Z0.2
X7.6874 Y0.676
Z-0.1496
G1 Z-0.1746 F30
X7.6875 Y0.6757 Z-0.1785
X7.6876 Y0.6748 Z-0.1823
X7.6879 Y0.6734 Z-0.186
X7.6883 Y0.6713 Z-0.1893
X7.6887 Y0.6688 Z-0.1923
X7.6892 Y0.6659 Z-0.1948
X7.6898 Y0.6626 Z-0.1969
X7.6905 Y0.659 Z-0.1984
X7.6911 Y0.6553 Z-0.1993
X7.6918 Y0.6514 Z-0.1996
G3 X7.6992 Y0.645 I0.0077 J0.0014
G1 X7.8321 F39.37
X7.8432 Y0.6456
X7.8573 Y0.6474
X7.8722 Y0.6506
X7.8903 Y0.656
X7.91 Y0.6637
X7.9333 Y0.675
X7.9603 Y0.6909
X7.9918 Y0.713
X8.0218 Y0.7379
X8.0502 Y0.7646
X8.0772 Y0.7928
X8.103 Y0.822
X8.1278 Y0.852
X8.1518 Y0.8828
X8.1749 Y0.9142
X8.1972 Y0.9462
X8.2188 Y0.9786
X8.2398 Y1.0115
X8.26 Y1.0448
X8.2797 Y1.0785
X8.2987 Y1.1126
X8.317 Y1.147
X8.3348 Y1.1817
X8.3518 Y1.2167
X8.3683 Y1.2521
X8.3841 Y1.2877
X8.3993 Y1.3236
X8.4139 Y1.3598
X8.4278 Y1.3962
X8.4411 Y1.4329
X8.4537 Y1.4698
X8.4656 Y1.5069
X8.4769 Y1.5442
X8.4876 Y1.5817
X8.4975 Y1.6194
X8.5068 Y1.6573
X8.5154 Y1.6953
X8.5233 Y1.7335
X8.5305 Y1.7718
X8.5371 Y1.8102
X8.543 Y1.8488
X8.5482 Y1.8874
X8.5527 Y1.9262
X8.5566 Y1.965
X8.5598 Y2.0038
X8.5622 Y2.0427
X8.564 Y2.0817
X8.5651 Y2.1207
X8.5656 Y2.1596
X8.5653 Y2.1986
X8.5644 Y2.2376
X8.5627 Y2.2766
X8.5604 Y2.3155
X8.5574 Y2.3544
X8.5537 Y2.3932
X8.5493 Y2.4319
X8.5442 Y2.4706
X8.5384 Y2.5091
X8.532 Y2.5476
X8.5248 Y2.5859
X8.517 Y2.6241
X8.5085 Y2.6622
X8.4993 Y2.7001
X8.4894 Y2.7378
X8.4789 Y2.7753
X8.4678 Y2.8127
X8.4559 Y2.8498
X8.4435 Y2.8868
X8.4303 Y2.9235
X8.4166 Y2.96
X8.4021 Y2.9962
X8.3871 Y3.0322
X8.3714 Y3.0679
X8.3551 Y3.1033
X8.3382 Y3.1384
X8.3206 Y3.1732
X8.3025 Y3.2077
X8.2837 Y3.2419
X8.2643 Y3.2757
X8.2443 Y3.3092
X8.2237 Y3.3423
X8.2026 Y3.3751
X8.1808 Y3.4074
X8.1585 Y3.4394
X8.1356 Y3.471
X8.1122 Y3.5021
X8.0882 Y3.5329
X8.0637 Y3.5632
X8.0461 Y3.5842
X8.0369 Y3.5929
X8.026 Y3.5995
X8.014 Y3.6036
X8.0014 Y3.605
X7.8713
G3 X7.8618 Y3.6028 I0.0009 J-0.025 F30
G1 X7.8583 Y3.6011 Z-0.1993
X7.8548 Y3.5996 Z-0.1984
X7.8515 Y3.5981 Z-0.1969
X7.8484 Y3.5967 Z-0.1948
X7.8457 Y3.5954 Z-0.1923
X7.8434 Y3.5944 Z-0.1893
X7.8415 Y3.5935 Z-0.186
X7.8402 Y3.5929 Z-0.1823
X7.8393 Y3.5925 Z-0.1785
X7.8391 Y3.5924 Z-0.1746
G0 Z0.2
X7.8203 Y0.676
Z-0.1496
G1 Z-0.1746 F30
Y0.6757 Z-0.1785
X7.8205 Y0.6748 Z-0.1823
X7.8208 Y0.6734 Z-0.186
X7.8211 Y0.6713 Z-0.1893
X7.8216 Y0.6688 Z-0.1923
X7.8221 Y0.6659 Z-0.1948
X7.8227 Y0.6626 Z-0.1969
X7.8233 Y0.659 Z-0.1984
X7.824 Y0.6553 Z-0.1993
X7.8247 Y0.6514 Z-0.1996
G3 X7.8321 Y0.645 I0.0077 J0.0014
G1 X7.9561 F39.37
X7.9711 Y0.6458
X7.9843 Y0.6475
X7.9988 Y0.6506
X8.016 Y0.6557
X8.0344 Y0.6629
X8.0562 Y0.6735
X8.0811 Y0.6881
X8.1097 Y0.7082
X8.1397 Y0.7331
X8.1679 Y0.7601
X8.1945 Y0.7885
X8.2199 Y0.8181
X8.2441 Y0.8487
X8.2674 Y0.8799
X8.2898 Y0.9119
X8.3115 Y0.9443
X8.3323 Y0.9772
X8.3525 Y1.0106
X8.372 Y1.0443
X8.3909 Y1.0785
X8.4092 Y1.1129
X8.4268 Y1.1477
X8.4438 Y1.1828
X8.4601 Y1.2182
X8.4759 Y1.2538
X8.4911 Y1.2898
X8.5056 Y1.3259
X8.5195 Y1.3624
X8.5328 Y1.399
X8.5455 Y1.4359
X8.5575 Y1.473
X8.5688 Y1.5103
X8.5796 Y1.5478
X8.5897 Y1.5854
X8.5991 Y1.6233
X8.6079 Y1.6612
X8.6161 Y1.6994
X8.6236 Y1.7376
X8.6305 Y1.776
X8.6367 Y1.8145
X8.6423 Y1.8531
X8.6472 Y1.8918
X8.6515 Y1.9305
X8.6551 Y1.9694
X8.658 Y2.0082
X8.6604 Y2.0472
X8.662 Y2.0861
X8.663 Y2.1251
X8.6633 Y2.1641
X8.663 Y2.2031
X8.6621 Y2.242
X8.6604 Y2.281
X8.6581 Y2.3199
X8.6552 Y2.3588
X8.6515 Y2.3976
X8.6472 Y2.4364
X8.6423 Y2.475
X8.6367 Y2.5136
X8.6304 Y2.5521
X8.6234 Y2.5905
X8.6159 Y2.6287
X8.6076 Y2.6668
X8.5988 Y2.7048
X8.5893 Y2.7426
X8.5791 Y2.7803
X8.5683 Y2.8177
X8.5569 Y2.855
X8.5449 Y2.8921
X8.5322 Y2.929
X8.519 Y2.9657
X8.5051 Y3.0021
X8.4906 Y3.0383
X8.4754 Y3.0742
X8.4597 Y3.1099
X8.4434 Y3.1453
X8.4265 Y3.1804
X8.409 Y3.2153
X8.3909 Y3.2498
X8.3722 Y3.284
X8.3529 Y3.3179
X8.333 Y3.3515
X8.3126 Y3.3847
X8.2916 Y3.4175
X8.27 Y3.45
X8.2479 Y3.4821
X8.2253 Y3.5139
X8.2021 Y3.5452
X8.1784 Y3.5762
X8.1721 Y3.5838
X8.1629 Y3.5927
X8.152 Y3.5994
X8.1399 Y3.6036
X8.1272 Y3.605
X8.0014
G3 X7.9919 Y3.6028 I0.0009 J-0.025 F30
G1 X7.9883 Y3.6011 Z-0.1993
X7.9848 Y3.5996 Z-0.1984
X7.9815 Y3.5981 Z-0.1969
X7.9785 Y3.5967 Z-0.1948
X7.9758 Y3.5954 Z-0.1923
X7.9735 Y3.5944 Z-0.1893
X7.9716 Y3.5935 Z-0.186
X7.9702 Y3.5929 Z-0.1823
X7.9694 Y3.5925 Z-0.1785
X7.9691 Y3.5924 Z-0.1746
G0 Z0.2
X7.9443 Y0.676
Z-0.1496
G1 Z-0.1746 F30
Y0.6757 Z-0.1785
X7.9445 Y0.6748 Z-0.1823
X7.9448 Y0.6734 Z-0.186
X7.9451 Y0.6713 Z-0.1893
X7.9456 Y0.6688 Z-0.1923
X7.9461 Y0.6659 Z-0.1948
X7.9467 Y0.6626 Z-0.1969
X7.9473 Y0.659 Z-0.1984
X7.948 Y0.6553 Z-0.1993
X7.9487 Y0.6514 Z-0.1996
G3 X7.9561 Y0.645 I0.0077 J0.0014
G1 X8.0801 F39.37
X8.0948 Y0.6457
X8.1071 Y0.6473
X8.1212 Y0.6504
X8.1376 Y0.6553
X8.1554 Y0.6622
X8.176 Y0.6722
X8.1995 Y0.686
X8.226 Y0.7047
X8.256 Y0.7296
X8.284 Y0.7567
X8.3104 Y0.7855
X8.3353 Y0.8154
X8.359 Y0.8464
X8.3818 Y0.8781
X8.4035 Y0.9104
X8.4245 Y0.9433
X8.4447 Y0.9766
X8.4642 Y1.0104
X8.483 Y1.0445
X8.5012 Y1.079
X8.5188 Y1.1138
X8.5357 Y1.149
X8.552 Y1.1844
X8.5677 Y1.2201
X8.5829 Y1.256
X8.5974 Y1.2922
X8.6113 Y1.3286
X8.6246 Y1.3652
X8.6373 Y1.4021
X8.6494 Y1.4392
X8.6609 Y1.4765
X8.6717 Y1.5139
X8.6819 Y1.5515
X8.6916 Y1.5893
X8.7006 Y1.6273
X8.7089 Y1.6653
X8.7167 Y1.7035
X8.7238 Y1.7419
X8.7304 Y1.7803
X8.7363 Y1.8189
X8.7415 Y1.8575
X8.7462 Y1.8962
X8.7502 Y1.935
X8.7536 Y1.9738
X8.7564 Y2.0127
X8.7585 Y2.0516
X8.76 Y2.0906
X8.7609 Y2.1296
X8.7612 Y2.1686
X8.7608 Y2.2076
X8.7598 Y2.2465
X8.7582 Y2.2855
X8.7559 Y2.3244
X8.753 Y2.3633
X8.7494 Y2.4021
X8.7452 Y2.4409
X8.7404 Y2.4796
X8.7349 Y2.5182
X8.7288 Y2.5567
X8.7221 Y2.5951
X8.7147 Y2.6334
X8.7068 Y2.6716
X8.6982 Y2.7096
X8.689 Y2.7475
X8.6792 Y2.7852
X8.6688 Y2.8228
X8.6577 Y2.8602
X8.6461 Y2.8974
X8.6339 Y2.9344
X8.621 Y2.9713
X8.6076 Y3.0079
X8.5936 Y3.0443
X8.579 Y3.0804
X8.5638 Y3.1163
X8.5481 Y3.152
X8.5318 Y3.1874
X8.5149 Y3.2225
X8.4974 Y3.2574
X8.4793 Y3.2919
X8.4607 Y3.3262
X8.4415 Y3.3601
X8.4217 Y3.3938
X8.4014 Y3.4271
X8.3806 Y3.46
X8.3592 Y3.4926
X8.3374 Y3.5249
X8.3149 Y3.5568
X8.2969 Y3.5813
X8.2897 Y3.5894
X8.281 Y3.596
X8.2713 Y3.601
X8.2608 Y3.604
X8.25 Y3.605
X8.1272
G3 X8.1177 Y3.6028 I0.0009 J-0.025 F30
G1 X8.1141 Y3.6011 Z-0.1993
X8.1106 Y3.5996 Z-0.1984
X8.1073 Y3.5981 Z-0.1969
X8.1043 Y3.5967 Z-0.1948
X8.1016 Y3.5954 Z-0.1923
X8.0993 Y3.5944 Z-0.1893
X8.0974 Y3.5935 Z-0.186
X8.096 Y3.5929 Z-0.1823
X8.0952 Y3.5925 Z-0.1785
X8.0949 Y3.5924 Z-0.1746
G0 Z0.2
X8.0683 Y0.676
Z-0.1496
G1 Z-0.1746 F30
X8.0684 Y0.6757 Z-0.1785
X8.0685 Y0.6748 Z-0.1823
X8.0688 Y0.6734 Z-0.186
X8.0691 Y0.6713 Z-0.1893
X8.0696 Y0.6688 Z-0.1923
X8.0701 Y0.6659 Z-0.1948
X8.0707 Y0.6626 Z-0.1969
X8.0713 Y0.659 Z-0.1984
X8.072 Y0.6553 Z-0.1993
X8.0727 Y0.6514 Z-0.1996
G3 X8.0801 Y0.645 I0.0077 J0.0014
G1 X8.2041 F39.37
X8.215 Y0.6455
X8.2267 Y0.6471
X8.2407 Y0.6501
X8.2563 Y0.6548
X8.2736 Y0.6615
X8.2933 Y0.6711
X8.3157 Y0.6842
X8.3407 Y0.7018
X8.37 Y0.7261
X8.3979 Y0.7533
X8.424 Y0.7823
X8.4486 Y0.8125
X8.4719 Y0.8438
X8.4941 Y0.8758
X8.5154 Y0.9085
X8.5358 Y0.9417
X8.5554 Y0.9754
X8.5743 Y1.0095
X8.5925 Y1.044
X8.6101 Y1.0788
X8.627 Y1.1139
X8.6433 Y1.1493
X8.6591 Y1.185
X8.6742 Y1.221
X8.6887 Y1.2571
X8.7027 Y1.2936
X8.716 Y1.3302
X8.7288 Y1.367
X8.741 Y1.4041
X8.7525 Y1.4413
X8.7635 Y1.4787
X8.7739 Y1.5163
X8.7837 Y1.554
X8.7929 Y1.5919
X8.8015 Y1.63
X8.8095 Y1.6681
X8.8169 Y1.7064
X8.8237 Y1.7448
X8.8299 Y1.7833
X8.8356 Y1.8219
X8.8406 Y1.8605
X8.845 Y1.8993
X8.8488 Y1.9381
X8.8521 Y1.9769
X8.8547 Y2.0158
X8.8567 Y2.0548
X8.8581 Y2.0937
X8.8589 Y2.1327
X8.8591 Y2.1717
X8.8587 Y2.2107
X8.8577 Y2.2497
X8.8561 Y2.2886
X8.8539 Y2.3276
X8.851 Y2.3664
X8.8475 Y2.4053
X8.8434 Y2.4441
X8.8387 Y2.4828
X8.8334 Y2.5214
X8.8275 Y2.5599
X8.821 Y2.5984
X8.8139 Y2.6367
X8.8062 Y2.6749
X8.7979 Y2.713
X8.789 Y2.751
X8.7795 Y2.7888
X8.7694 Y2.8265
X8.7588 Y2.864
X8.7475 Y2.9013
X8.7357 Y2.9385
X8.7233 Y2.9755
X8.7104 Y3.0122
X8.6968 Y3.0488
X8.6828 Y3.0852
X8.6681 Y3.1213
X8.6529 Y3.1572
X8.6371 Y3.1928
X8.6208 Y3.2283
X8.6039 Y3.2634
X8.5865 Y3.2983
X8.5685 Y3.3329
X8.5499 Y3.3672
X8.5308 Y3.4012
X8.5112 Y3.4349
X8.4911 Y3.4682
X8.4704 Y3.5013
X8.4492 Y3.534
X8.4275 Y3.5664
X8.4169 Y3.581
X8.4096 Y3.5892
X8.401 Y3.5959
X8.3912 Y3.6009
X8.3807 Y3.604
X8.3698 Y3.605
X8.25
G3 X8.2405 Y3.6028 I0.0009 J-0.025 F30
G1 X8.2369 Y3.6011 Z-0.1993
X8.2334 Y3.5996 Z-0.1984
X8.2301 Y3.5981 Z-0.1969
X8.2271 Y3.5967 Z-0.1948
X8.2244 Y3.5954 Z-0.1923
X8.2221 Y3.5944 Z-0.1893
X8.2202 Y3.5935 Z-0.186
X8.2188 Y3.5929 Z-0.1823
X8.218 Y3.5925 Z-0.1785
X8.2177 Y3.5924 Z-0.1746
G0 Z0.2
X8.1923 Y0.676
Z-0.1496
G1 Z-0.1746 F30
X8.1924 Y0.6757 Z-0.1785
X8.1925 Y0.6748 Z-0.1823
X8.1928 Y0.6734 Z-0.186
X8.1932 Y0.6713 Z-0.1893
X8.1936 Y0.6688 Z-0.1923
X8.1941 Y0.6659 Z-0.1948
X8.1947 Y0.6626 Z-0.1969
X8.1954 Y0.659 Z-0.1984
X8.196 Y0.6553 Z-0.1993
X8.1967 Y0.6514 Z-0.1996
G3 X8.2041 Y0.645 I0.0077 J0.0014
G1 X8.3193 F39.37
X8.3328 Y0.6457
X8.3443 Y0.6472
X8.3581 Y0.6501
X8.3731 Y0.6546
X8.3899 Y0.6612
X8.4089 Y0.6704
X8.4305 Y0.6831
X8.4542 Y0.6998
X8.4818 Y0.7227
X8.5098 Y0.7499
X8.5357 Y0.779
X8.5601 Y0.8095
X8.583 Y0.841
X8.6049 Y0.8733
X8.6257 Y0.9063
X8.6456 Y0.9398
X8.6647 Y0.9738
X8.683 Y1.0082
X8.7007 Y1.0429
X8.7177 Y1.078
X8.7341 Y1.1134
X8.7499 Y1.149
X8.7651 Y1.185
X8.7797 Y1.2211
X8.7937 Y1.2575
X8.8071 Y1.2941
X8.82 Y1.3309
X8.8322 Y1.3679
X8.8439 Y1.4051
X8.855 Y1.4425
X8.8656 Y1.48
X8.8755 Y1.5177
X8.8849 Y1.5556
X8.8938 Y1.5936
X8.902 Y1.6317
X8.9097 Y1.6699
X8.9168 Y1.7082
X8.9234 Y1.7467
X8.9293 Y1.7852
X8.9347 Y1.8238
X8.9395 Y1.8625
X8.9437 Y1.9013
X8.9474 Y1.9401
X8.9505 Y1.979
X8.953 Y2.0179
X8.9549 Y2.0568
X8.9562 Y2.0958
X8.957 Y2.1348
X8.9572 Y2.1738
X8.9567 Y2.2127
X8.9557 Y2.2517
X8.9541 Y2.2907
X8.9519 Y2.3296
X8.9492 Y2.3685
X8.9458 Y2.4073
X8.9418 Y2.4461
X8.9373 Y2.4849
X8.9321 Y2.5235
X8.9264 Y2.5621
X8.9201 Y2.6006
X8.9132 Y2.6389
X8.9058 Y2.6772
X8.8977 Y2.7154
X8.8891 Y2.7534
X8.88 Y2.7913
X8.8702 Y2.829
X8.8599 Y2.8667
X8.8491 Y2.9041
X8.8377 Y2.9414
X8.8257 Y2.9785
X8.8132 Y3.0154
X8.8001 Y3.0522
X8.7865 Y3.0887
X8.7724 Y3.125
X8.7577 Y3.1611
X8.7425 Y3.197
X8.7267 Y3.2327
X8.7104 Y3.2681
X8.6935 Y3.3033
X8.6761 Y3.3382
X8.6582 Y3.3728
X8.6398 Y3.4071
X8.6208 Y3.4412
X8.6013 Y3.475
X8.5813 Y3.5085
X8.5608 Y3.5416
X8.5397 Y3.5744
X8.5344 Y3.5814
X8.5272 Y3.5895
X8.5185 Y3.5961
X8.5088 Y3.601
X8.4984 Y3.604
X8.4876 Y3.605
X8.3698
G3 X8.3603 Y3.6028 I0.0009 J-0.025 F30
G1 X8.3567 Y3.6011 Z-0.1993
X8.3532 Y3.5996 Z-0.1984
X8.3499 Y3.5981 Z-0.1969
X8.3469 Y3.5967 Z-0.1948
X8.3442 Y3.5954 Z-0.1923
X8.3419 Y3.5944 Z-0.1893
X8.34 Y3.5935 Z-0.186
X8.3386 Y3.5929 Z-0.1823
X8.3378 Y3.5925 Z-0.1785
X8.3375 Y3.5924 Z-0.1746
G0 Z0.2
X8.3075 Y0.676
Z-0.1496
G1 Z-0.1746 F30
Y0.6757 Z-0.1785
X8.3077 Y0.6748 Z-0.1823
X8.3079 Y0.6734 Z-0.186
X8.3083 Y0.6713 Z-0.1893
X8.3088 Y0.6688 Z-0.1923
X8.3093 Y0.6659 Z-0.1948
X8.3099 Y0.6626 Z-0.1969
X8.3105 Y0.659 Z-0.1984
X8.3112 Y0.6553 Z-0.1993
X8.3119 Y0.6514 Z-0.1996
G3 X8.3193 Y0.645 I0.0077 J0.0014
G1 X8.4344 F39.37
X8.4481 Y0.6457
X8.4597 Y0.6472
X8.4734 Y0.6501
X8.4877 Y0.6544
X8.5044 Y0.6609
X8.5226 Y0.6698
X8.5436 Y0.6821
X8.5664 Y0.6981
X8.5927 Y0.72
X8.6206 Y0.7472
X8.6465 Y0.7764
X8.6706 Y0.807
X8.6933 Y0.8388
X8.7147 Y0.8713
X8.7351 Y0.9045
X8.7546 Y0.9383
X8.7732 Y0.9726
X8.7911 Y1.0072
X8.8083 Y1.0422
X8.8248 Y1.0776
X8.8407 Y1.1132
X8.8559 Y1.149
X8.8706 Y1.1852
X8.8847 Y1.2215
X8.8982 Y1.2581
X8.9111 Y1.2949
X8.9235 Y1.3319
X8.9353 Y1.369
X8.9466 Y1.4063
X8.9573 Y1.4438
X8.9674 Y1.4815
X8.977 Y1.5193
X8.986 Y1.5572
X8.9945 Y1.5953
X9.0025 Y1.6334
X9.0098 Y1.6717
X9.0167 Y1.7101
X9.0229 Y1.7486
X9.0287 Y1.7872
X9.0338 Y1.8258
X9.0384 Y1.8645
X9.0425 Y1.9033
X9.046 Y1.9421
X9.0489 Y1.981
X9.0513 Y2.0199
X9.0531 Y2.0589
X9.0544 Y2.0979
X9.0551 Y2.1368
X9.0552 Y2.1758
X9.0548 Y2.2148
X9.0538 Y2.2538
X9.0522 Y2.2928
X9.0501 Y2.3317
X9.0474 Y2.3706
X9.0441 Y2.4094
X9.0402 Y2.4482
X9.0358 Y2.487
X9.0308 Y2.5257
X9.0253 Y2.5642
X9.0192 Y2.6028
X9.0125 Y2.6412
X9.0053 Y2.6795
X8.9975 Y2.7177
X8.9892 Y2.7558
X8.9803 Y2.7938
X8.9709 Y2.8316
X8.961 Y2.8693
X8.9505 Y2.9068
X8.9394 Y2.9442
X8.9279 Y2.9815
X8.9158 Y3.0185
X8.9031 Y3.0554
X8.89 Y3.0921
X8.8763 Y3.1286
X8.8621 Y3.165
X8.8473 Y3.2011
X8.8321 Y3.2369
X8.8163 Y3.2726
X8.8 Y3.308
X8.7832 Y3.3432
X8.7658 Y3.3781
X8.748 Y3.4128
X8.7296 Y3.4472
X8.7108 Y3.4813
X8.6914 Y3.5152
X8.6715 Y3.5487
X8.6516 Y3.58
X8.6503 Y3.5818
X8.643 Y3.5898
X8.6344 Y3.5963
X8.6248 Y3.6011
X8.6144 Y3.604
X8.6037 Y3.605
X8.4876
G3 X8.4781 Y3.6028 I0.0009 J-0.025 F30
G1 X8.4745 Y3.6011 Z-0.1993
X8.4711 Y3.5996 Z-0.1984
X8.4678 Y3.5981 Z-0.1969
X8.4647 Y3.5967 Z-0.1948
X8.462 Y3.5954 Z-0.1923
X8.4597 Y3.5944 Z-0.1893
X8.4578 Y3.5935 Z-0.186
X8.4565 Y3.5929 Z-0.1823
X8.4556 Y3.5925 Z-0.1785
X8.4553 Y3.5924 Z-0.1746
G0 Z0.2
X8.4226 Y0.676
Z-0.1496
G1 Z-0.1746 F30
X8.4227 Y0.6757 Z-0.1785
X8.4228 Y0.6748 Z-0.1823
X8.4231 Y0.6734 Z-0.186
X8.4235 Y0.6713 Z-0.1893
X8.4239 Y0.6688 Z-0.1923
X8.4244 Y0.6659 Z-0.1948
X8.425 Y0.6626 Z-0.1969
X8.4257 Y0.659 Z-0.1984
X8.4263 Y0.6553 Z-0.1993
X8.427 Y0.6514 Z-0.1996
G3 X8.4344 Y0.645 I0.0077 J0.0014
G1 X8.5496 F39.37
X8.5617 Y0.6456
X8.5732 Y0.6471
X8.5869 Y0.65
X8.6008 Y0.6542
X8.6172 Y0.6606
X8.6349 Y0.6692
X8.6554 Y0.6812
X8.6773 Y0.6966
X8.7027 Y0.7177
X8.7306 Y0.7449
X8.7563 Y0.7742
X8.7802 Y0.805
X8.8026 Y0.8369
X8.8238 Y0.8697
X8.8438 Y0.9031
X8.8628 Y0.9371
X8.881 Y0.9716
X8.8985 Y1.0065
X8.9152 Y1.0417
X8.9312 Y1.0773
X8.9466 Y1.1131
X8.9614 Y1.1492
X8.9756 Y1.1855
X8.9892 Y1.222
X9.0023 Y1.2588
X9.0148 Y1.2957
X9.0267 Y1.3328
X9.0381 Y1.3701
X9.049 Y1.4076
X9.0593 Y1.4452
X9.069 Y1.4829
X9.0783 Y1.5208
X9.087 Y1.5588
X9.0952 Y1.5969
X9.1028 Y1.6351
X9.1099 Y1.6735
X9.1165 Y1.7119
X9.1225 Y1.7504
X9.128 Y1.789
X9.1329 Y1.8277
X9.1374 Y1.8665
X9.1413 Y1.9053
X9.1446 Y1.9441
X9.1474 Y1.983
X9.1497 Y2.0219
X9.1514 Y2.0609
X9.1526 Y2.0998
X9.1533 Y2.1388
X9.1534 Y2.1778
X9.1529 Y2.2168
X9.152 Y2.2558
X9.1504 Y2.2947
X9.1483 Y2.3337
X9.1457 Y2.3726
X9.1424 Y2.4114
X9.1387 Y2.4502
X9.1344 Y2.489
X9.1296 Y2.5277
X9.1242 Y2.5663
X9.1183 Y2.6048
X9.1118 Y2.6433
X9.1048 Y2.6817
X9.0973 Y2.7199
X9.0892 Y2.7581
X9.0806 Y2.7961
X9.0715 Y2.834
X9.0619 Y2.8718
X9.0517 Y2.9094
X9.041 Y2.9469
X9.0298 Y2.9843
X9.0181 Y3.0215
X9.0059 Y3.0585
X8.9931 Y3.0953
X8.9799 Y3.132
X8.9661 Y3.1685
X8.9518 Y3.2048
X8.9371 Y3.2409
X8.9218 Y3.2767
X8.906 Y3.3124
X8.8897 Y3.3478
X8.873 Y3.383
X8.8557 Y3.418
X8.8379 Y3.4527
X8.8196 Y3.4871
X8.8009 Y3.5213
X8.7815 Y3.5551
X8.7671 Y3.5778
X8.7599 Y3.5871
X8.751 Y3.5947
X8.7407 Y3.6003
X8.7295 Y3.6038
X8.7178 Y3.605
X8.6037
G3 X8.5942 Y3.6028 I0.0009 J-0.025 F30
G1 X8.5907 Y3.6011 Z-0.1993
X8.5872 Y3.5996 Z-0.1984
X8.5839 Y3.5981 Z-0.1969
X8.5809 Y3.5967 Z-0.1948
X8.5781 Y3.5954 Z-0.1923
X8.5758 Y3.5944 Z-0.1893
X8.574 Y3.5935 Z-0.186
X8.5726 Y3.5929 Z-0.1823
X8.5718 Y3.5925 Z-0.1785
X8.5715 Y3.5924 Z-0.1746
G0 Z0.2
X8.5378 Y0.676
Z-0.1496
G1 Z-0.1746 F30
Y0.6757 Z-0.1785
X8.538 Y0.6748 Z-0.1823
X8.5382 Y0.6734 Z-0.186
X8.5386 Y0.6713 Z-0.1893
X8.5391 Y0.6688 Z-0.1923
X8.5396 Y0.6659 Z-0.1948
X8.5402 Y0.6626 Z-0.1969
X8.5408 Y0.659 Z-0.1984
X8.5415 Y0.6553 Z-0.1993
X8.5422 Y0.6514 Z-0.1996
G3 X8.5496 Y0.645 I0.0077 J0.0014
G1 X8.6647 F39.37
X8.6738 Y0.6455
X8.6854 Y0.647
X8.6987 Y0.6498
X8.7124 Y0.6539
X8.7287 Y0.6603
X8.7458 Y0.6686
X8.7659 Y0.6804
X8.7872 Y0.6953
X8.8117 Y0.7157
X8.8396 Y0.7429
X8.8653 Y0.7723
X8.889 Y0.8032
X8.9112 Y0.8353
X8.932 Y0.8683
X8.9517 Y0.9019
X8.9704 Y0.9362
X8.9882 Y0.9708
X9.0052 Y1.0059
X9.0215 Y1.0413
X9.0371 Y1.0771
X9.052 Y1.1131
X9.0664 Y1.1493
X9.0802 Y1.1858
X9.0933 Y1.2225
X9.106 Y1.2594
X9.118 Y1.2965
X9.1296 Y1.3337
X9.1406 Y1.3711
X9.1511 Y1.4087
X9.161 Y1.4464
X9.1705 Y1.4842
X9.1794 Y1.5222
X9.1878 Y1.5603
X9.1956 Y1.5984
X9.203 Y1.6367
X9.2098 Y1.6751
X9.2162 Y1.7136
X9.222 Y1.7521
X9.2273 Y1.7908
X9.232 Y1.8295
X9.2363 Y1.8682
X9.24 Y1.907
X9.2432 Y1.9459
X9.2459 Y1.9848
X9.2481 Y2.0237
X9.2498 Y2.0627
X9.2509 Y2.1017
X9.2515 Y2.1406
X9.2516 Y2.1796
X9.2511 Y2.2186
X9.2502 Y2.2576
X9.2486 Y2.2966
X9.2466 Y2.3355
X9.244 Y2.3744
X9.2409 Y2.4133
X9.2372 Y2.4521
X9.233 Y2.4909
X9.2283 Y2.5296
X9.2231 Y2.5682
X9.2174 Y2.6068
X9.2111 Y2.6452
X9.2043 Y2.6836
X9.197 Y2.7219
X9.1892 Y2.7601
X9.1809 Y2.7982
X9.172 Y2.8362
X9.1627 Y2.8741
X9.1528 Y2.9118
X9.1425 Y2.9494
X9.1316 Y2.9868
X9.1203 Y3.0241
X9.1084 Y3.0613
X9.0961 Y3.0983
X9.0832 Y3.1351
X9.0699 Y3.1717
X9.0561 Y3.2082
X9.0417 Y3.2444
X9.0269 Y3.2805
X9.0117 Y3.3164
X8.9959 Y3.352
X8.9796 Y3.3875
X8.9629 Y3.4227
X8.9456 Y3.4577
X8.9279 Y3.4924
X8.9097 Y3.5269
X8.8907 Y3.5609
X8.8798 Y3.578
X8.8726 Y3.5872
X8.8637 Y3.5947
X8.8534 Y3.6004
X8.8422 Y3.6038
X8.8306 Y3.605
X8.7178
G3 X8.7083 Y3.6028 I0.0009 J-0.025 F30
G1 X8.7047 Y3.6011 Z-0.1993
X8.7013 Y3.5996 Z-0.1984
X8.698 Y3.5981 Z-0.1969
X8.6949 Y3.5967 Z-0.1948
X8.6922 Y3.5954 Z-0.1923
X8.6899 Y3.5944 Z-0.1893
X8.688 Y3.5935 Z-0.186
X8.6867 Y3.5929 Z-0.1823
X8.6858 Y3.5925 Z-0.1785
X8.6856 Y3.5924 Z-0.1746
G0 Z0.2
X8.6529 Y0.676
Z-0.1496
G1 Z-0.1746 F30
X8.653 Y0.6757 Z-0.1785
X8.6531 Y0.6748 Z-0.1823
X8.6534 Y0.6734 Z-0.186
X8.6538 Y0.6713 Z-0.1893
X8.6542 Y0.6688 Z-0.1923
X8.6547 Y0.6659 Z-0.1948
X8.6553 Y0.6626 Z-0.1969
X8.656 Y0.659 Z-0.1984
X8.6566 Y0.6553 Z-0.1993
X8.6573 Y0.6514 Z-0.1996
G3 X8.6647 Y0.645 I0.0077 J0.0014
G1 X8.771 F39.37
X8.7852 Y0.6457
X8.7967 Y0.6472
X8.8097 Y0.65
X8.8232 Y0.654
X8.8393 Y0.6603
X8.856 Y0.6684
X8.8757 Y0.68
X8.8964 Y0.6945
X8.9202 Y0.7143
X8.9472 Y0.7406
X8.9728 Y0.77
X8.9964 Y0.801
X9.0184 Y0.8332
X9.039 Y0.8663
X9.0584 Y0.9001
X9.0768 Y0.9345
X9.0943 Y0.9694
X9.1109 Y1.0046
X9.1269 Y1.0402
X9.1421 Y1.0761
X9.1566 Y1.1123
X9.1706 Y1.1487
X9.184 Y1.1853
X9.1968 Y1.2221
X9.209 Y1.2592
X9.2207 Y1.2964
X9.2319 Y1.3337
X9.2425 Y1.3712
X9.2527 Y1.4089
X9.2623 Y1.4466
X9.2715 Y1.4845
X9.2801 Y1.5226
X9.2882 Y1.5607
X9.2958 Y1.5989
X9.3029 Y1.6373
X9.3096 Y1.6757
X9.3157 Y1.7142
X9.3213 Y1.7528
X9.3264 Y1.7915
X9.331 Y1.8302
X9.3351 Y1.8689
X9.3387 Y1.9078
X9.3418 Y1.9466
X9.3444 Y1.9855
X9.3465 Y2.0245
X9.3481 Y2.0634
X9.3492 Y2.1024
X9.3498 Y2.1414
X9.3499 Y2.1804
X9.3494 Y2.2194
X9.3485 Y2.2584
X9.347 Y2.2973
X9.345 Y2.3363
X9.3425 Y2.3752
X9.3394 Y2.414
X9.3359 Y2.4529
X9.3318 Y2.4916
X9.3273 Y2.5304
X9.3222 Y2.569
X9.3166 Y2.6076
X9.3106 Y2.6461
X9.304 Y2.6846
X9.2969 Y2.7229
X9.2893 Y2.7612
X9.2813 Y2.7993
X9.2727 Y2.8373
X9.2637 Y2.8753
X9.2541 Y2.9131
X9.2441 Y2.9508
X9.2336 Y2.9883
X9.2226 Y3.0257
X9.2111 Y3.063
X9.1991 Y3.1001
X9.1867 Y3.137
X9.1737 Y3.1738
X9.1603 Y3.2104
X9.1465 Y3.2469
X9.1321 Y3.2831
X9.1173 Y3.3192
X9.102 Y3.3551
X9.0862 Y3.3907
X9.07 Y3.4262
X9.0533 Y3.4614
X9.0361 Y3.4964
X9.0184 Y3.5311
X8.9997 Y3.5653
X8.9913 Y3.5783
X8.9841 Y3.5874
X8.9752 Y3.5949
X8.965 Y3.6004
X8.9538 Y3.6038
X8.9423 Y3.605
X8.8306
G3 X8.8211 Y3.6028 I0.0009 J-0.025 F30
G1 X8.8176 Y3.6011 Z-0.1993
X8.8141 Y3.5996 Z-0.1984
X8.8108 Y3.5981 Z-0.1969
X8.8077 Y3.5967 Z-0.1948
X8.805 Y3.5954 Z-0.1923
X8.8027 Y3.5944 Z-0.1893
X8.8008 Y3.5935 Z-0.186
X8.7995 Y3.5929 Z-0.1823
X8.7986 Y3.5925 Z-0.1785
X8.7984 Y3.5924 Z-0.1746
G0 Z0.2
X8.7592 Y0.676
Z-0.1496
G1 Z-0.1746 F30
X8.7593 Y0.6757 Z-0.1785
X8.7594 Y0.6748 Z-0.1823
X8.7597 Y0.6734 Z-0.186
X8.7601 Y0.6713 Z-0.1893
X8.7605 Y0.6688 Z-0.1923
X8.761 Y0.6659 Z-0.1948
X8.7616 Y0.6626 Z-0.1969
X8.7623 Y0.659 Z-0.1984
X8.7629 Y0.6553 Z-0.1993
X8.7636 Y0.6514 Z-0.1996
G3 X8.771 Y0.645 I0.0077 J0.0014
G1 X8.8862 F39.37
X8.8948 Y0.6454
X8.9063 Y0.6469
X8.9189 Y0.6496
X8.9325 Y0.6537
X8.9485 Y0.6599
X8.9648 Y0.6679
X8.9842 Y0.6792
X9.0045 Y0.6935
X9.0277 Y0.7128
X9.0539 Y0.7384
X9.0796 Y0.7678
X9.1031 Y0.7988
X9.125 Y0.8311
X9.1454 Y0.8643
X9.1645 Y0.8983
X9.1826 Y0.9328
X9.1998 Y0.9678
X9.2161 Y1.0033
X9.2317 Y1.039
X9.2465 Y1.0751
X9.2607 Y1.1114
X9.2743 Y1.1479
X9.2873 Y1.1847
X9.2998 Y1.2216
X9.3117 Y1.2588
X9.3231 Y1.2961
X9.3339 Y1.3335
X9.3442 Y1.3711
X9.3541 Y1.4088
X9.3634 Y1.4467
X9.3723 Y1.4847
X9.3806 Y1.5227
X9.3885 Y1.5609
X9.3959 Y1.5992
X9.4028 Y1.6376
X9.4092 Y1.676
X9.4151 Y1.7146
X9.4205 Y1.7532
X9.4255 Y1.7919
X9.43 Y1.8306
X9.4339 Y1.8694
X9.4374 Y1.9082
X9.4404 Y1.9471
X9.443 Y1.986
X9.445 Y2.0249
X9.4465 Y2.0639
X9.4476 Y2.1029
X9.4481 Y2.1419
X9.4482 Y2.1809
X9.4478 Y2.2199
X9.4468 Y2.2588
X9.4454 Y2.2978
X9.4434 Y2.3367
X9.441 Y2.3757
X9.4381 Y2.4145
X9.4346 Y2.4534
X9.4307 Y2.4922
X9.4263 Y2.5309
X9.4213 Y2.5696
X9.4159 Y2.6082
X9.4101 Y2.6467
X9.4037 Y2.6852
X9.3968 Y2.7236
X9.3895 Y2.7619
X9.3817 Y2.8001
X9.3733 Y2.8382
X9.3646 Y2.8762
X9.3553 Y2.914
X9.3456 Y2.9518
X9.3354 Y2.9894
X9.3247 Y3.0269
X9.3136 Y3.0643
X9.302 Y3.1015
X9.2899 Y3.1386
X9.2774 Y3.1755
X9.2644 Y3.2123
X9.2509 Y3.2489
X9.237 Y3.2853
X9.2226 Y3.3216
X9.2078 Y3.3576
X9.1925 Y3.3935
X9.1768 Y3.4291
X9.1606 Y3.4646
X9.1439 Y3.4998
X9.1265 Y3.5348
X9.1087 Y3.5678
X9.1019 Y3.5784
X9.0946 Y3.5874
X9.0858 Y3.5949
X9.0756 Y3.6004
X9.0645 Y3.6038
X9.0529 Y3.605
X8.9423
G3 X8.9328 Y3.6028 I0.0009 J-0.025 F30
G1 X8.9292 Y3.6011 Z-0.1993
X8.9258 Y3.5996 Z-0.1984
X8.9225 Y3.5981 Z-0.1969
X8.9194 Y3.5967 Z-0.1948
X8.9167 Y3.5954 Z-0.1923
X8.9144 Y3.5944 Z-0.1893
X8.9125 Y3.5935 Z-0.186
X8.9112 Y3.5929 Z-0.1823
X8.9103 Y3.5925 Z-0.1785
X8.91 Y3.5924 Z-0.1746
G0 Z0.2
X8.8744 Y0.676
Z-0.1496
G1 Z-0.1746 F30
Y0.6757 Z-0.1785
X8.8746 Y0.6748 Z-0.1823
X8.8748 Y0.6734 Z-0.186
X8.8752 Y0.6713 Z-0.1893
X8.8757 Y0.6688 Z-0.1923
X8.8762 Y0.6659 Z-0.1948
X8.8768 Y0.6626 Z-0.1969
X8.8774 Y0.659 Z-0.1984
X8.8781 Y0.6553 Z-0.1993
X8.8788 Y0.6514 Z-0.1996
G3 X8.8862 Y0.645 I0.0077 J0.0014
G1 X8.9925 F39.37
X9.004 Y0.6456
X9.0156 Y0.6471
X9.0277 Y0.6497
X9.0412 Y0.6537
X9.057 Y0.6599
X9.0731 Y0.6677
X9.0921 Y0.6789
X9.1121 Y0.6929
X9.1348 Y0.7117
X9.1603 Y0.7367
X9.1859 Y0.766
X9.2094 Y0.7972
X9.2311 Y0.8295
X9.2513 Y0.8629
X9.2703 Y0.897
X9.2881 Y0.9316
X9.305 Y0.9668
X9.321 Y1.0024
X9.3362 Y1.0382
X9.3507 Y1.0744
X9.3646 Y1.1109
X9.3779 Y1.1475
X9.3905 Y1.1844
X9.4026 Y1.2215
X9.4142 Y1.2587
X9.4253 Y1.2961
X9.4358 Y1.3336
X9.4459 Y1.3713
X9.4554 Y1.4091
X9.4645 Y1.447
X9.4731 Y1.4851
X9.4812 Y1.5232
X9.4888 Y1.5615
X9.4959 Y1.5998
X9.5026 Y1.6382
X9.5088 Y1.6767
X9.5146 Y1.7153
X9.5198 Y1.7539
X9.5246 Y1.7926
X9.529 Y1.8313
X9.5328 Y1.8701
X9.5362 Y1.909
X9.5391 Y1.9479
X9.5415 Y1.9868
X9.5435 Y2.0257
X9.545 Y2.0647
X9.546 Y2.1037
X9.5465 Y2.1426
X9.5466 Y2.1816
X9.5461 Y2.2206
X9.5452 Y2.2596
X9.5438 Y2.2986
X9.5419 Y2.3375
X9.5395 Y2.3764
X9.5367 Y2.4153
X9.5333 Y2.4542
X9.5295 Y2.493
X9.5252 Y2.5317
X9.5204 Y2.5704
X9.5152 Y2.6091
X9.5095 Y2.6476
X9.5033 Y2.6861
X9.4966 Y2.7245
X9.4895 Y2.7629
X9.4819 Y2.8011
X9.4738 Y2.8393
X9.4653 Y2.8773
X9.4563 Y2.9153
X9.4469 Y2.9531
X9.437 Y2.9908
X9.4266 Y3.0284
X9.4158 Y3.0658
X9.4045 Y3.1032
X9.3928 Y3.1404
X9.3807 Y3.1774
X9.368 Y3.2143
X9.355 Y3.251
X9.3415 Y3.2876
X9.3275 Y3.324
X9.3131 Y3.3602
X9.2983 Y3.3963
X9.283 Y3.4322
X9.2672 Y3.4678
X9.251 Y3.5033
X9.234 Y3.5384
X9.2176 Y3.569
X9.2116 Y3.5783
X9.2044 Y3.5874
X9.1955 Y3.5948
X9.1853 Y3.6004
X9.1742 Y3.6038
X9.1626 Y3.605
X9.0529
G3 X9.0434 Y3.6028 I0.0009 J-0.025 F30
G1 X9.0399 Y3.6011 Z-0.1993
X9.0364 Y3.5996 Z-0.1984
X9.0331 Y3.5981 Z-0.1969
X9.0301 Y3.5967 Z-0.1948
X9.0273 Y3.5954 Z-0.1923
X9.025 Y3.5944 Z-0.1893
X9.0232 Y3.5935 Z-0.186
X9.0218 Y3.5929 Z-0.1823
X9.021 Y3.5925 Z-0.1785
X9.0207 Y3.5924 Z-0.1746
G0 Z0.2
X8.9807 Y0.676
Z-0.1496
G1 Z-0.1746 F30
Y0.6757 Z-0.1785
X8.9809 Y0.6748 Z-0.1823
X8.9811 Y0.6734 Z-0.186
X8.9815 Y0.6713 Z-0.1893
X8.9819 Y0.6688 Z-0.1923
X8.9825 Y0.6659 Z-0.1948
X8.9831 Y0.6626 Z-0.1969
X8.9837 Y0.659 Z-0.1984
X8.9844 Y0.6553 Z-0.1993
X8.9851 Y0.6514 Z-0.1996
G3 X8.9925 Y0.645 I0.0077 J0.0014
G1 X9.0988 F39.37
X9.1123 Y0.6457
X9.1238 Y0.6472
X9.1356 Y0.6497
X9.1491 Y0.6538
X9.1646 Y0.6598
X9.1806 Y0.6676
X9.1993 Y0.6786
X9.219 Y0.6924
X9.2412 Y0.7108
X9.2662 Y0.7352
X9.2918 Y0.7646
X9.3152 Y0.7957
X9.3368 Y0.8282
X9.3569 Y0.8617
X9.3756 Y0.8959
X9.3932 Y0.9307
X9.4098 Y0.9659
X9.4255 Y1.0016
X9.4404 Y1.0376
X9.4546 Y1.074
X9.4682 Y1.1105
X9.4811 Y1.1473
X9.4935 Y1.1843
X9.5053 Y1.2214
X9.5165 Y1.2588
X9.5273 Y1.2962
X9.5375 Y1.3339
X9.5473 Y1.3716
X9.5566 Y1.4095
X9.5654 Y1.4475
X9.5737 Y1.4856
X9.5816 Y1.5237
X9.589 Y1.562
X9.596 Y1.6004
X9.6024 Y1.6388
X9.6085 Y1.6774
X9.614 Y1.716
X9.6191 Y1.7546
X9.6238 Y1.7933
X9.628 Y1.8321
X9.6317 Y1.8709
X9.635 Y1.9098
X9.6378 Y1.9486
X9.6401 Y1.9876
X9.642 Y2.0265
X9.6435 Y2.0655
X9.6444 Y2.1044
X9.6449 Y2.1434
X9.645 Y2.1824
X9.6446 Y2.2214
X9.6437 Y2.2604
X9.6423 Y2.2994
X9.6404 Y2.3383
X9.6381 Y2.3772
X9.6353 Y2.4161
X9.6321 Y2.455
X9.6284 Y2.4938
X9.6242 Y2.5326
X9.6195 Y2.5713
X9.6144 Y2.6099
X9.6089 Y2.6485
X9.6029 Y2.687
X9.5964 Y2.7255
X9.5895 Y2.7639
X9.5821 Y2.8021
X9.5743 Y2.8403
X9.566 Y2.8784
X9.5572 Y2.9164
X9.5481 Y2.9543
X9.5384 Y2.9921
X9.5284 Y3.0298
X9.5179 Y3.0673
X9.5069 Y3.1048
X9.4955 Y3.1421
X9.4837 Y3.1792
X9.4714 Y3.2162
X9.4587 Y3.2531
X9.4456 Y3.2898
X9.432 Y3.3264
X9.418 Y3.3627
X9.4036 Y3.399
X9.3887 Y3.435
X9.3734 Y3.4709
X9.3576 Y3.5065
X9.3409 Y3.5417
X9.3256 Y3.5703
X9.3205 Y3.5782
X9.3133 Y3.5874
X9.3044 Y3.5948
X9.2941 Y3.6004
X9.283 Y3.6038
X9.2715 Y3.605
X9.1626
G3 X9.1531 Y3.6028 I0.0009 J-0.025 F30
G1 X9.1495 Y3.6011 Z-0.1993
X9.1461 Y3.5996 Z-0.1984
X9.1428 Y3.5981 Z-0.1969
X9.1397 Y3.5967 Z-0.1948
X9.137 Y3.5954 Z-0.1923
X9.1347 Y3.5944 Z-0.1893
X9.1328 Y3.5935 Z-0.186
X9.1315 Y3.5929 Z-0.1823
X9.1306 Y3.5925 Z-0.1785
X9.1303 Y3.5924 Z-0.1746
G0 Z0.2
X9.087 Y0.676
Z-0.1496
G1 Z-0.1746 F30
Y0.6757 Z-0.1785
X9.0872 Y0.6748 Z-0.1823
X9.0874 Y0.6734 Z-0.186
X9.0878 Y0.6713 Z-0.1893
X9.0882 Y0.6688 Z-0.1923
X9.0888 Y0.6659 Z-0.1948
X9.0894 Y0.6626 Z-0.1969
X9.09 Y0.659 Z-0.1984
X9.0907 Y0.6553 Z-0.1993
X9.0914 Y0.6514 Z-0.1996
G3 X9.0988 Y0.645 I0.0077 J0.0014
G1 X9.2051 F39.37
X9.2197 Y0.6457
X9.2312 Y0.6472
X9.2428 Y0.6497
X9.2563 Y0.6538
X9.2716 Y0.6597
X9.2875 Y0.6674
X9.3059 Y0.6783
X9.3253 Y0.6919
X9.3471 Y0.71
X9.3716 Y0.7339
X9.3972 Y0.7633
X9.4206 Y0.7945
X9.442 Y0.827
X9.4619 Y0.8606
X9.4804 Y0.8949
X9.4978 Y0.9298
X9.5141 Y0.9652
X9.5296 Y1.001
X9.5442 Y1.0371
X9.5582 Y1.0736
X9.5714 Y1.1102
X9.5841 Y1.1471
X9.5961 Y1.1842
X9.6076 Y1.2214
X9.6186 Y1.2589
X9.6291 Y1.2964
X9.6391 Y1.3341
X9.6486 Y1.3719
X9.6576 Y1.4098
X9.6662 Y1.4479
X9.6743 Y1.486
X9.682 Y1.5243
X9.6892 Y1.5626
X9.6959 Y1.601
X9.7022 Y1.6395
X9.7081 Y1.678
X9.7135 Y1.7166
X9.7184 Y1.7553
X9.7229 Y1.794
X9.727 Y1.8328
X9.7306 Y1.8716
X9.7338 Y1.9105
X9.7365 Y1.9494
X9.7388 Y1.9883
X9.7406 Y2.0273
X9.742 Y2.0662
X9.7429 Y2.1052
X9.7434 Y2.1442
X9.7435 Y2.1832
X9.743 Y2.2222
X9.7421 Y2.2611
X9.7408 Y2.3001
X9.739 Y2.3391
X9.7367 Y2.378
X9.734 Y2.4169
X9.7309 Y2.4557
X9.7273 Y2.4946
X9.7232 Y2.5333
X9.7187 Y2.5721
X9.7137 Y2.6107
X9.7083 Y2.6494
X9.7024 Y2.6879
X9.6961 Y2.7264
X9.6894 Y2.7648
X9.6822 Y2.8031
X9.6746 Y2.8414
X9.6666 Y2.8795
X9.6581 Y2.9176
X9.6491 Y2.9555
X9.6398 Y2.9934
X9.63 Y3.0311
X9.6198 Y3.0687
X9.6091 Y3.1062
X9.598 Y3.1436
X9.5865 Y3.1809
X9.5746 Y3.218
X9.5623 Y3.255
X9.5495 Y3.2918
X9.5363 Y3.3285
X9.5227 Y3.3651
X9.5086 Y3.4014
X9.4942 Y3.4376
X9.4792 Y3.4737
X9.4638 Y3.5094
X9.4473 Y3.5448
X9.433 Y3.5715
X9.4287 Y3.5782
X9.4215 Y3.5873
X9.4126 Y3.5948
X9.4023 Y3.6004
X9.3912 Y3.6038
X9.3797 Y3.605
X9.2715
G3 X9.262 Y3.6028 I0.0009 J-0.025 F30
G1 X9.2584 Y3.6011 Z-0.1993
X9.2549 Y3.5996 Z-0.1984
X9.2516 Y3.5981 Z-0.1969
X9.2486 Y3.5967 Z-0.1948
X9.2459 Y3.5954 Z-0.1923
X9.2436 Y3.5944 Z-0.1893
X9.2417 Y3.5935 Z-0.186
X9.2403 Y3.5929 Z-0.1823
X9.2395 Y3.5925 Z-0.1785
X9.2392 Y3.5924 Z-0.1746
G0 Z0.2
X9.1932 Y0.676
Z-0.1496
G1 Z-0.1746 F30
X9.1933 Y0.6757 Z-0.1785
X9.1935 Y0.6748 Z-0.1823
X9.1937 Y0.6734 Z-0.186
X9.1941 Y0.6713 Z-0.1893
X9.1945 Y0.6688 Z-0.1923
X9.1951 Y0.6659 Z-0.1948
X9.1957 Y0.6626 Z-0.1969
X9.1963 Y0.659 Z-0.1984
X9.197 Y0.6553 Z-0.1993
X9.1977 Y0.6514 Z-0.1996
G3 X9.2051 Y0.645 I0.0077 J0.0014
G1 X9.3162 F39.37
X9.3262 Y0.6455
X9.3376 Y0.647
X9.3491 Y0.6494
X9.3626 Y0.6535
X9.3777 Y0.6594
X9.3935 Y0.667
X9.4117 Y0.6778
X9.4309 Y0.6913
X9.4524 Y0.7091
X9.4764 Y0.7326
X9.5021 Y0.7619
X9.5254 Y0.7932
X9.5467 Y0.8258
X9.5665 Y0.8595
X9.5848 Y0.8939
X9.6019 Y0.9289
X9.6181 Y0.9644
X9.6333 Y1.0003
X9.6477 Y1.0365
X9.6613 Y1.073
X9.6743 Y1.1098
X9.6867 Y1.1468
X9.6985 Y1.1839
X9.7098 Y1.2213
X9.7205 Y1.2587
X9.7307 Y1.2964
X9.7405 Y1.3341
X9.7497 Y1.372
X9.7585 Y1.41
X9.7669 Y1.4481
X9.7748 Y1.4863
X9.7822 Y1.5245
X9.7892 Y1.5629
X9.7958 Y1.6013
X9.8019 Y1.6398
X9.8076 Y1.6784
X9.8128 Y1.717
X9.8177 Y1.7557
X9.822 Y1.7945
X9.826 Y1.8333
X9.8295 Y1.8721
X9.8326 Y1.911
X9.8352 Y1.9499
X9.8374 Y1.9888
X9.8392 Y2.0277
X9.8406 Y2.0667
X9.8415 Y2.1057
X9.8419 Y2.1447
X9.842 Y2.1837
X9.8415 Y2.2227
X9.8407 Y2.2616
X9.8394 Y2.3006
X9.8376 Y2.3396
X9.8354 Y2.3785
X9.8328 Y2.4174
X9.8297 Y2.4563
X9.8262 Y2.4951
X9.8222 Y2.5339
X9.8178 Y2.5726
X9.813 Y2.6113
X9.8077 Y2.6499
X9.802 Y2.6885
X9.7959 Y2.727
X9.7893 Y2.7655
X9.7824 Y2.8038
X9.7749 Y2.8421
X9.7671 Y2.8803
X9.7589 Y2.9184
X9.7502 Y2.9564
X9.7411 Y2.9943
X9.7315 Y3.0321
X9.7216 Y3.0698
X9.7112 Y3.1074
X9.7005 Y3.1449
X9.6893 Y3.1822
X9.6777 Y3.2195
X9.6656 Y3.2566
X9.6532 Y3.2935
X9.6404 Y3.3303
X9.6271 Y3.367
X9.6134 Y3.4035
X9.5993 Y3.4399
X9.5848 Y3.476
X9.5696 Y3.512
X9.5534 Y3.5474
X9.5399 Y3.5726
X9.5363 Y3.5782
X9.5291 Y3.5873
X9.5201 Y3.5948
X9.5099 Y3.6004
X9.4988 Y3.6038
X9.4872 Y3.605
X9.3797
G3 X9.3702 Y3.6028 I0.0009 J-0.025 F30
G1 X9.3666 Y3.6011 Z-0.1993
X9.3631 Y3.5996 Z-0.1984
X9.3598 Y3.5981 Z-0.1969
X9.3568 Y3.5967 Z-0.1948
X9.3541 Y3.5954 Z-0.1923
X9.3518 Y3.5944 Z-0.1893
X9.3499 Y3.5935 Z-0.186
X9.3485 Y3.5929 Z-0.1823
X9.3477 Y3.5925 Z-0.1785
X9.3474 Y3.5924 Z-0.1746
G0 Z0.2
X9.3044 Y0.676
Z-0.1496
G1 Z-0.1746 F30
X9.3045 Y0.6757 Z-0.1785
X9.3046 Y0.6748 Z-0.1823
X9.3049 Y0.6734 Z-0.186
X9.3053 Y0.6713 Z-0.1893
X9.3057 Y0.6688 Z-0.1923
X9.3062 Y0.6659 Z-0.1948
X9.3068 Y0.6626 Z-0.1969
X9.3075 Y0.659 Z-0.1984
X9.3081 Y0.6553 Z-0.1993
X9.3088 Y0.6514 Z-0.1996
G3 X9.3162 Y0.645 I0.0077 J0.0014
G1 X9.4177 F39.37
X9.4327 Y0.6458
X9.4439 Y0.6472
X9.4553 Y0.6497
X9.4688 Y0.6537
X9.4836 Y0.6595
X9.4993 Y0.6671
X9.5172 Y0.6777
X9.5363 Y0.6911
X9.5574 Y0.7086
X9.581 Y0.7316
X9.6067 Y0.761
X9.6299 Y0.7923
X9.6512 Y0.825
X9.6708 Y0.8587
X9.6889 Y0.8932
X9.7059 Y0.9283
X9.7218 Y0.9639
X9.7368 Y0.9999
X9.7509 Y1.0363
X9.7643 Y1.0729
X9.7771 Y1.1097
X9.7892 Y1.1468
X9.8008 Y1.184
X9.8118 Y1.2214
X9.8223 Y1.259
X9.8322 Y1.2967
X9.8417 Y1.3345
X9.8508 Y1.3724
X9.8594 Y1.4104
X9.8675 Y1.4486
X9.8752 Y1.4868
X9.8824 Y1.5251
X9.8893 Y1.5635
X9.8956 Y1.602
X9.9016 Y1.6405
X9.9071 Y1.6791
X9.9122 Y1.7177
X9.9169 Y1.7565
X9.9212 Y1.7952
X9.925 Y1.834
X9.9284 Y1.8729
X9.9314 Y1.9117
X9.934 Y1.9506
X9.9362 Y1.9896
X9.9379 Y2.0285
X9.9392 Y2.0675
X9.94 Y2.1065
X9.9405 Y2.1455
Y2.1844
X9.9401 Y2.2234
X9.9392 Y2.2624
X9.938 Y2.3014
X9.9363 Y2.3403
X9.9341 Y2.3793
X9.9315 Y2.4182
X9.9285 Y2.4571
X9.9251 Y2.4959
X9.9212 Y2.5347
X9.9169 Y2.5734
X9.9122 Y2.6122
X9.9071 Y2.6508
X9.9016 Y2.6894
X9.8956 Y2.7279
X9.8892 Y2.7664
X9.8824 Y2.8048
X9.8752 Y2.8431
X9.8675 Y2.8813
X9.8595 Y2.9195
X9.851 Y2.9576
X9.8422 Y2.9955
X9.8329 Y3.0334
X9.8232 Y3.0712
X9.8131 Y3.1088
X9.8026 Y3.1464
X9.7917 Y3.1838
X9.7804 Y3.2211
X9.7687 Y3.2583
X9.7566 Y3.2954
X9.7441 Y3.3323
X9.7312 Y3.3691
X9.7178 Y3.4057
X9.7041 Y3.4422
X9.6898 Y3.4785
X9.675 Y3.5146
X9.6589 Y3.5501
X9.6461 Y3.574
X9.6433 Y3.5783
X9.6361 Y3.5874
X9.6272 Y3.5949
X9.617 Y3.6004
X9.6059 Y3.6038
X9.5943 Y3.605
X9.4872
G3 X9.4777 Y3.6028 I0.0009 J-0.025 F30
G1 X9.4742 Y3.6011 Z-0.1993
X9.4707 Y3.5996 Z-0.1984
X9.4674 Y3.5981 Z-0.1969
X9.4644 Y3.5967 Z-0.1948
X9.4617 Y3.5954 Z-0.1923
X9.4593 Y3.5944 Z-0.1893
X9.4575 Y3.5935 Z-0.186
X9.4561 Y3.5929 Z-0.1823
X9.4553 Y3.5925 Z-0.1785
X9.455 Y3.5924 Z-0.1746
G0 Z0.2
X9.4058 Y0.676
Z-0.1496
G1 Z-0.1746 F30
X9.4059 Y0.6757 Z-0.1785
X9.406 Y0.6748 Z-0.1823
X9.4063 Y0.6734 Z-0.186
X9.4067 Y0.6713 Z-0.1893
X9.4071 Y0.6688 Z-0.1923
X9.4077 Y0.6659 Z-0.1948
X9.4082 Y0.6626 Z-0.1969
X9.4089 Y0.659 Z-0.1984
X9.4096 Y0.6553 Z-0.1993
X9.4102 Y0.6514 Z-0.1996
G3 X9.4177 Y0.645 I0.0077 J0.0014
G1 X9.524 F39.37
X9.5382 Y0.6457
X9.5493 Y0.6472
X9.5606 Y0.6496
X9.5742 Y0.6536
X9.5888 Y0.6593
X9.6044 Y0.6669
X9.6222 Y0.6774
X9.6411 Y0.6907
X9.6619 Y0.708
X9.6852 Y0.7307
X9.7108 Y0.7601
X9.734 Y0.7914
X9.7552 Y0.8242
X9.7747 Y0.8579
X9.7927 Y0.8925
X9.8095 Y0.9277
X9.8252 Y0.9634
X9.8399 Y0.9995
X9.8539 Y1.0359
X9.8671 Y1.0726
X9.8796 Y1.1095
X9.8915 Y1.1467
X9.9028 Y1.184
X9.9136 Y1.2214
X9.9238 Y1.2591
X9.9336 Y1.2968
X9.9429 Y1.3347
X9.9517 Y1.3727
X9.9601 Y1.4107
X9.968 Y1.4489
X9.9755 Y1.4872
X9.9826 Y1.5255
X9.9892 Y1.5639
X9.9954 Y1.6024
X10.0013 Y1.641
X10.0066 Y1.6796
X10.0116 Y1.7183
X10.0162 Y1.757
X10.0203 Y1.7958
X10.0241 Y1.8346
X10.0274 Y1.8734
X10.0303 Y1.9123
X10.0328 Y1.9512
X10.0349 Y1.9902
X10.0366 Y2.0291
X10.0378 Y2.0681
X10.0387 Y2.1071
X10.0391 Y2.146
Y2.185
X10.0387 Y2.224
X10.0379 Y2.263
X10.0366 Y2.302
X10.0349 Y2.3409
X10.0328 Y2.3799
X10.0303 Y2.4188
X10.0274 Y2.4577
X10.024 Y2.4965
X10.0203 Y2.5353
X10.0161 Y2.5741
X10.0115 Y2.6128
X10.0065 Y2.6515
X10.0011 Y2.6901
X9.9953 Y2.7286
X9.9891 Y2.7671
X9.9824 Y2.8056
X9.9754 Y2.8439
X9.968 Y2.8822
X9.9601 Y2.9204
X9.9519 Y2.9585
X9.9432 Y2.9965
X9.9342 Y3.0344
X9.9247 Y3.0723
X9.9149 Y3.11
X9.9047 Y3.1476
X9.8941 Y3.1851
X9.883 Y3.2225
X9.8716 Y3.2598
X9.8598 Y3.297
X9.8476 Y3.334
X9.835 Y3.3709
X9.822 Y3.4077
X9.8086 Y3.4443
X9.7947 Y3.4807
X9.78 Y3.5168
X9.7641 Y3.5524
X9.7518 Y3.5754
X9.7498 Y3.5784
X9.7426 Y3.5875
X9.7337 Y3.5949
X9.7235 Y3.6004
X9.7124 Y3.6038
X9.7009 Y3.605
X9.5943
G3 X9.5848 Y3.6028 I0.0009 J-0.025 F30
G1 X9.5812 Y3.6011 Z-0.1993
X9.5778 Y3.5996 Z-0.1984
X9.5745 Y3.5981 Z-0.1969
X9.5714 Y3.5967 Z-0.1948
X9.5687 Y3.5954 Z-0.1923
X9.5664 Y3.5944 Z-0.1893
X9.5645 Y3.5935 Z-0.186
X9.5632 Y3.5929 Z-0.1823
X9.5623 Y3.5925 Z-0.1785
X9.5621 Y3.5924 Z-0.1746
G0 Z0.2
X9.5121 Y0.676
Z-0.1496
G1 Z-0.1746 F30
X9.5122 Y0.6757 Z-0.1785
X9.5123 Y0.6748 Z-0.1823
X9.5126 Y0.6734 Z-0.186
X9.513 Y0.6713 Z-0.1893
X9.5134 Y0.6688 Z-0.1923
X9.5139 Y0.6659 Z-0.1948
X9.5145 Y0.6626 Z-0.1969
X9.5152 Y0.659 Z-0.1984
X9.5158 Y0.6553 Z-0.1993
X9.5165 Y0.6514 Z-0.1996
G3 X9.524 Y0.645 I0.0077 J0.0014
G1 X9.6303 F39.37
X9.6433 Y0.6457
X9.6542 Y0.6471
X9.6656 Y0.6495
X9.6791 Y0.6536
X9.6935 Y0.6592
X9.7091 Y0.6668
X9.7267 Y0.6771
X9.7454 Y0.6903
X9.766 Y0.7074
X9.789 Y0.7298
X9.8143 Y0.7588
X9.8375 Y0.7901
X9.8586 Y0.8229
X9.878 Y0.8567
X9.8959 Y0.8914
X9.9125 Y0.9267
X9.928 Y0.9624
X9.9426 Y0.9986
X9.9564 Y1.0351
X9.9694 Y1.0718
X9.9817 Y1.1088
X9.9934 Y1.146
X10.0045 Y1.1834
X10.015 Y1.2209
X10.0251 Y1.2586
X10.0347 Y1.2964
X10.0437 Y1.3343
X10.0524 Y1.3723
X10.0606 Y1.4105
X10.0683 Y1.4487
X10.0757 Y1.487
X10.0826 Y1.5253
X10.0891 Y1.5638
X10.0951 Y1.6023
X10.1008 Y1.6409
X10.1061 Y1.6795
X10.1109 Y1.7182
X10.1154 Y1.7569
X10.1194 Y1.7957
X10.1231 Y1.8345
X10.1263 Y1.8734
X10.1291 Y1.9123
X10.1316 Y1.9512
X10.1336 Y1.9901
X10.1352 Y2.0291
X10.1365 Y2.0681
X10.1373 Y2.107
X10.1377 Y2.146
Y2.185
X10.1373 Y2.224
X10.1365 Y2.263
X10.1353 Y2.302
X10.1337 Y2.3409
X10.1316 Y2.3799
X10.1292 Y2.4188
X10.1263 Y2.4577
X10.1231 Y2.4965
X10.1194 Y2.5353
X10.1153 Y2.5741
X10.1109 Y2.6128
X10.106 Y2.6515
X10.1007 Y2.6902
X10.0951 Y2.7287
X10.089 Y2.7673
X10.0825 Y2.8057
X10.0757 Y2.8441
X10.0684 Y2.8824
X10.0608 Y2.9206
X10.0528 Y2.9588
X10.0443 Y2.9969
X10.0355 Y3.0348
X10.0263 Y3.0727
X10.0167 Y3.1105
X10.0068 Y3.1482
X9.9964 Y3.1858
X9.9857 Y3.2233
X9.9745 Y3.2607
X9.963 Y3.2979
X9.9511 Y3.3351
X9.9389 Y3.3721
X9.9262 Y3.4089
X9.913 Y3.4456
X9.8994 Y3.4822
X9.885 Y3.5184
X9.8693 Y3.5541
X9.8572 Y3.5764
X9.8559 Y3.5784
X9.8486 Y3.5875
X9.8398 Y3.5949
X9.8296 Y3.6004
X9.8185 Y3.6038
X9.807 Y3.605
X9.7009
G3 X9.6914 Y3.6028 I0.0009 J-0.025 F30
G1 X9.6878 Y3.6011 Z-0.1993
X9.6843 Y3.5996 Z-0.1984
X9.681 Y3.5981 Z-0.1969
X9.678 Y3.5967 Z-0.1948
X9.6753 Y3.5954 Z-0.1923
X9.673 Y3.5944 Z-0.1893
X9.6711 Y3.5935 Z-0.186
X9.6697 Y3.5929 Z-0.1823
X9.6689 Y3.5925 Z-0.1785
X9.6686 Y3.5924 Z-0.1746
G0 Z0.2
X9.6184 Y0.676
Z-0.1496
G1 Z-0.1746 F30
X9.6185 Y0.6757 Z-0.1785
X9.6186 Y0.6748 Z-0.1823
X9.6189 Y0.6734 Z-0.186
X9.6193 Y0.6713 Z-0.1893
X9.6197 Y0.6688 Z-0.1923
X9.6202 Y0.6659 Z-0.1948
X9.6208 Y0.6626 Z-0.1969
X9.6215 Y0.659 Z-0.1984
X9.6221 Y0.6553 Z-0.1993
X9.6228 Y0.6514 Z-0.1996
G3 X9.6303 Y0.645 I0.0077 J0.0014
G1 X9.7365 F39.37
X9.7479 Y0.6456
X9.7587 Y0.647
X9.77 Y0.6494
X9.7836 Y0.6535
X9.7978 Y0.659
X9.8134 Y0.6666
X9.8308 Y0.6768
X9.8494 Y0.6899
X9.8698 Y0.7068
X9.8925 Y0.729
X9.9174 Y0.7576
X9.9406 Y0.7889
X9.9617 Y0.8217
X9.981 Y0.8556
X9.9988 Y0.8903
X10.0153 Y0.9256
X10.0306 Y0.9615
X10.0451 Y0.9977
X10.0586 Y1.0342
X10.0714 Y1.0711
X10.0836 Y1.1081
X10.0951 Y1.1454
X10.106 Y1.1828
X10.1164 Y1.2204
X10.1262 Y1.2581
X10.1356 Y1.296
X10.1445 Y1.3339
X10.153 Y1.372
X10.161 Y1.4101
X10.1686 Y1.4484
X10.1757 Y1.4867
X10.1825 Y1.5251
X10.1888 Y1.5636
X10.1948 Y1.6021
X10.2003 Y1.6407
X10.2055 Y1.6794
X10.2102 Y1.7181
X10.2145 Y1.7568
X10.2185 Y1.7956
X10.2221 Y1.8344
X10.2252 Y1.8733
X10.228 Y1.9122
X10.2304 Y1.9511
X10.2324 Y1.99
X10.234 Y2.029
X10.2352 Y2.068
X10.236 Y2.107
X10.2364 Y2.1459
Y2.1849
X10.236 Y2.2239
X10.2352 Y2.2629
X10.234 Y2.3019
X10.2324 Y2.3408
X10.2305 Y2.3798
X10.2281 Y2.4187
X10.2253 Y2.4576
X10.2221 Y2.4964
X10.2185 Y2.5353
X10.2146 Y2.5741
X10.2102 Y2.6128
X10.2055 Y2.6515
X10.2003 Y2.6902
X10.1948 Y2.7288
X10.1889 Y2.7673
X10.1826 Y2.8058
X10.1759 Y2.8442
X10.1689 Y2.8825
X10.1614 Y2.9208
X10.1536 Y2.959
X10.1454 Y2.9971
X10.1368 Y3.0352
X10.1278 Y3.0731
X10.1184 Y3.111
X10.1087 Y3.1487
X10.0986 Y3.1864
X10.0881 Y3.2239
X10.0773 Y3.2614
X10.0661 Y3.2987
X10.0545 Y3.3359
X10.0425 Y3.373
X10.0301 Y3.41
X10.0172 Y3.4468
X10.0039 Y3.4834
X9.9897 Y3.5198
X9.9746 Y3.5543
X9.9628 Y3.5763
X9.9616 Y3.5783
X9.9543 Y3.5874
X9.9454 Y3.5948
X9.9352 Y3.6004
X9.9241 Y3.6038
X9.9125 Y3.605
X9.807
G3 X9.7975 Y3.6028 I0.0009 J-0.025 F30
G1 X9.7939 Y3.6011 Z-0.1993
X9.7904 Y3.5996 Z-0.1984
X9.7871 Y3.5981 Z-0.1969
X9.7841 Y3.5967 Z-0.1948
X9.7814 Y3.5954 Z-0.1923
X9.7791 Y3.5944 Z-0.1893
X9.7772 Y3.5935 Z-0.186
X9.7758 Y3.5929 Z-0.1823
X9.775 Y3.5925 Z-0.1785
X9.7747 Y3.5924 Z-0.1746
G0 Z0.2
X9.7247 Y0.676
Z-0.1496
G1 Z-0.1746 F30
X9.7248 Y0.6757 Z-0.1785
X9.7249 Y0.6748 Z-0.1823
X9.7252 Y0.6734 Z-0.186
X9.7256 Y0.6713 Z-0.1893
X9.726 Y0.6688 Z-0.1923
X9.7265 Y0.6659 Z-0.1948
X9.7271 Y0.6626 Z-0.1969
X9.7278 Y0.659 Z-0.1984
X9.7284 Y0.6553 Z-0.1993
X9.7291 Y0.6514 Z-0.1996
G3 X9.7365 Y0.645 I0.0077 J0.0014
G1 X9.8428 F39.37
X9.8521 Y0.6455
X9.8628 Y0.6469
X9.8741 Y0.6493
X9.8877 Y0.6533
X9.9017 Y0.6588
X9.9173 Y0.6664
X9.9345 Y0.6765
X9.953 Y0.6895
X9.9732 Y0.7063
X9.9957 Y0.7282
X10.0203 Y0.7564
X10.0435 Y0.7878
X10.0645 Y0.8206
X10.0837 Y0.8545
X10.1014 Y0.8893
X10.1178 Y0.9247
X10.133 Y0.9605
X10.1473 Y0.9968
X10.1607 Y1.0335
X10.1733 Y1.0703
X10.1853 Y1.1074
X10.1966 Y1.1448
X10.2074 Y1.1822
X10.2175 Y1.2199
X10.2272 Y1.2576
X10.2364 Y1.2955
X10.2452 Y1.3335
X10.2535 Y1.3716
X10.2613 Y1.4098
X10.2688 Y1.4481
X10.2758 Y1.4865
X10.2824 Y1.5249
X10.2886 Y1.5634
X10.2944 Y1.6019
X10.2998 Y1.6405
X10.3048 Y1.6792
X10.3095 Y1.7179
X10.3137 Y1.7567
X10.3176 Y1.7955
X10.3211 Y1.8343
X10.3242 Y1.8732
X10.3269 Y1.9121
X10.3292 Y1.951
X10.3311 Y1.9899
X10.3327 Y2.0289
X10.3339 Y2.0679
X10.3347 Y2.1069
X10.3351 Y2.1458
Y2.1848
X10.3347 Y2.2238
X10.3339 Y2.2628
X10.3328 Y2.3018
X10.3312 Y2.3407
X10.3293 Y2.3797
X10.327 Y2.4186
X10.3243 Y2.4575
X10.3212 Y2.4964
X10.3177 Y2.5352
X10.3138 Y2.574
X10.3096 Y2.6128
X10.3049 Y2.6515
X10.2999 Y2.6901
X10.2945 Y2.7288
X10.2888 Y2.7673
X10.2826 Y2.8058
X10.2761 Y2.8443
X10.2692 Y2.8826
X10.262 Y2.921
X10.2543 Y2.9592
X10.2463 Y2.9973
X10.2379 Y3.0354
X10.2292 Y3.0734
X10.2201 Y3.1113
X10.2106 Y3.1492
X10.2007 Y3.1869
X10.1905 Y3.2245
X10.1799 Y3.262
X10.1689 Y3.2994
X10.1576 Y3.3368
X10.1459 Y3.3739
X10.1338 Y3.411
X10.1212 Y3.4479
X10.108 Y3.4846
X10.0941 Y3.521
X10.0796 Y3.5545
X10.068 Y3.5762
X10.0668 Y3.5781
X10.0596 Y3.5873
X10.0506 Y3.5948
X10.0404 Y3.6004
X10.0293 Y3.6038
X10.0177 Y3.605
X9.9125
G3 X9.903 Y3.6028 I0.0009 J-0.025 F30
G1 X9.8995 Y3.6011 Z-0.1993
X9.896 Y3.5996 Z-0.1984
X9.8927 Y3.5981 Z-0.1969
X9.8897 Y3.5967 Z-0.1948
X9.8869 Y3.5954 Z-0.1923
X9.8846 Y3.5944 Z-0.1893
X9.8828 Y3.5935 Z-0.186
X9.8814 Y3.5929 Z-0.1823
X9.8806 Y3.5925 Z-0.1785
X9.8803 Y3.5924 Z-0.1746
G0 Z0.2
X9.831 Y0.676
Z-0.1496
G1 Z-0.1746 F30
X9.8311 Y0.6757 Z-0.1785
X9.8312 Y0.6748 Z-0.1823
X9.8315 Y0.6734 Z-0.186
X9.8319 Y0.6713 Z-0.1893
X9.8323 Y0.6688 Z-0.1923
X9.8328 Y0.6659 Z-0.1948
X9.8334 Y0.6626 Z-0.1969
X9.8341 Y0.659 Z-0.1984
X9.8347 Y0.6553 Z-0.1993
X9.8354 Y0.6514 Z-0.1996
G3 X9.8428 Y0.645 I0.0077 J0.0014
G1 X9.9491 F39.37
X9.956 Y0.6453
X9.9665 Y0.6467
X9.9779 Y0.6492
X9.9914 Y0.6532
X10.0052 Y0.6586
X10.0208 Y0.6662
X10.0379 Y0.6762
X10.0564 Y0.6892
X10.0763 Y0.7057
X10.0986 Y0.7275
X10.1229 Y0.7554
X10.1461 Y0.7867
X10.1671 Y0.8196
X10.1862 Y0.8535
X10.2038 Y0.8883
X10.2201 Y0.9238
X10.2352 Y0.9597
X10.2493 Y0.9961
X10.2626 Y1.0327
X10.2751 Y1.0697
X10.2869 Y1.1068
X10.298 Y1.1442
X10.3086 Y1.1817
X10.3186 Y1.2194
X10.3281 Y1.2572
X10.3372 Y1.2951
X10.3458 Y1.3332
X10.3539 Y1.3713
X10.3616 Y1.4095
X10.3689 Y1.4478
X10.3758 Y1.4862
X10.3822 Y1.5247
X10.3883 Y1.5632
X10.394 Y1.6017
X10.3993 Y1.6404
X10.4042 Y1.6791
X10.4088 Y1.7178
X10.4129 Y1.7566
X10.4167 Y1.7954
X10.4201 Y1.8342
X10.4231 Y1.8731
X10.4258 Y1.912
X10.428 Y1.9509
X10.4299 Y1.9898
X10.4315 Y2.0288
X10.4326 Y2.0678
X10.4334 Y2.1068
X10.4338 Y2.1457
Y2.1847
X10.4334 Y2.2237
X10.4327 Y2.2627
X10.4316 Y2.3017
X10.4301 Y2.3406
X10.4282 Y2.3796
X10.4259 Y2.4185
X10.4233 Y2.4574
X10.4202 Y2.4963
X10.4168 Y2.5351
X10.4131 Y2.5739
X10.4089 Y2.6127
X10.4044 Y2.6514
X10.3995 Y2.6901
X10.3943 Y2.7288
X10.3886 Y2.7673
X10.3826 Y2.8059
X10.3763 Y2.8443
X10.3696 Y2.8827
X10.3625 Y2.9211
X10.355 Y2.9594
X10.3472 Y2.9976
X10.339 Y3.0357
X10.3305 Y3.0737
X10.3215 Y3.1117
X10.3123 Y3.1496
X10.3027 Y3.1873
X10.2927 Y3.225
X10.2823 Y3.2626
X10.2716 Y3.3001
X10.2606 Y3.3375
X10.2491 Y3.3748
X10.2372 Y3.4119
X10.2249 Y3.4489
X10.212 Y3.4857
X10.1982 Y3.5222
X10.1842 Y3.5547
X10.1728 Y3.5762
X10.1716 Y3.578
X10.1644 Y3.5872
X10.1555 Y3.5947
X10.1452 Y3.6004
X10.1341 Y3.6038
X10.1224 Y3.605
X10.0177
G3 X10.0082 Y3.6028 I0.0009 J-0.025 F30
G1 X10.0046 Y3.6011 Z-0.1993
X10.0011 Y3.5996 Z-0.1984
X9.9978 Y3.5981 Z-0.1969
X9.9948 Y3.5967 Z-0.1948
X9.9921 Y3.5954 Z-0.1923
X9.9898 Y3.5944 Z-0.1893
X9.9879 Y3.5935 Z-0.186
X9.9865 Y3.5929 Z-0.1823
X9.9857 Y3.5925 Z-0.1785
X9.9854 Y3.5924 Z-0.1746
G0 Z0.2
X9.9373 Y0.676
Z-0.1496
G1 Z-0.1746 F30
X9.9374 Y0.6757 Z-0.1785
X9.9375 Y0.6748 Z-0.1823
X9.9378 Y0.6734 Z-0.186
X9.9381 Y0.6713 Z-0.1893
X9.9386 Y0.6688 Z-0.1923
X9.9391 Y0.6659 Z-0.1948
X9.9397 Y0.6626 Z-0.1969
X9.9404 Y0.659 Z-0.1984
X9.941 Y0.6553 Z-0.1993
X9.9417 Y0.6514 Z-0.1996
G3 X9.9491 Y0.645 I0.0077 J0.0014
G1 X10.0466 F39.37
X10.06 Y0.6457
X10.0703 Y0.647
X10.0817 Y0.6495
X10.0952 Y0.6535
X10.1088 Y0.6588
X10.1244 Y0.6664
X10.1412 Y0.6763
X10.1596 Y0.6892
X10.1793 Y0.7056
X10.2014 Y0.7271
X10.2254 Y0.7547
X10.2486 Y0.786
X10.2696 Y0.8189
X10.2887 Y0.8529
X10.3062 Y0.8877
X10.3223 Y0.9232
X10.3373 Y0.9592
X10.3513 Y0.9956
X10.3644 Y1.0323
X10.3768 Y1.0693
X10.3884 Y1.1065
X10.3994 Y1.1439
X10.4098 Y1.1815
X10.4197 Y1.2192
X10.429 Y1.2571
X10.4379 Y1.295
X10.4463 Y1.3331
X10.4543 Y1.3713
X10.4619 Y1.4095
X10.469 Y1.4479
X10.4758 Y1.4863
X10.4821 Y1.5247
X10.4881 Y1.5633
X10.4936 Y1.6019
X10.4988 Y1.6405
X10.5036 Y1.6792
X10.5081 Y1.7179
X10.5121 Y1.7567
X10.5158 Y1.7955
X10.5191 Y1.8344
X10.5221 Y1.8733
X10.5247 Y1.9122
X10.5269 Y1.9511
X10.5288 Y1.99
X10.5303 Y2.029
X10.5314 Y2.068
X10.5321 Y2.107
X10.5325 Y2.1459
Y2.1849
X10.5322 Y2.2239
X10.5315 Y2.2629
X10.5304 Y2.3019
X10.5289 Y2.3408
X10.5271 Y2.3798
X10.5248 Y2.4187
X10.5223 Y2.4576
X10.5193 Y2.4965
X10.516 Y2.5354
X10.5123 Y2.5742
X10.5083 Y2.613
X10.5038 Y2.6517
X10.4991 Y2.6904
X10.4939 Y2.729
X10.4884 Y2.7676
X10.4826 Y2.8062
X10.4764 Y2.8447
X10.4698 Y2.8831
X10.4629 Y2.9215
X10.4556 Y2.9598
X10.4479 Y2.998
X10.4399 Y3.0362
X10.4316 Y3.0743
X10.4229 Y3.1123
X10.4138 Y3.1502
X10.4044 Y3.188
X10.3947 Y3.2258
X10.3846 Y3.2635
X10.3741 Y3.301
X10.3633 Y3.3385
X10.352 Y3.3758
X10.3404 Y3.413
X10.3283 Y3.4501
X10.3156 Y3.4869
X10.3019 Y3.5235
X10.2884 Y3.5551
X10.2771 Y3.5764
X10.2761 Y3.5779
X10.2689 Y3.5871
X10.26 Y3.5947
X10.2497 Y3.6004
X10.2385 Y3.6038
X10.2269 Y3.605
X10.1224
G3 X10.1129 Y3.6028 I0.0009 J-0.025 F30
G1 X10.1094 Y3.6011 Z-0.1993
X10.1059 Y3.5996 Z-0.1984
X10.1026 Y3.5981 Z-0.1969
X10.0996 Y3.5967 Z-0.1948
X10.0969 Y3.5954 Z-0.1923
X10.0945 Y3.5944 Z-0.1893
X10.0927 Y3.5935 Z-0.186
X10.0913 Y3.5929 Z-0.1823
X10.0905 Y3.5925 Z-0.1785
X10.0902 Y3.5924 Z-0.1746
G0 Z0.2
X10.0347 Y0.676
Z-0.1496
G1 Z-0.1746 F30
X10.0348 Y0.6757 Z-0.1785
X10.035 Y0.6748 Z-0.1823
X10.0352 Y0.6734 Z-0.186
X10.0356 Y0.6713 Z-0.1893
X10.036 Y0.6688 Z-0.1923
X10.0366 Y0.6659 Z-0.1948
X10.0371 Y0.6626 Z-0.1969
X10.0378 Y0.659 Z-0.1984
X10.0385 Y0.6553 Z-0.1993
X10.0392 Y0.6514 Z-0.1996
G3 X10.0466 Y0.645 I0.0077 J0.0014
G1 X10.1529 F39.37
X10.163 Y0.6455
X10.1733 Y0.6469
X10.1847 Y0.6493
X10.1981 Y0.6533
X10.2117 Y0.6586
X10.2273 Y0.6662
X10.244 Y0.676
X10.2624 Y0.6889
X10.2819 Y0.7052
X10.3038 Y0.7265
X10.3277 Y0.7538
X10.3509 Y0.7852
X10.3718 Y0.8181
X10.3908 Y0.8521
X10.4082 Y0.887
X10.4243 Y0.9225
X10.4392 Y0.9586
X10.453 Y0.995
X10.466 Y1.0318
X10.4782 Y1.0688
X10.4897 Y1.1061
X10.5006 Y1.1435
X10.5108 Y1.1811
X10.5206 Y1.2189
X10.5298 Y1.2568
X10.5385 Y1.2948
X10.5468 Y1.3329
X10.5546 Y1.3711
X10.5621 Y1.4094
X10.5691 Y1.4477
X10.5757 Y1.4861
X10.5819 Y1.5246
X10.5877 Y1.5632
X10.5932 Y1.6018
X10.5983 Y1.6404
X10.603 Y1.6792
X10.6073 Y1.7179
X10.6113 Y1.7567
X10.6149 Y1.7955
X10.6182 Y1.8344
X10.6211 Y1.8732
X10.6236 Y1.9122
X10.6258 Y1.9511
X10.6276 Y1.99
X10.6291 Y2.029
X10.6302 Y2.068
X10.6309 Y2.107
X10.6313 Y2.1459
Y2.1849
X10.631 Y2.2239
X10.6303 Y2.2629
X10.6292 Y2.3019
X10.6278 Y2.3408
X10.626 Y2.3798
X10.6238 Y2.4187
X10.6213 Y2.4576
X10.6184 Y2.4965
X10.6152 Y2.5354
X10.6116 Y2.5742
X10.6076 Y2.613
X10.6033 Y2.6517
X10.5986 Y2.6905
X10.5936 Y2.7291
X10.5882 Y2.7677
X10.5825 Y2.8063
X10.5764 Y2.8448
X10.57 Y2.8833
X10.5632 Y2.9217
X10.5561 Y2.96
X10.5487 Y2.9983
X10.5408 Y3.0365
X10.5327 Y3.0746
X10.5242 Y3.1127
X10.5153 Y3.1506
X10.5061 Y3.1885
X10.4966 Y3.2263
X10.4867 Y3.264
X10.4765 Y3.3017
X10.4659 Y3.3392
X10.4549 Y3.3766
X10.4435 Y3.4139
X10.4316 Y3.451
X10.419 Y3.4879
X10.4055 Y3.5245
X10.3923 Y3.5553
X10.3812 Y3.5765
X10.3803 Y3.5779
X10.3731 Y3.5871
X10.3641 Y3.5947
X10.3539 Y3.6003
X10.3427 Y3.6038
X10.331 Y3.605
X10.2269
G3 X10.2174 Y3.6028 I0.0009 J-0.025 F30
G1 X10.2138 Y3.6011 Z-0.1993
X10.2104 Y3.5996 Z-0.1984
X10.2071 Y3.5981 Z-0.1969
X10.204 Y3.5967 Z-0.1948
X10.2013 Y3.5954 Z-0.1923
X10.199 Y3.5944 Z-0.1893
X10.1971 Y3.5935 Z-0.186
X10.1957 Y3.5929 Z-0.1823
X10.1949 Y3.5925 Z-0.1785
X10.1946 Y3.5924 Z-0.1746
G0 Z0.2
X10.141 Y0.676
Z-0.1496
G1 Z-0.1746 F30
X10.1411 Y0.6757 Z-0.1785
X10.1412 Y0.6748 Z-0.1823
X10.1415 Y0.6734 Z-0.186
X10.1419 Y0.6713 Z-0.1893
X10.1423 Y0.6688 Z-0.1923
X10.1429 Y0.6659 Z-0.1948
X10.1434 Y0.6626 Z-0.1969
X10.1441 Y0.659 Z-0.1984
X10.1448 Y0.6553 Z-0.1993
X10.1454 Y0.6514 Z-0.1996
G3 X10.1529 Y0.645 I0.0077 J0.0014
G1 X10.2592 F39.37
X10.2658 Y0.6453
X10.2761 Y0.6467
X10.2874 Y0.6491
X10.3009 Y0.6531
X10.3143 Y0.6584
X10.3299 Y0.6659
X10.3466 Y0.6757
X10.3649 Y0.6886
X10.3843 Y0.7047
X10.406 Y0.7259
X10.4297 Y0.753
X10.4529 Y0.7844
X10.4738 Y0.8173
X10.4927 Y0.8514
X10.5101 Y0.8863
X10.5261 Y0.9219
X10.5408 Y0.9579
X10.5546 Y0.9944
X10.5675 Y1.0312
X10.5795 Y1.0683
X10.5909 Y1.1056
X10.6016 Y1.1431
X10.6118 Y1.1807
X10.6214 Y1.2185
X10.6304 Y1.2564
X10.639 Y1.2945
X10.6472 Y1.3326
X10.6549 Y1.3708
X10.6622 Y1.4091
X10.6691 Y1.4475
X10.6756 Y1.486
X10.6817 Y1.5245
X10.6874 Y1.563
X10.6928 Y1.6016
X10.6977 Y1.6403
X10.7024 Y1.679
X10.7066 Y1.7178
X10.7105 Y1.7566
X10.7141 Y1.7954
X10.7173 Y1.8343
X10.7201 Y1.8732
X10.7226 Y1.9121
X10.7247 Y1.951
X10.7265 Y1.99
X10.7279 Y2.0289
X10.729 Y2.0679
X10.7297 Y2.1069
X10.7301 Y2.1459
Y2.1849
X10.7298 Y2.2239
X10.7291 Y2.2628
X10.7281 Y2.3018
X10.7267 Y2.3408
X10.7249 Y2.3797
X10.7228 Y2.4187
X10.7203 Y2.4576
X10.7175 Y2.4965
X10.7143 Y2.5353
X10.7108 Y2.5742
X10.707 Y2.613
X10.7027 Y2.6517
X10.6982 Y2.6904
X10.6933 Y2.7291
X10.688 Y2.7678
X10.6824 Y2.8063
X10.6765 Y2.8449
X10.6702 Y2.8834
X10.6636 Y2.9218
X10.6566 Y2.9602
X10.6493 Y2.9985
X10.6417 Y3.0367
X10.6337 Y3.0749
X10.6254 Y3.1129
X10.6167 Y3.151
X10.6077 Y3.1889
X10.5984 Y3.2268
X10.5887 Y3.2645
X10.5787 Y3.3022
X10.5683 Y3.3398
X10.5576 Y3.3773
X10.5464 Y3.4146
X10.5347 Y3.4518
X10.5223 Y3.4888
X10.5088 Y3.5254
X10.496 Y3.5556
X10.485 Y3.5765
X10.4842 Y3.5778
X10.477 Y3.5871
X10.468 Y3.5947
X10.4577 Y3.6003
X10.4465 Y3.6038
X10.4349 Y3.605
X10.331
G3 X10.3215 Y3.6028 I0.0009 J-0.025 F30
G1 X10.318 Y3.6011 Z-0.1993
X10.3145 Y3.5996 Z-0.1984
X10.3112 Y3.5981 Z-0.1969
X10.3081 Y3.5967 Z-0.1948
X10.3054 Y3.5954 Z-0.1923
X10.3031 Y3.5944 Z-0.1893
X10.3012 Y3.5935 Z-0.186
X10.2999 Y3.5929 Z-0.1823
X10.299 Y3.5925 Z-0.1785
X10.2988 Y3.5924 Z-0.1746
G0 Z0.2
X10.2473 Y0.676
Z-0.1496
G1 Z-0.1746 F30
X10.2474 Y0.6757 Z-0.1785
X10.2475 Y0.6748 Z-0.1823
X10.2478 Y0.6734 Z-0.186
X10.2482 Y0.6713 Z-0.1893
X10.2486 Y0.6688 Z-0.1923
X10.2491 Y0.6659 Z-0.1948
X10.2497 Y0.6626 Z-0.1969
X10.2504 Y0.659 Z-0.1984
X10.251 Y0.6553 Z-0.1993
X10.2517 Y0.6514 Z-0.1996
G3 X10.2592 Y0.645 I0.0077 J0.0014
G1 X10.3566 F39.37
X10.3689 Y0.6456
X10.379 Y0.6469
X10.3904 Y0.6494
X10.4038 Y0.6534
X10.4171 Y0.6586
X10.4327 Y0.6661
X10.4491 Y0.6758
X10.4674 Y0.6886
X10.4867 Y0.7046
X10.5082 Y0.7257
X10.5316 Y0.7525
X10.5548 Y0.7839
X10.5757 Y0.8168
X10.5946 Y0.8509
X10.6119 Y0.8858
X10.6278 Y0.9215
X10.6425 Y0.9576
X10.6561 Y0.9941
X10.6689 Y1.0309
X10.6808 Y1.0681
X10.6921 Y1.1054
X10.7027 Y1.1429
X10.7127 Y1.1806
X10.7221 Y1.2184
X10.7311 Y1.2564
X10.7395 Y1.2944
X10.7476 Y1.3326
X10.7551 Y1.3708
X10.7623 Y1.4092
X10.7691 Y1.4476
X10.7755 Y1.486
X10.7814 Y1.5246
X10.7871 Y1.5631
X10.7923 Y1.6018
X10.7972 Y1.6405
X10.8017 Y1.6792
X10.8059 Y1.718
X10.8098 Y1.7568
X10.8132 Y1.7956
X10.8164 Y1.8345
X10.8191 Y1.8733
X10.8216 Y1.9123
X10.8237 Y1.9512
X10.8254 Y1.9902
X10.8268 Y2.0291
X10.8279 Y2.0681
X10.8286 Y2.1071
X10.8289 Y2.1461
X10.829 Y2.1851
X10.8286 Y2.224
X10.828 Y2.263
X10.8269 Y2.302
X10.8256 Y2.341
X10.8238 Y2.3799
X10.8218 Y2.4189
X10.8194 Y2.4578
X10.8166 Y2.4967
X10.8135 Y2.5355
X10.8101 Y2.5744
X10.8063 Y2.6132
X10.8022 Y2.652
X10.7977 Y2.6907
X10.7929 Y2.7294
X10.7878 Y2.768
X10.7823 Y2.8066
X10.7765 Y2.8452
X10.7703 Y2.8837
X10.7639 Y2.9222
X10.757 Y2.9605
X10.7499 Y2.9989
X10.7424 Y3.0371
X10.7346 Y3.0753
X10.7265 Y3.1135
X10.718 Y3.1515
X10.7092 Y3.1895
X10.7001 Y3.2274
X10.6906 Y3.2652
X10.6808 Y3.303
X10.6706 Y3.3406
X10.66 Y3.3781
X10.649 Y3.4156
X10.6375 Y3.4528
X10.6252 Y3.4898
X10.6119 Y3.5264
X10.5993 Y3.556
